; generated by PrusaSlicer 2.3.3+win64 on 2021-10-04 at 03:16:00 UTC

; 

; external perimeters extrusion width = 0.45mm
; perimeters extrusion width = 0.45mm
; infill extrusion width = 0.45mm
; solid infill extrusion width = 0.45mm
; top infill extrusion width = 0.40mm
; first layer extrusion width = 0.42mm

M73 P0 R60
M73 Q0 S60
M201 X1000 Y1000 Z200 E5000 ; sets maximum accelerations, mm/sec^2
M203 X200 Y200 Z12 E120 ; sets maximum feedrates, mm/sec
M204 P1250 R1250 T1250 ; sets acceleration (P, T) and retract acceleration (R), mm/sec^2
M205 X8.00 Y8.00 Z0.40 E4.50 ; sets the jerk limits, mm/sec
M205 S0 T0 ; sets the minimum extruding and travel feed rate, mm/sec
M107
;TYPE:Custom
M862.3 P "MK3S" ; printer model check
M862.1 P0.4 ; nozzle diameter check
M115 U3.10.0 ; tell printer latest fw version
G90 ; use absolute coordinates
M83 ; extruder relative mode
M104 S215 ; set extruder temp
M140 S60 ; set bed temp
M190 S60 ; wait for bed temp
M109 S215 ; wait for extruder temp
G28 W ; home all without mesh bed level
G80 ; mesh bed leveling
G1 Y-3.0 F1000.0 ; go outside print area
G92 E0.0
G1 X60.0 E9.0 F1000.0 ; intro line
G1 X100.0 E12.5 F1000.0 ; intro line
G92 E0.0
M221 S95

; Don't change E values below. Excessive value can damage the printer.
M907 E430 ; set extruder motor current
G21 ; set units to millimeters
G90 ; use absolute coordinates
M83 ; use relative distances for extrusion
M900 K0.05 ; Filament gcode LA 1.5
M900 K30 ; Filament gcode LA 1.0
;LAYER_CHANGE
;Z:0.2
;HEIGHT:0.2
;BEFORE_LAYER_CHANGE
G92 E0.0
;0.2


G1 E-0.80000 F2100.000
G1 Z0.400 F10800.000
;AFTER_LAYER_CHANGE
;0.2
G1 X81.050 Y77.140
G1 Z0.200
G1 E0.80000 F2100.000
M204 S1000
;TYPE:Skirt
;WIDTH:0.42
G1 F1200.000
G1 X81.800 Y76.490 E0.03113
G1 X82.382 Y76.142 E0.02126
G1 X83.066 Y75.863 E0.02317
G1 X83.774 Y75.694 E0.02282
G1 X84.496 Y75.636 E0.02270
G1 X165.485 Y75.635 E2.53936
M73 P0 R59
G1 X166.278 Y75.703 E0.02496
G1 X167.123 Y75.931 E0.02745
G1 X168.152 Y76.459 E0.03625
G1 X168.827 Y77.010 E0.02733
G1 X169.351 Y77.625 E0.02532
G1 X169.786 Y78.372 E0.02711
G1 X170.146 Y79.474 E0.03635
G1 X170.237 Y80.283 E0.02554
G1 X170.238 Y129.698 E1.54935
G1 X170.049 Y130.930 E0.03910
G1 X169.700 Y131.807 E0.02959
G1 X168.950 Y132.860 E0.04052
G1 X168.200 Y133.510 E0.03113
G1 X167.618 Y133.858 E0.02127
G1 X166.934 Y134.137 E0.02317
G1 X166.226 Y134.306 E0.02282
G1 X165.504 Y134.364 E0.02270
G1 X84.488 Y134.364 E2.54019
G1 X83.213 Y134.179 E0.04040
G1 X82.331 Y133.832 E0.02971
G1 X81.268 Y133.078 E0.04088
G1 X80.615 Y132.325 E0.03125
G1 X80.269 Y131.746 E0.02115
G1 X79.990 Y131.066 E0.02306
G1 X79.820 Y130.358 E0.02282
G1 X79.761 Y129.644 E0.02246
G1 X79.761 Y80.344 E1.54577
G1 X79.948 Y79.081 E0.04005
G1 X80.297 Y78.200 E0.02971
G1 X81.015 Y77.189 E0.03888
; printing object ridge_wallet_inner.STL id:0 copy 0
;WIPE_START
G1 F8640.000
G1 X81.800 Y76.490 E-0.24274
G1 X82.382 Y76.142 E-0.15659
G1 X83.066 Y75.863 E-0.17066
G1 X83.774 Y75.694 E-0.16802
G1 X83.869 Y75.686 E-0.02199
;WIPE_END
G1 E-0.04000 F2100.000
G1 Z0.600 F10800.000
G1 X123.114 Y124.675
G1 Z0.200
G1 E0.80000 F2100.000
;TYPE:Perimeter
G1 F1200.000
G1 X123.572 Y124.393 E0.01686
G1 X124.071 Y124.193 E0.01686
G1 X124.597 Y124.080 E0.01686
G1 X125.097 Y124.058 E0.01569
G1 X125.665 Y124.124 E0.01792
G1 X126.182 Y124.282 E0.01698
G1 X126.663 Y124.525 E0.01686
G1 X127.095 Y124.844 E0.01686
G1 X127.467 Y125.233 E0.01686
G1 X127.768 Y125.678 E0.01686
G1 X127.990 Y126.169 E0.01686
G1 X128.126 Y126.689 E0.01686
G1 X128.171 Y127.225 E0.01686
G1 X128.126 Y127.761 E0.01686
G1 X127.990 Y128.281 E0.01686
G1 X127.768 Y128.772 E0.01686
G1 X127.467 Y129.217 E0.01686
G1 X127.121 Y129.578 E0.01569
G1 X126.666 Y129.924 E0.01792
G1 X126.182 Y130.167 E0.01698
G1 X125.668 Y130.325 E0.01686
G1 X125.135 Y130.393 E0.01686
G1 X124.597 Y130.370 E0.01686
G1 X124.071 Y130.257 E0.01686
G1 X123.572 Y130.057 E0.01686
G1 X123.114 Y129.775 E0.01686
G1 X122.711 Y129.419 E0.01686
G1 X122.373 Y129.001 E0.01686
G1 X122.110 Y128.531 E0.01686
G1 X121.931 Y128.024 E0.01686
G1 X121.843 Y127.510 E0.01634
G1 X121.843 Y126.940 E0.01790
G1 X121.931 Y126.426 E0.01634
G1 X122.110 Y125.919 E0.01686
G1 X122.373 Y125.449 E0.01686
G1 X122.711 Y125.031 E0.01686
G1 X123.069 Y124.715 E0.01498
G1 X123.318 Y124.998 F10800.000
;TYPE:External perimeter
G1 F1200.000
G1 X123.743 Y124.731 E0.01571
G1 X124.182 Y124.555 E0.01485
G1 X124.645 Y124.455 E0.01485
G1 X125.083 Y124.436 E0.01375
G1 X125.587 Y124.495 E0.01590
G1 X126.041 Y124.634 E0.01489
G1 X126.464 Y124.847 E0.01485
G1 X126.845 Y125.129 E0.01485
G1 X127.173 Y125.471 E0.01485
G1 X127.438 Y125.863 E0.01485
G1 X127.633 Y126.295 E0.01485
G1 X127.753 Y126.753 E0.01485
G1 X127.793 Y127.225 E0.01485
G1 X127.753 Y127.697 E0.01485
G1 X127.633 Y128.155 E0.01485
G1 X127.438 Y128.587 E0.01485
G1 X127.173 Y128.979 E0.01485
G1 X126.869 Y129.296 E0.01375
G1 X126.465 Y129.603 E0.01590
G1 X126.041 Y129.816 E0.01489
G1 X125.588 Y129.955 E0.01485
G1 X125.119 Y130.015 E0.01485
G1 X124.645 Y129.995 E0.01485
G1 X124.182 Y129.895 E0.01485
G1 X123.743 Y129.719 E0.01485
G1 X123.339 Y129.470 E0.01485
G1 X122.984 Y129.157 E0.01485
G1 X122.686 Y128.789 E0.01485
G1 X122.455 Y128.375 E0.01485
G1 X122.297 Y127.929 E0.01485
G1 X122.219 Y127.470 E0.01458
G1 X122.219 Y126.980 E0.01539
G1 X122.297 Y126.521 E0.01458
G1 X122.455 Y126.075 E0.01485
G1 X122.686 Y125.661 E0.01485
G1 X122.984 Y125.293 E0.01485
G1 X123.273 Y125.038 E0.01210
G1 X123.270 Y124.601 F10800.000
;WIPE_START
G1 F8640.000
G1 X123.743 Y124.731 E-0.12943
G1 X124.182 Y124.555 E-0.10937
G1 X124.645 Y124.455 E-0.10937
G1 X125.083 Y124.436 E-0.10123
G1 X125.587 Y124.495 E-0.11712
G1 X126.041 Y124.634 E-0.10967
G1 X126.365 Y124.797 E-0.08381
;WIPE_END
G1 E-0.04000 F2100.000
G1 Z0.600 F10800.000
G1 X160.031 Y126.426
G1 Z0.200
G1 E0.80000 F2100.000
;TYPE:Perimeter
G1 F1200.000
G1 X160.210 Y125.919 E0.01686
G1 X160.473 Y125.449 E0.01686
G1 X160.811 Y125.031 E0.01686
G1 X161.214 Y124.675 E0.01686
G1 X161.672 Y124.393 E0.01686
G1 X162.171 Y124.193 E0.01686
G1 X162.697 Y124.080 E0.01686
G1 X163.197 Y124.058 E0.01569
G1 X163.765 Y124.124 E0.01792
G1 X164.282 Y124.282 E0.01698
G1 X164.763 Y124.525 E0.01686
G1 X165.195 Y124.844 E0.01686
G1 X165.567 Y125.233 E0.01686
G1 X165.868 Y125.678 E0.01686
G1 X166.090 Y126.169 E0.01686
G1 X166.226 Y126.689 E0.01686
G1 X166.271 Y127.225 E0.01686
G1 X166.226 Y127.761 E0.01686
G1 X166.090 Y128.281 E0.01686
G1 X165.868 Y128.772 E0.01686
G1 X165.567 Y129.217 E0.01686
G1 X165.195 Y129.606 E0.01686
G1 X164.763 Y129.925 E0.01686
G1 X164.282 Y130.167 E0.01686
G1 X163.768 Y130.325 E0.01686
G1 X163.235 Y130.393 E0.01686
G1 X162.697 Y130.370 E0.01686
G1 X162.171 Y130.257 E0.01686
G1 X161.672 Y130.057 E0.01686
G1 X161.214 Y129.775 E0.01686
G1 X160.811 Y129.419 E0.01686
G1 X160.473 Y129.001 E0.01686
G1 X160.210 Y128.531 E0.01686
G1 X160.031 Y128.024 E0.01686
G1 X159.943 Y127.510 E0.01634
G1 X159.931 Y127.225 E0.00896
G1 X159.943 Y126.940 E0.00896
G1 X160.021 Y126.485 E0.01446
G1 X160.393 Y126.549 F10800.000
;TYPE:External perimeter
G1 F1200.000
G1 X160.555 Y126.075 E0.01572
G1 X160.786 Y125.661 E0.01485
G1 X161.084 Y125.293 E0.01485
G1 X161.439 Y124.980 E0.01485
G1 X161.843 Y124.731 E0.01485
G1 X162.282 Y124.555 E0.01485
G1 X162.745 Y124.455 E0.01485
G1 X163.183 Y124.436 E0.01375
G1 X163.687 Y124.495 E0.01590
G1 X164.141 Y124.634 E0.01489
G1 X164.564 Y124.847 E0.01485
G1 X164.945 Y125.129 E0.01485
G1 X165.273 Y125.471 E0.01485
G1 X165.538 Y125.863 E0.01485
G1 X165.733 Y126.295 E0.01485
G1 X165.853 Y126.753 E0.01485
G1 X165.893 Y127.225 E0.01485
G1 X165.853 Y127.697 E0.01485
G1 X165.733 Y128.155 E0.01485
G1 X165.538 Y128.587 E0.01485
G1 X165.273 Y128.979 E0.01485
G1 X164.945 Y129.321 E0.01485
G1 X164.564 Y129.603 E0.01485
G1 X164.141 Y129.816 E0.01485
G1 X163.688 Y129.955 E0.01485
G1 X163.219 Y130.015 E0.01485
G1 X162.745 Y129.995 E0.01485
G1 X162.282 Y129.895 E0.01485
G1 X161.843 Y129.719 E0.01485
G1 X161.439 Y129.470 E0.01485
G1 X161.084 Y129.157 E0.01485
G1 X160.786 Y128.789 E0.01485
G1 X160.555 Y128.375 E0.01485
G1 X160.397 Y127.929 E0.01485
G1 X160.319 Y127.470 E0.01458
G1 X160.308 Y127.225 E0.00770
G1 X160.319 Y126.980 E0.00770
G1 X160.383 Y126.608 E0.01182
G1 X160.110 Y126.266 F10800.000
;WIPE_START
G1 F8640.000
G1 X160.555 Y126.075 E-0.12943
G1 X160.786 Y125.661 E-0.10937
M73 Q0 S59
G1 X161.084 Y125.293 E-0.10938
G1 X161.439 Y124.980 E-0.10937
G1 X161.843 Y124.731 E-0.10937
G1 X162.282 Y124.555 E-0.10938
G1 X162.637 Y124.478 E-0.08370
;WIPE_END
G1 E-0.04000 F2100.000
G1 Z0.600 F10800.000
G1 X162.697 Y85.920
G1 Z0.200
G1 E0.80000 F2100.000
;TYPE:Perimeter
G1 F1200.000
G1 X162.171 Y85.807 E0.01686
G1 X161.672 Y85.607 E0.01686
G1 X161.214 Y85.325 E0.01686
G1 X160.811 Y84.969 E0.01686
G1 X160.473 Y84.551 E0.01686
G1 X160.210 Y84.081 E0.01686
G1 X160.031 Y83.574 E0.01686
G1 X159.943 Y83.060 E0.01634
G1 X159.943 Y82.490 E0.01790
G1 X160.031 Y81.976 E0.01634
G1 X160.210 Y81.469 E0.01686
G1 X160.473 Y80.999 E0.01686
G1 X160.811 Y80.581 E0.01686
G1 X161.214 Y80.225 E0.01686
G1 X161.672 Y79.943 E0.01686
G1 X162.171 Y79.743 E0.01686
G1 X162.697 Y79.630 E0.01686
G1 X163.197 Y79.608 E0.01569
G1 X163.765 Y79.674 E0.01792
G1 X164.282 Y79.833 E0.01698
G1 X164.763 Y80.075 E0.01686
G1 X165.195 Y80.394 E0.01686
G1 X165.567 Y80.783 E0.01686
G1 X165.868 Y81.228 E0.01686
G1 X166.090 Y81.719 E0.01686
G1 X166.226 Y82.239 E0.01686
G1 X166.271 Y82.775 E0.01686
G1 X166.226 Y83.311 E0.01686
G1 X166.090 Y83.831 E0.01686
G1 X165.868 Y84.322 E0.01686
G1 X165.567 Y84.767 E0.01686
G1 X165.195 Y85.156 E0.01686
G1 X164.763 Y85.475 E0.01686
G1 X164.282 Y85.717 E0.01686
G1 X163.768 Y85.875 E0.01686
G1 X163.235 Y85.943 E0.01686
G1 X162.757 Y85.923 E0.01498
G1 X162.773 Y85.546 F10800.000
;TYPE:External perimeter
G1 F1200.000
G1 X162.282 Y85.445 E0.01571
G1 X161.843 Y85.269 E0.01485
G1 X161.439 Y85.020 E0.01485
G1 X161.084 Y84.707 E0.01485
G1 X160.786 Y84.339 E0.01485
G1 X160.555 Y83.925 E0.01485
G1 X160.397 Y83.479 E0.01485
G1 X160.319 Y83.020 E0.01458
G1 X160.319 Y82.530 E0.01539
G1 X160.397 Y82.071 E0.01458
G1 X160.555 Y81.625 E0.01485
G1 X160.786 Y81.211 E0.01485
G1 X161.084 Y80.843 E0.01485
G1 X161.439 Y80.530 E0.01485
G1 X161.843 Y80.281 E0.01485
G1 X162.282 Y80.105 E0.01485
G1 X162.745 Y80.005 E0.01485
G1 X163.183 Y79.986 E0.01375
G1 X163.687 Y80.045 E0.01590
G1 X164.141 Y80.184 E0.01489
G1 X164.564 Y80.397 E0.01485
G1 X164.945 Y80.679 E0.01485
G1 X165.273 Y81.021 E0.01485
G1 X165.538 Y81.413 E0.01485
G1 X165.733 Y81.845 E0.01485
G1 X165.853 Y82.303 E0.01485
G1 X165.893 Y82.775 E0.01485
G1 X165.853 Y83.247 E0.01485
G1 X165.733 Y83.705 E0.01485
G1 X165.538 Y84.137 E0.01485
G1 X165.273 Y84.529 E0.01485
G1 X164.945 Y84.871 E0.01485
G1 X164.564 Y85.153 E0.01485
G1 X164.141 Y85.366 E0.01485
G1 X163.688 Y85.505 E0.01485
G1 X163.219 Y85.565 E0.01485
G1 X162.833 Y85.549 E0.01210
G1 X162.533 Y85.866 F10800.000
;WIPE_START
G1 F8640.000
G1 X162.282 Y85.445 E-0.12942
G1 X161.843 Y85.269 E-0.10938
G1 X161.439 Y85.020 E-0.10937
G1 X161.084 Y84.707 E-0.10937
G1 X160.786 Y84.339 E-0.10938
G1 X160.555 Y83.925 E-0.10937
G1 X160.434 Y83.584 E-0.08370
;WIPE_END
G1 E-0.04000 F2100.000
G1 Z0.600 F10800.000
G1 X144.001 Y83.311
G1 Z0.200
G1 E0.80000 F2100.000
;TYPE:Perimeter
G1 F1200.000
G1 X143.865 Y83.831 E0.01686
G1 X143.643 Y84.322 E0.01686
G1 X143.342 Y84.767 E0.01686
G1 X142.970 Y85.156 E0.01686
G1 X142.538 Y85.475 E0.01686
G1 X142.057 Y85.717 E0.01686
G1 X141.543 Y85.875 E0.01686
G1 X141.010 Y85.943 E0.01686
G1 X140.472 Y85.920 E0.01686
G1 X139.946 Y85.807 E0.01686
G1 X139.447 Y85.607 E0.01686
G1 X138.989 Y85.325 E0.01686
G1 X138.586 Y84.969 E0.01686
G1 X138.248 Y84.551 E0.01686
G1 X137.985 Y84.081 E0.01686
G1 X137.806 Y83.574 E0.01686
G1 X137.718 Y83.060 E0.01634
G1 X137.718 Y82.490 E0.01790
G1 X137.806 Y81.976 E0.01634
G1 X137.985 Y81.469 E0.01686
G1 X138.248 Y80.999 E0.01686
G1 X138.586 Y80.581 E0.01686
G1 X138.989 Y80.225 E0.01686
G1 X139.447 Y79.943 E0.01686
G1 X139.946 Y79.743 E0.01686
G1 X140.472 Y79.630 E0.01686
G1 X140.972 Y79.608 E0.01569
G1 X141.540 Y79.674 E0.01792
G1 X142.057 Y79.833 E0.01698
G1 X142.538 Y80.075 E0.01686
G1 X142.970 Y80.394 E0.01686
G1 X143.342 Y80.783 E0.01686
G1 X143.643 Y81.228 E0.01686
G1 X143.865 Y81.719 E0.01686
G1 X144.001 Y82.239 E0.01686
G1 X144.046 Y82.775 E0.01686
G1 X144.006 Y83.251 E0.01498
G1 X143.630 Y83.219 F10800.000
;TYPE:External perimeter
G1 F1200.000
G1 X143.508 Y83.705 E0.01571
G1 X143.313 Y84.137 E0.01485
G1 X143.048 Y84.529 E0.01485
G1 X142.720 Y84.871 E0.01485
G1 X142.339 Y85.153 E0.01485
G1 X141.916 Y85.366 E0.01485
G1 X141.463 Y85.505 E0.01485
G1 X140.994 Y85.565 E0.01485
G1 X140.520 Y85.545 E0.01485
G1 X140.057 Y85.445 E0.01485
G1 X139.618 Y85.269 E0.01485
G1 X139.214 Y85.020 E0.01485
G1 X138.859 Y84.707 E0.01485
G1 X138.561 Y84.339 E0.01485
G1 X138.330 Y83.925 E0.01485
G1 X138.172 Y83.479 E0.01485
G1 X138.094 Y83.020 E0.01458
G1 X138.094 Y82.530 E0.01539
G1 X138.172 Y82.071 E0.01458
G1 X138.330 Y81.625 E0.01485
G1 X138.561 Y81.211 E0.01485
G1 X138.859 Y80.843 E0.01485
G1 X139.214 Y80.530 E0.01485
G1 X139.618 Y80.281 E0.01485
G1 X140.057 Y80.105 E0.01485
G1 X140.520 Y80.005 E0.01485
G1 X140.958 Y79.986 E0.01375
G1 X141.462 Y80.045 E0.01590
G1 X141.916 Y80.184 E0.01489
G1 X142.339 Y80.397 E0.01485
G1 X142.720 Y80.679 E0.01485
G1 X143.048 Y81.021 E0.01485
G1 X143.313 Y81.413 E0.01485
G1 X143.508 Y81.845 E0.01485
G1 X143.628 Y82.303 E0.01485
G1 X143.668 Y82.775 E0.01485
G1 X143.635 Y83.159 E0.01210
G1 X143.939 Y83.473 F10800.000
;WIPE_START
G1 F8640.000
G1 X143.508 Y83.705 E-0.12942
G1 X143.313 Y84.137 E-0.10937
G1 X143.048 Y84.529 E-0.10937
G1 X142.720 Y84.871 E-0.10937
G1 X142.339 Y85.153 E-0.10937
G1 X141.916 Y85.366 E-0.10938
G1 X141.570 Y85.472 E-0.08370
;WIPE_END
G1 E-0.04000 F2100.000
G1 Z0.600 F10800.000
G1 X117.059 Y82.775
G1 Z0.200
G1 E0.80000 F2100.000
;TYPE:Perimeter
G1 F1200.000
G1 X117.013 Y83.311 E0.01686
G1 X116.878 Y83.831 E0.01686
G1 X116.656 Y84.322 E0.01686
G1 X116.355 Y84.767 E0.01686
G1 X115.983 Y85.156 E0.01686
G1 X115.550 Y85.475 E0.01686
G1 X115.070 Y85.717 E0.01686
G1 X114.556 Y85.875 E0.01686
G1 X114.022 Y85.943 E0.01686
G1 X113.485 Y85.920 E0.01686
G1 X112.959 Y85.807 E0.01686
G1 X112.460 Y85.607 E0.01686
G1 X112.002 Y85.325 E0.01686
G1 X111.598 Y84.969 E0.01686
G1 X111.260 Y84.551 E0.01686
G1 X110.998 Y84.081 E0.01686
G1 X110.819 Y83.574 E0.01686
G1 X110.731 Y83.060 E0.01634
G1 X110.718 Y82.775 E0.00896
G1 X110.731 Y82.490 E0.00896
G1 X110.819 Y81.976 E0.01634
G1 X110.998 Y81.469 E0.01686
G1 X111.260 Y80.999 E0.01686
G1 X111.598 Y80.581 E0.01686
G1 X112.002 Y80.225 E0.01686
G1 X112.460 Y79.943 E0.01686
G1 X112.959 Y79.743 E0.01686
G1 X113.485 Y79.630 E0.01686
G1 X113.985 Y79.608 E0.01569
G1 X114.552 Y79.674 E0.01792
G1 X115.070 Y79.833 E0.01698
G1 X115.550 Y80.075 E0.01686
G1 X115.983 Y80.394 E0.01686
G1 X116.355 Y80.783 E0.01686
G1 X116.656 Y81.228 E0.01686
G1 X116.862 Y81.684 E0.01569
G1 X117.013 Y82.235 E0.01792
G1 X117.054 Y82.715 E0.01510
G1 X116.678 Y82.747 F10800.000
;TYPE:External perimeter
G1 F1200.000
G1 X116.640 Y83.247 E0.01571
G1 X116.521 Y83.705 E0.01485
G1 X116.326 Y84.137 E0.01485
G1 X116.060 Y84.529 E0.01485
G1 X115.733 Y84.871 E0.01485
G1 X115.352 Y85.153 E0.01485
G1 X114.929 Y85.366 E0.01485
G1 X114.476 Y85.505 E0.01485
G1 X114.006 Y85.565 E0.01485
G1 X113.533 Y85.545 E0.01485
G1 X113.070 Y85.445 E0.01485
G1 X112.630 Y85.269 E0.01485
G1 X112.227 Y85.020 E0.01485
G1 X111.871 Y84.707 E0.01485
G1 X111.574 Y84.339 E0.01485
G1 X111.343 Y83.925 E0.01485
G1 X111.185 Y83.479 E0.01485
G1 X111.106 Y83.020 E0.01458
G1 X111.096 Y82.775 E0.00770
G1 X111.106 Y82.530 E0.00770
G1 X111.185 Y82.071 E0.01458
G1 X111.343 Y81.625 E0.01485
G1 X111.574 Y81.211 E0.01485
G1 X111.871 Y80.843 E0.01485
G1 X112.227 Y80.530 E0.01485
G1 X112.630 Y80.281 E0.01485
G1 X113.070 Y80.105 E0.01485
G1 X113.533 Y80.005 E0.01485
G1 X113.971 Y79.986 E0.01375
G1 X114.475 Y80.045 E0.01590
G1 X114.929 Y80.184 E0.01489
G1 X115.352 Y80.397 E0.01485
G1 X115.733 Y80.679 E0.01485
G1 X116.060 Y81.021 E0.01485
