; generated by PrusaSlicer 2.3.3+win64 on 2021-10-04 at 09:53:37 UTC

; 

; external perimeters extrusion width = 0.45mm
; perimeters extrusion width = 0.45mm
; infill extrusion width = 0.45mm
; solid infill extrusion width = 0.45mm
; top infill extrusion width = 0.40mm
; first layer extrusion width = 0.42mm

M73 P0 R62
M73 Q0 S62
M201 X1000 Y1000 Z200 E5000 ; sets maximum accelerations, mm/sec^2
M203 X200 Y200 Z12 E120 ; sets maximum feedrates, mm/sec
M204 P1250 R1250 T1250 ; sets acceleration (P, T) and retract acceleration (R), mm/sec^2
M205 X8.00 Y8.00 Z0.40 E4.50 ; sets the jerk limits, mm/sec
M205 S0 T0 ; sets the minimum extruding and travel feed rate, mm/sec
M107
;TYPE:Custom
M862.3 P "MK3S" ; printer model check
M862.1 P0.4 ; nozzle diameter check
M115 U3.10.0 ; tell printer latest fw version
G90 ; use absolute coordinates
M83 ; extruder relative mode
M104 S215 ; set extruder temp
M140 S60 ; set bed temp
M190 S60 ; wait for bed temp
M109 S215 ; wait for extruder temp
G28 W ; home all without mesh bed level
G80 ; mesh bed leveling
G1 Y-3.0 F1000.0 ; go outside print area
G92 E0.0
G1 X60.0 E9.0 F1000.0 ; intro line
G1 X100.0 E12.5 F1000.0 ; intro line
G92 E0.0
M221 S95

; Don't change E values below. Excessive value can damage the printer.
M907 E430 ; set extruder motor current
G21 ; set units to millimeters
G90 ; use absolute coordinates
M83 ; use relative distances for extrusion
M900 K0.05 ; Filament gcode LA 1.5
M900 K30 ; Filament gcode LA 1.0
;LAYER_CHANGE
;Z:0.2
;HEIGHT:0.2
;BEFORE_LAYER_CHANGE
G92 E0.0
;0.2


G1 E-0.80000 F2100.000
G1 Z0.400 F10800.000
;AFTER_LAYER_CHANGE
;0.2
G1 X79.467 Y76.817
G1 Z0.200
G1 E0.80000 F2100.000
M204 S1000
;TYPE:Skirt
;WIDTH:0.42
G1 F1200.000
G1 X80.235 Y76.158 E0.03172
G1 X80.802 Y75.821 E0.02067
G1 X81.483 Y75.544 E0.02306
G1 X82.187 Y75.377 E0.02270
G1 X82.908 Y75.318 E0.02270
G1 X167.073 Y75.318 E2.63891
G1 X167.866 Y75.385 E0.02496
G1 X168.711 Y75.614 E0.02745
G1 X169.740 Y76.141 E0.03625
G1 X170.414 Y76.693 E0.02733
G1 X170.938 Y77.307 E0.02531
G1 X171.373 Y78.054 E0.02709
G1 X171.734 Y79.156 E0.03637
G1 X171.825 Y79.966 E0.02554
G1 X171.825 Y130.015 E1.56926
G1 X171.637 Y131.248 E0.03910
G1 X171.284 Y132.131 E0.02983
G1 X170.530 Y133.186 E0.04064
G1 X169.765 Y133.842 E0.03160
G1 X169.198 Y134.179 E0.02067
G1 X168.517 Y134.456 E0.02305
G1 X167.813 Y134.623 E0.02270
G1 X167.092 Y134.682 E0.02270
G1 X82.901 Y134.682 E2.63974
M73 P0 R61
G1 X81.622 Y134.495 E0.04052
G1 X80.737 Y134.146 E0.02982
G1 X79.672 Y133.388 E0.04100
G1 X79.013 Y132.620 E0.03172
G1 X78.678 Y132.057 E0.02055
G1 X78.400 Y131.376 E0.02305
G1 X78.232 Y130.672 E0.02270
G1 X78.173 Y129.962 E0.02234
G1 X78.173 Y80.027 E1.56568
G1 X78.361 Y78.763 E0.04005
G1 X78.711 Y77.879 E0.02983
G1 X79.433 Y76.866 E0.03900
; printing object ridge_wallet_inner.STL id:0 copy 0
;WIPE_START
G1 F8640.000
G1 X80.235 Y76.158 E-0.24708
G1 X80.802 Y75.821 E-0.15221
G1 X81.483 Y75.544 E-0.16979
G1 X82.187 Y75.377 E-0.16714
G1 X82.290 Y75.368 E-0.02379
;WIPE_END
G1 E-0.04000 F2100.000
G1 Z0.600 F10800.000
G1 X122.987 Y124.055
G1 Z0.200
G1 E0.80000 F2100.000
;TYPE:Perimeter
G1 F1200.000
G1 X127.013 Y124.055 E0.12625
G1 X129.027 Y127.543 E0.12625
G1 X127.013 Y131.030 E0.12625
G1 X122.987 Y131.030 E0.12625
G1 X120.973 Y127.543 E0.12625
G1 X122.957 Y124.107 E0.12437
G1 X123.204 Y124.433 F10800.000
;TYPE:External perimeter
G1 F1200.000
G1 X126.796 Y124.433 E0.11260
G1 X127.137 Y125.023 E0.02139
G1 X128.591 Y127.543 E0.09121
G1 X126.796 Y130.653 E0.11260
G1 X123.204 Y130.653 E0.11260
G1 X121.409 Y127.543 E0.11260
G1 X123.174 Y124.484 E0.11072
G1 X123.204 Y124.032 F10800.000
;WIPE_START
G1 F8640.000
G1 X126.466 Y124.437 E-0.76000
;WIPE_END
G1 E-0.04000 F2100.000
G1 Z0.600 F10800.000
G1 X134.099 Y85.945
G1 Z0.200
G1 E0.80000 F2100.000
;TYPE:Perimeter
G1 F1200.000
G1 X132.086 Y82.457 E0.12625
G1 X134.099 Y78.970 E0.12625
G1 X138.126 Y78.970 E0.12625
G1 X140.139 Y82.457 E0.12625
G1 X138.126 Y85.945 E0.12625
G1 X134.159 Y85.945 E0.12437
G1 X134.317 Y85.568 F10800.000
;TYPE:External perimeter
G1 F1200.000
G1 X132.521 Y82.457 E0.11260
G1 X134.317 Y79.348 E0.11260
G1 X137.908 Y79.348 E0.11260
G1 X139.704 Y82.457 E0.11260
G1 X137.908 Y85.568 E0.11260
G1 X134.377 Y85.568 E0.11072
G1 X133.971 Y85.768 F10800.000
;WIPE_START
G1 F8640.000
G1 X132.690 Y82.741 E-0.76000
;WIPE_END
G1 E-0.04000 F2100.000
G1 Z0.600 F10800.000
G1 X116.327 Y82.457
G1 Z0.200
G1 E0.80000 F2100.000
;TYPE:Perimeter
G1 F1200.000
G1 X114.313 Y85.945 E0.12625
G1 X110.287 Y85.945 E0.12625
G1 X108.273 Y82.457 E0.12625
G1 X110.287 Y78.970 E0.12625
G1 X114.313 Y78.970 E0.12625
G1 X116.297 Y82.406 E0.12437
G1 X115.891 Y82.457 F10800.000
;TYPE:External perimeter
G1 F1200.000
G1 X114.096 Y85.568 E0.11260
G1 X110.504 Y85.568 E0.11260
G1 X108.709 Y82.457 E0.11260
G1 X110.504 Y79.348 E0.11260
G1 X114.096 Y79.348 E0.11260
G1 X115.861 Y82.406 E0.11072
G1 X116.238 Y82.657 F10800.000
;WIPE_START
G1 F8640.000
G1 X114.256 Y85.279 E-0.76000
;WIPE_END
G1 E-0.04000 F2100.000
G1 Z0.600 F10800.000
G1 X166.701 Y78.970
G1 Z0.200
G1 E0.80000 F2100.000
;TYPE:Perimeter
G1 F1200.000
G1 X162.674 Y78.970 E0.12625
G1 X160.661 Y82.457 E0.12625
G1 X162.674 Y85.945 E0.12625
G1 X166.701 Y85.945 E0.12625
G1 X168.663 Y82.546 E0.12304
G1 X168.663 Y127.454 E1.40806
G1 X166.701 Y124.055 E0.12304
G1 X162.674 Y124.055 E0.12625
G1 X160.661 Y127.543 E0.12625
G1 X162.674 Y131.030 E0.12625
G1 X166.701 Y131.030 E0.12625
G1 X168.663 Y127.631 E0.12304
G1 X168.663 Y129.893 E0.07092
G1 X168.641 Y130.173 E0.00880
G1 X168.583 Y130.416 E0.00783
G1 X168.487 Y130.646 E0.00783
G1 X168.356 Y130.859 E0.00783
G1 X168.194 Y131.049 E0.00783
G1 X168.004 Y131.211 E0.00783
G1 X167.791 Y131.342 E0.00783
G1 X167.561 Y131.438 E0.00783
G1 X167.318 Y131.496 E0.00783
G1 X167.038 Y131.518 E0.00880
G1 X82.962 Y131.518 E2.63613
M73 P1 R61
M73 Q1 S61
G1 X82.682 Y131.496 E0.00880
G1 X82.439 Y131.438 E0.00783
G1 X82.209 Y131.342 E0.00783
G1 X81.996 Y131.211 E0.00783
G1 X81.806 Y131.049 E0.00783
G1 X81.644 Y130.859 E0.00783
G1 X81.513 Y130.646 E0.00783
G1 X81.417 Y130.416 E0.00783
G1 X81.359 Y130.173 E0.00783
G1 X81.337 Y129.893 E0.00880
G1 X81.337 Y127.631 E0.07092
G1 X83.299 Y131.030 E0.12304
G1 X87.326 Y131.030 E0.12625
G1 X89.339 Y127.543 E0.12625
G1 X87.326 Y124.055 E0.12625
G1 X83.299 Y124.055 E0.12625
G1 X81.337 Y127.454 E0.12304
G1 X81.337 Y82.546 E1.40806
G1 X83.299 Y85.945 E0.12304
G1 X87.326 Y85.945 E0.12625
G1 X89.339 Y82.457 E0.12625
G1 X87.326 Y78.970 E0.12625
G1 X83.299 Y78.970 E0.12625
G1 X81.337 Y82.369 E0.12304
G1 X81.337 Y80.107 E0.07092
G1 X81.359 Y79.827 E0.00880
G1 X81.417 Y79.584 E0.00783
G1 X81.513 Y79.354 E0.00783
G1 X81.644 Y79.141 E0.00783
G1 X81.806 Y78.951 E0.00783
G1 X81.996 Y78.789 E0.00783
G1 X82.209 Y78.658 E0.00783
G1 X82.439 Y78.562 E0.00783
G1 X82.682 Y78.504 E0.00783
G1 X82.962 Y78.482 E0.00880
G1 X139.412 Y78.494 E1.76996
G1 X139.650 Y78.571 E0.00783
G1 X139.757 Y78.637 E0.00393
G1 X139.933 Y78.813 E0.00783
G1 X140.046 Y79.036 E0.00783
G1 X140.076 Y79.159 E0.00396
G1 X140.226 Y80.980 E0.05730
G1 X140.644 Y82.632 E0.05342
G1 X141.328 Y84.192 E0.05341
G1 X142.260 Y85.618 E0.05341
G1 X143.414 Y86.871 E0.05341
G1 X144.758 Y87.918 E0.05341
G1 X146.257 Y88.728 E0.05341
G1 X147.868 Y89.282 E0.05341
G1 X149.532 Y89.559 E0.05290
G1 X150.362 Y89.594 E0.02604
G1 X151.267 Y89.560 E0.02840
G1 X152.932 Y89.282 E0.05294
G1 X154.543 Y88.728 E0.05341
G1 X156.042 Y87.918 E0.05341
G1 X157.386 Y86.871 E0.05341
G1 X158.540 Y85.618 E0.05341
G1 X159.472 Y84.192 E0.05341
G1 X160.156 Y82.632 E0.05341
G1 X160.574 Y80.980 E0.05342
G1 X160.724 Y79.159 E0.05730
G1 X160.754 Y79.036 E0.00396
G1 X160.867 Y78.813 E0.00783
G1 X160.948 Y78.718 E0.00393
G1 X161.150 Y78.571 E0.00783
G1 X161.266 Y78.524 E0.00393
G1 X161.543 Y78.482 E0.00880
G1 X167.038 Y78.482 E0.17227
G1 X167.318 Y78.504 E0.00880
G1 X167.561 Y78.562 E0.00783
G1 X167.791 Y78.658 E0.00783
G1 X168.004 Y78.789 E0.00783
G1 X168.194 Y78.951 E0.00783
G1 X168.356 Y79.141 E0.00783
G1 X168.487 Y79.354 E0.00783
G1 X168.583 Y79.584 E0.00783
G1 X168.641 Y79.827 E0.00783
G1 X168.663 Y80.107 E0.00880
G1 X168.663 Y82.369 E0.07092
G1 X166.731 Y79.022 E0.12116
G1 X166.483 Y79.348 F10800.000
;TYPE:External perimeter
G1 F1200.000
G1 X168.279 Y82.457 E0.11260
G1 X166.483 Y85.568 E0.11260
G1 X162.892 Y85.568 E0.11260
G1 X161.096 Y82.457 E0.11260
G1 X162.892 Y79.348 E0.11260
G1 X166.423 Y79.348 E0.11072
G1 X166.829 Y79.148 F10800.000
;WIPE_START
G1 F8640.000
G1 X168.110 Y82.174 E-0.76000
;WIPE_END
G1 E-0.04000 F2100.000
G1 Z0.600 F10800.000
G1 X166.423 Y124.433
G1 Z0.200
G1 E0.80000 F2100.000
G1 F1200.000
G1 X166.483 Y124.433 E0.00188
G1 X168.279 Y127.543 E0.11260
G1 X166.483 Y130.653 E0.11260
G1 X162.892 Y130.653 E0.11260
G1 X161.096 Y127.543 E0.11260
G1 X162.892 Y124.433 E0.11260
G1 X166.363 Y124.433 E0.10883
G1 X166.443 Y124.376 F10800.000
;WIPE_START
G1 F8640.000
G1 X166.483 Y124.433 E-0.02771
G1 X168.069 Y127.179 E-0.73229
;WIPE_END
G1 E-0.04000 F2100.000
G1 Z0.600 F10800.000
G1 X88.904 Y127.543
G1 Z0.200
G1 E0.80000 F2100.000
G1 F1200.000
G1 X87.108 Y130.653 E0.11260
G1 X83.517 Y130.653 E0.11260
G1 X81.721 Y127.543 E0.11260
G1 X83.517 Y124.433 E0.11260
G1 X87.108 Y124.433 E0.11260
G1 X88.874 Y127.491 E0.11072
G1 X89.250 Y127.743 F10800.000
;WIPE_START
G1 F8640.000
G1 X87.269 Y130.364 E-0.76000
;WIPE_END
G1 E-0.04000 F2100.000
G1 Z0.600 F10800.000
G1 X87.108 Y85.568
G1 Z0.200
G1 E0.80000 F2100.000
G1 F1200.000
G1 X83.517 Y85.568 E0.11260
G1 X81.721 Y82.457 E0.11260
G1 X83.517 Y79.348 E0.11260
G1 X87.108 Y79.348 E0.11260
G1 X88.904 Y82.457 E0.11260
G1 X87.138 Y85.516 E0.11072
G1 X87.108 Y85.968 F10800.000
;WIPE_START
G1 F8640.000
G1 X83.847 Y85.563 E-0.76000
;WIPE_END
G1 E-0.04000 F2100.000
G1 Z0.600 F10800.000
G1 X160.394 Y78.919
G1 Z0.200
G1 E0.80000 F2100.000
G1 F1200.000
G1 X160.464 Y78.749 E0.00579
G1 X160.561 Y78.591 E0.00579
G1 X160.681 Y78.451 E0.00579
G1 X160.821 Y78.331 E0.00579
G1 X160.978 Y78.234 E0.00579
G1 X161.149 Y78.164 E0.00579
G1 X161.328 Y78.121 E0.00579
G1 X161.529 Y78.105 E0.00629
G1 X167.053 Y78.105 E0.17320
G1 X167.377 Y78.131 E0.01020
G1 X167.678 Y78.203 E0.00969
G1 X167.963 Y78.321 E0.00969
G1 X168.227 Y78.483 E0.00969
G1 X168.462 Y78.683 E0.00969
G1 X168.662 Y78.918 E0.00969
G1 X168.824 Y79.182 E0.00969
G1 X168.942 Y79.467 E0.00969
G1 X169.014 Y79.768 E0.00969
G1 X169.040 Y80.092 E0.01020
G1 X169.040 Y129.908 E1.56192
G1 X169.014 Y130.232 E0.01020
G1 X168.942 Y130.533 E0.00969
G1 X168.824 Y130.818 E0.00969
G1 X168.662 Y131.082 E0.00969
G1 X168.462 Y131.317 E0.00969
G1 X168.227 Y131.518 E0.00969
G1 X167.963 Y131.679 E0.00969
G1 X167.678 Y131.797 E0.00969
G1 X167.377 Y131.869 E0.00969
G1 X167.053 Y131.895 E0.01020
G1 X82.947 Y131.895 E2.63706
G1 X82.623 Y131.869 E0.01020
G1 X82.322 Y131.797 E0.00969
G1 X82.037 Y131.679 E0.00969
G1 X81.773 Y131.518 E0.00969
G1 X81.538 Y131.317 E0.00969
G1 X81.337 Y131.082 E0.00969
G1 X81.176 Y130.818 E0.00969
G1 X81.058 Y130.533 E0.00969
G1 X80.986 Y130.232 E0.00969
G1 X80.960 Y129.908 E0.01020
G1 X80.960 Y80.092 E1.56192
G1 X80.986 Y79.768 E0.01020
G1 X81.058 Y79.467 E0.00969
G1 X81.176 Y79.182 E0.00969
G1 X81.337 Y78.918 E0.00969
G1 X81.538 Y78.683 E0.00969
G1 X81.773 Y78.483 E0.00969
G1 X82.037 Y78.321 E0.00969
G1 X82.322 Y78.203 E0.00969
G1 X82.623 Y78.131 E0.00969
G1 X82.947 Y78.105 E0.01020
G1 X139.271 Y78.105 E1.76600
G1 X139.472 Y78.121 E0.00629
G1 X139.651 Y78.164 E0.00579
G1 X139.821 Y78.234 E0.00579
G1 X139.979 Y78.331 E0.00579
G1 X140.119 Y78.451 E0.00579
G1 X140.239 Y78.591 E0.00579
G1 X140.336 Y78.749 E0.00579
G1 X140.406 Y78.919 E0.00579
G1 X140.449 Y79.099 E0.00580
G1 X140.599 Y80.918 E0.05723
G1 X141.002 Y82.509 E0.05146
G1 X141.661 Y84.012 E0.05146
G1 X142.559 Y85.386 E0.05145
G1 X143.670 Y86.593 E0.05146
G1 X144.965 Y87.601 E0.05146
G1 X146.409 Y88.382 E0.05145
G1 X147.961 Y88.915 E0.05146
G1 X149.571 Y89.184 E0.05119
G1 X150.362 Y89.216 E0.02483
G1 X151.229 Y89.184 E0.02718
G1 X152.839 Y88.915 E0.05120
G1 X154.391 Y88.382 E0.05146
G1 X155.835 Y87.601 E0.05145
G1 X157.130 Y86.593 E0.05146
M73 Q2 S61
G1 X158.241 Y85.386 E0.05146
G1 X159.139 Y84.012 E0.05145
G1 X159.798 Y82.509 E0.05146
G1 X160.201 Y80.918 E0.05146
G1 X160.351 Y79.099 E0.05723
G1 X160.380 Y78.977 E0.00392
G1 X160.574 Y78.877 F10800.000
;WIPE_START
G1 F8640.000
G1 X160.464 Y78.749 E-0.05634
G1 X160.561 Y78.591 E-0.04262
G1 X160.681 Y78.451 E-0.04262
G1 X160.821 Y78.331 E-0.04262
G1 X160.978 Y78.234 E-0.04262
G1 X161.149 Y78.164 E-0.04262
G1 X161.328 Y78.121 E-0.04262
G1 X161.529 Y78.105 E-0.04635
G1 X163.268 Y78.105 E-0.40160
;WIPE_END
G1 E-0.04000 F2100.000
G1 Z0.600 F10800.000
G1 X161.648 Y78.595
G1 Z0.200
G1 E0.80000 F2100.000
;TYPE:Solid infill
;WIDTH:0.455067
G1 F1200.000
G1 X162.229 Y79.176 E0.02816
M73 P2 R61
G1 X162.015 Y79.546 E0.01462
G1 X161.292 Y78.823 E0.03505
G1 X161.142 Y78.927 E0.00629
G1 X161.021 Y79.134 E0.00820
G1 X161.802 Y79.915 E0.03786
G1 X161.589 Y80.285 E0.01462
G1 X160.966 Y79.662 E0.03017
G1 X160.922 Y80.201 E0.01852
G1 X161.375 Y80.654 E0.02198
G1 X161.162 Y81.024 E0.01462
G1 X160.720 Y80.582 E0.02141
G1 X160.802 Y81.511 F10800.000
;TYPE:Gap fill
;WIDTH:0.32892
G1 F1200.000
G1 X160.730 Y81.689 E0.00457
;WIDTH:0.283979
G1 X160.657 Y81.867 E0.00385
;WIDTH:0.239038
G1 X160.585 Y82.045 E0.00313
;WIDTH:0.194097
G1 X160.513 Y82.223 E0.00242
;WIDTH:0.149157
G1 X160.440 Y82.401 E0.00170
;WIPE_START
G1 F8640.000
G1 X160.513 Y82.223 E-0.04438
;WIPE_END
G1 E-0.75562 F2100.000
G1 Z0.600 F10800.000
G1 X162.598 Y78.726
G1 Z0.200
G1 E0.80000 F2100.000
;WIDTH:0.154184
G1 F1200.000
G1 X166.777 Y78.726 E0.03867
;WIPE_START
G1 F8640.000
G1 X163.486 Y78.726 E-0.76000
;WIPE_END
G1 E-0.04000 F2100.000
G1 Z0.600 F10800.000
G1 X168.490 Y79.685
G1 Z0.200
G1 E0.80000 F2100.000
;TYPE:Solid infill
;WIDTH:0.473483
G1 F1200.000
G1 X167.801 Y78.995 E0.03492
G1 X167.663 Y78.911 E0.00580
G1 X167.473 Y78.832 E0.00735
G1 X167.273 Y78.784 E0.00735
G1 X167.060 Y78.768 E0.00765
G1 X167.060 Y78.864 E0.00345
G1 X168.380 Y80.184 E0.06683
G1 X168.380 Y80.793 E0.02180
G1 X167.205 Y79.617 E0.05950
;WIPE_START
G1 F8640.000
G1 X168.380 Y80.793 E-0.38377
G1 X168.380 Y80.184 E-0.14060
G1 X167.659 Y79.462 E-0.23563
;WIPE_END
G1 E-0.04000 F2100.000
G1 Z0.600 F10800.000
G1 X140.360 Y82.401
M73 P2 R60
G1 Z0.200
G1 E0.80000 F2100.000
;TYPE:Gap fill
;WIDTH:0.149157
G1 F1200.000
G1 X140.143 Y81.867 E0.00509
;WIDTH:0.283979
G1 X139.998 Y81.511 E0.00770
;WIPE_START
G1 F8640.000
G1 X140.143 Y81.867 E-0.08876
;WIPE_END
G1 E-0.71124 F2100.000
G1 Z0.600 F10800.000
G1 X139.313 Y78.607
G1 Z0.200
G1 E0.80000 F2100.000
;TYPE:Solid infill
;WIDTH:0.439227
G1 F1200.000
G1 X139.716 Y79.010 E0.01874
G1 X139.779 Y79.134 E0.00462
G1 X139.836 Y79.690 E0.01841
G1 X138.923 Y78.777 E0.04256
G1 X138.485 Y78.777 E0.01441
G1 X138.485 Y78.900 E0.00406
G1 X139.886 Y80.301 E0.06529
G1 X139.936 Y80.912 E0.02019
G1 X138.613 Y79.589 E0.06166
G1 X138.202 Y78.726 F10800.000
;TYPE:Gap fill
;WIDTH:0.154184
G1 F1200.000
G1 X134.023 Y78.726 E0.03867
;WIPE_START
G1 F8640.000
G1 X137.314 Y78.726 E-0.76000
;WIPE_END
G1 E-0.04000 F2100.000
G1 Z0.600 F10800.000
G1 X114.390 Y78.726
G1 Z0.200
G1 E0.80000 F2100.000
G1 F1200.000
G1 X110.210 Y78.726 E0.03867
G1 X109.966 Y79.299 F10800.000
;TYPE:Solid infill
;WIDTH:0.420055
G1 F1200.000
G1 X109.438 Y78.771 E0.02344
G1 X108.904 Y78.771 E0.01673
G1 X109.647 Y79.513 E0.03293
G1 X109.452 Y79.851 E0.01224
G1 X108.371 Y78.770 E0.04793
G1 X107.837 Y78.770 E0.01673
G1 X109.256 Y80.189 E0.06294
G1 X109.061 Y80.528 E0.01224
G1 X107.304 Y78.770 E0.07794
G1 X106.770 Y78.770 E0.01673
G1 X108.866 Y80.866 E0.09294
G1 X108.671 Y81.204 E0.01224
G1 X106.237 Y78.770 E0.10794
G1 X105.703 Y78.770 E0.01673
G1 X108.476 Y81.542 E0.12294
G1 X108.280 Y81.880 E0.01224
G1 X105.170 Y78.770 E0.13794
G1 X104.637 Y78.770 E0.01673
G1 X108.085 Y82.218 E0.15294
G1 X107.947 Y82.457 E0.00867
G1 X108.160 Y82.826 E0.01335
G1 X104.103 Y78.769 E0.17991
G1 X103.570 Y78.769 E0.01673
G1 X109.352 Y84.552 E0.25644
;WIPE_START
G1 F8640.000
G1 X107.025 Y82.224 E-0.76000
;WIPE_END
G1 E-0.04000 F2100.000
