; generated by PrusaSlicer 2.3.3+win64 on 2021-10-05 at 14:17:15 UTC

; 

; external perimeters extrusion width = 0.45mm
; perimeters extrusion width = 0.45mm
; infill extrusion width = 0.45mm
; solid infill extrusion width = 0.45mm
; top infill extrusion width = 0.40mm
; first layer extrusion width = 0.42mm

M73 P0 R5
M73 Q0 S5
M201 X1000 Y1000 Z200 E5000 ; sets maximum accelerations, mm/sec^2
M203 X200 Y200 Z12 E120 ; sets maximum feedrates, mm/sec
M204 P1250 R1250 T1250 ; sets acceleration (P, T) and retract acceleration (R), mm/sec^2
M205 X8.00 Y8.00 Z0.40 E4.50 ; sets the jerk limits, mm/sec
M205 S0 T0 ; sets the minimum extruding and travel feed rate, mm/sec
M107
;TYPE:Custom
M862.3 P "MK3S" ; printer model check
M862.1 P0.4 ; nozzle diameter check
M115 U3.10.0 ; tell printer latest fw version
G90 ; use absolute coordinates
M83 ; extruder relative mode
M104 S215 ; set extruder temp
M140 S60 ; set bed temp
M190 S60 ; wait for bed temp
M109 S215 ; wait for extruder temp
G28 W ; home all without mesh bed level
G80 ; mesh bed leveling
G1 Y-3.0 F1000.0 ; go outside print area
G92 E0.0
G1 X60.0 E9.0 F1000.0 ; intro line
M73 P1 R5
M73 Q1 S5
G1 X100.0 E12.5 F1000.0 ; intro line
G92 E0.0
M221 S95

; Don't change E values below. Excessive value can damage the printer.
M907 E430 ; set extruder motor current
G21 ; set units to millimeters
G90 ; use absolute coordinates
M83 ; use relative distances for extrusion
M900 K0.05 ; Filament gcode LA 1.5
M900 K30 ; Filament gcode LA 1.0
;LAYER_CHANGE
;Z:0.2
;HEIGHT:0.2
;BEFORE_LAYER_CHANGE
G92 E0.0
;0.2


M73 P2 R5
M73 Q2 S5
G1 E-0.80000 F2100.000
G1 Z0.400 F10800.000
;AFTER_LAYER_CHANGE
;0.2
G1 X98.293 Y100.731
G1 Z0.200
G1 E0.80000 F2100.000
M204 S1000
;TYPE:Skirt
;WIDTH:0.42
G1 F1200.000
G1 X99.079 Y100.046 E0.03270
G1 X100.324 Y99.395 E0.04403
G1 X101.349 Y99.130 E0.03321
G1 X102.137 Y99.071 E0.02476
G1 X147.864 Y99.071 E1.43374
M73 P3 R5
M73 Q3 S5
G1 X148.746 Y99.146 E0.02774
G1 X149.689 Y99.401 E0.03065
G1 X150.823 Y99.981 E0.03995
G1 X151.572 Y100.591 E0.03026
G1 X152.163 Y101.281 E0.02848
G1 X152.646 Y102.107 E0.03001
G1 X152.952 Y102.931 E0.02757
G1 X153.148 Y104.182 E0.03969
G1 X153.153 Y105.729 E0.04853
G1 X153.063 Y106.601 E0.02748
G1 X152.665 Y107.850 E0.04109
G1 X152.201 Y108.664 E0.02936
G1 X151.582 Y109.399 E0.03015
G1 X150.808 Y110.028 E0.03129
G1 X149.646 Y110.617 E0.04084
G1 X148.651 Y110.870 E0.03219
G1 X147.860 Y110.929 E0.02486
G1 X101.506 Y110.888 E1.45339
M73 P4 R5
M73 Q4 S5
G1 X100.574 Y110.692 E0.02988
G1 X99.794 Y110.381 E0.02630
G1 X99.051 Y109.934 E0.02720
G1 X98.428 Y109.409 E0.02554
G1 X97.864 Y108.756 E0.02707
G1 X97.424 Y108.041 E0.02630
G1 X97.102 Y107.262 E0.02643
G1 X96.905 Y106.426 E0.02694
G1 X96.846 Y105.638 E0.02476
G1 X96.901 Y103.605 E0.06378
G1 X97.118 Y102.689 E0.02950
G1 X97.525 Y101.778 E0.03129
G1 X98.257 Y100.779 E0.03883
G1 X98.560 Y101.000 F10800.000
G1 F1200.000
G1 X99.293 Y100.356 E0.03060
G1 X100.470 Y99.743 E0.04161
G1 X101.420 Y99.501 E0.03073
G1 X102.136 Y99.448 E0.02252
G1 X147.864 Y99.448 E1.43376
M73 P5 R4
M73 Q5 S5
G1 X148.678 Y99.517 E0.02562
G1 X149.547 Y99.750 E0.02823
G1 X150.621 Y100.299 E0.03781
G1 X151.312 Y100.864 E0.02799
G1 X151.856 Y101.500 E0.02622
M73 Q5 S4
G1 X152.303 Y102.264 E0.02776
G1 X152.587 Y103.025 E0.02549
G1 X152.772 Y104.213 E0.03768
G1 X152.776 Y105.715 E0.04710
G1 X152.696 Y106.517 E0.02526
G1 X152.318 Y107.701 E0.03899
G1 X151.892 Y108.447 E0.02692
G1 X151.321 Y109.128 E0.02788
G1 X150.605 Y109.711 E0.02894
G1 X149.509 Y110.265 E0.03852
G1 X148.580 Y110.499 E0.03001
M73 Q6 S4
G1 X147.860 Y110.552 E0.02265
G1 X101.552 Y110.513 E1.45194
M73 P6 R4
G1 X100.679 Y110.330 E0.02799
G1 X99.956 Y110.040 E0.02443
G1 X99.268 Y109.626 E0.02514
G1 X98.688 Y109.136 E0.02384
G1 X98.167 Y108.531 E0.02502
G1 X97.757 Y107.864 E0.02455
G1 X97.459 Y107.140 E0.02455
G1 X97.276 Y106.355 E0.02526
G1 X97.223 Y105.639 E0.02252
G1 X97.274 Y103.664 E0.06195
G1 X97.472 Y102.820 E0.02717
G1 X97.842 Y101.983 E0.02870
M73 Q7 S4
G1 X98.525 Y101.049 E0.03628
; printing object wallet_key.STL id:0 copy 0
;WIPE_START
G1 F8640.000
G1 X99.293 Y100.356 E-0.23890
G1 X100.470 Y99.743 E-0.30640
G1 X101.371 Y99.514 E-0.21470
;WIPE_END
G1 E-0.04000 F2100.000
G1 Z0.600 F10800.000
M73 P7 R4
G1 X100.902 Y103.127
G1 Z0.200
G1 E0.80000 F2100.000
;TYPE:Perimeter
G1 F1200.000
G1 X101.111 Y102.949 E0.00861
G1 X101.345 Y102.805 E0.00861
G1 X101.599 Y102.700 E0.00861
G1 X101.866 Y102.636 E0.00861
G1 X102.171 Y102.612 E0.00959
G1 X147.829 Y102.612 E1.43158
M73 Q8 S4
G1 X148.126 Y102.635 E0.00933
G1 X148.402 Y102.701 E0.00890
G1 X148.655 Y102.805 E0.00858
G1 X148.889 Y102.949 E0.00861
G1 X149.098 Y103.127 E0.00861
G1 X149.276 Y103.336 E0.00861
G1 X149.420 Y103.570 E0.00861
G1 X149.525 Y103.824 E0.00861
G1 X149.589 Y104.091 E0.00861
G1 X149.613 Y104.396 E0.00959
G1 X149.613 Y105.604 E0.03788
G1 X149.589 Y105.909 E0.00959
G1 X149.525 Y106.176 E0.00861
G1 X149.420 Y106.430 E0.00861
M73 P8 R4
G1 X149.276 Y106.664 E0.00861
G1 X149.098 Y106.873 E0.00861
G1 X148.889 Y107.051 E0.00861
G1 X148.655 Y107.195 E0.00861
G1 X148.401 Y107.300 E0.00861
G1 X148.134 Y107.364 E0.00861
G1 X147.829 Y107.388 E0.00959
G1 X102.171 Y107.388 E1.43158
G1 X101.866 Y107.364 E0.00959
G1 X101.599 Y107.300 E0.00861
G1 X101.345 Y107.195 E0.00861
G1 X101.111 Y107.051 E0.00861
G1 X100.902 Y106.873 E0.00861
G1 X100.724 Y106.664 E0.00861
G1 X100.580 Y106.430 E0.00861
G1 X100.475 Y106.176 E0.00861
G1 X100.411 Y105.909 E0.00861
G1 X100.387 Y105.604 E0.00959
G1 X100.387 Y104.396 E0.03788
G1 X100.411 Y104.091 E0.00959
G1 X100.475 Y103.824 E0.00861
M73 Q9 S4
G1 X100.580 Y103.570 E0.00861
G1 X100.724 Y103.336 E0.00861
G1 X100.863 Y103.173 E0.00673
G1 X100.635 Y102.860 F10800.000
;TYPE:External perimeter
G1 F1200.000
G1 X100.889 Y102.643 E0.01047
G1 X101.174 Y102.468 E0.01047
G1 X101.482 Y102.340 E0.01047
G1 X101.807 Y102.262 E0.01047
G1 X102.156 Y102.235 E0.01098
G1 X147.844 Y102.235 E1.43251
M73 P9 R4
G1 X148.184 Y102.262 E0.01070
G1 X148.518 Y102.341 E0.01076
G1 X148.826 Y102.468 E0.01046
G1 X149.111 Y102.643 E0.01047
G1 X149.365 Y102.860 E0.01047
G1 X149.582 Y103.114 E0.01047
G1 X149.757 Y103.399 E0.01047
G1 X149.885 Y103.707 E0.01047
G1 X149.963 Y104.032 E0.01047
G1 X149.990 Y104.381 E0.01098
G1 X149.990 Y105.619 E0.03881
G1 X149.963 Y105.968 E0.01098
G1 X149.885 Y106.293 E0.01047
G1 X149.757 Y106.601 E0.01047
G1 X149.582 Y106.886 E0.01047
G1 X149.365 Y107.140 E0.01047
G1 X149.111 Y107.357 E0.01047
G1 X148.826 Y107.532 E0.01047
G1 X148.518 Y107.660 E0.01047
G1 X148.193 Y107.738 E0.01047
G1 X147.844 Y107.765 E0.01098
G1 X102.156 Y107.765 E1.43251
M73 P10 R4
M73 Q10 S4
G1 X101.807 Y107.738 E0.01098
G1 X101.482 Y107.660 E0.01047
G1 X101.174 Y107.532 E0.01047
G1 X100.889 Y107.357 E0.01047
G1 X100.635 Y107.140 E0.01047
G1 X100.418 Y106.886 E0.01047
G1 X100.243 Y106.601 E0.01047
G1 X100.115 Y106.293 E0.01047
G1 X100.037 Y105.968 E0.01047
G1 X100.010 Y105.619 E0.01098
G1 X100.010 Y104.381 E0.03881
G1 X100.037 Y104.032 E0.01098
G1 X100.115 Y103.707 E0.01047
G1 X100.243 Y103.399 E0.01047
G1 X100.418 Y103.114 E0.01047
G1 X100.596 Y102.905 E0.00859
G1 X100.957 Y102.946 F10800.000
;WIPE_START
G1 F8640.000
G1 X100.889 Y102.643 E-0.09084
G1 X101.174 Y102.468 E-0.07713
G1 X101.482 Y102.340 E-0.07713
G1 X101.807 Y102.262 E-0.07713
G1 X102.156 Y102.235 E-0.08086
G1 X103.702 Y102.235 E-0.35691
;WIPE_END
G1 E-0.04000 F2100.000
G1 Z0.600 F10800.000
G1 X149.410 Y103.842
M73 P11 R4
M73 Q11 S4
G1 Z0.200
G1 E0.80000 F2100.000
;TYPE:Solid infill
;WIDTH:0.423532
G1 F1200.000
G1 X148.885 Y103.318 E0.02348
G1 X148.722 Y103.178 E0.00679
G1 X148.526 Y103.058 E0.00728
G1 X148.315 Y102.971 E0.00723
G1 X148.082 Y102.916 E0.00758
G1 X147.933 Y102.904 E0.00471
G1 X149.321 Y104.292 E0.06211
G1 X149.330 Y104.839 E0.01732
G1 X147.386 Y102.895 E0.08701
G1 X146.848 Y102.895 E0.01704
G1 X149.330 Y105.377 E0.11111
G1 X149.303 Y105.888 E0.01620
G1 X146.309 Y102.895 E0.13398
G1 X145.771 Y102.895 E0.01704
G1 X149.170 Y106.294 E0.15212
G1 X149.047 Y106.497 E0.00753
G1 X148.949 Y106.611 E0.00475
G1 X145.233 Y102.895 E0.16633
G1 X144.695 Y102.895 E0.01704
G1 X148.660 Y106.860 E0.17746
G1 X148.526 Y106.942 E0.00497
G1 X148.296 Y107.034 E0.00785
G1 X144.156 Y102.895 E0.18527
G1 X143.618 Y102.895 E0.01704
G1 X147.828 Y107.104 E0.18840
M73 Q12 S4
G1 X147.290 Y107.105 E0.01701
G1 X143.080 Y102.895 E0.18844
M73 P12 R4
G1 X142.542 Y102.895 E0.01704
G1 X146.752 Y107.105 E0.18844
G1 X146.214 Y107.105 E0.01704
G1 X142.003 Y102.895 E0.18844
G1 X141.465 Y102.895 E0.01704
G1 X145.675 Y107.105 E0.18844
G1 X145.137 Y107.105 E0.01704
G1 X140.927 Y102.895 E0.18844
G1 X140.389 Y102.895 E0.01704
G1 X144.599 Y107.105 E0.18844
G1 X144.060 Y107.105 E0.01704
G1 X139.850 Y102.895 E0.18844
G1 X139.312 Y102.895 E0.01704
G1 X143.522 Y107.105 E0.18844
G1 X142.984 Y107.105 E0.01704
G1 X138.774 Y102.895 E0.18844
M73 Q13 S4
G1 X138.235 Y102.895 E0.01704
G1 X142.446 Y107.105 E0.18844
M73 P13 R4
G1 X141.907 Y107.105 E0.01704
G1 X137.697 Y102.895 E0.18844
G1 X137.159 Y102.895 E0.01704
G1 X141.369 Y107.105 E0.18844
G1 X140.831 Y107.105 E0.01704
G1 X136.621 Y102.895 E0.18844
G1 X136.082 Y102.895 E0.01704
G1 X140.293 Y107.105 E0.18844
G1 X139.754 Y107.105 E0.01704
G1 X135.544 Y102.895 E0.18844
G1 X135.006 Y102.895 E0.01704
G1 X139.216 Y107.105 E0.18844
G1 X138.678 Y107.105 E0.01704
G1 X134.468 Y102.895 E0.18844
M73 Q14 S4
G1 X133.929 Y102.895 E0.01704
G1 X138.140 Y107.105 E0.18844
M73 P14 R4
G1 X137.601 Y107.105 E0.01704
G1 X133.391 Y102.895 E0.18844
G1 X132.853 Y102.895 E0.01704
G1 X137.063 Y107.105 E0.18844
G1 X136.525 Y107.105 E0.01704
G1 X132.315 Y102.895 E0.18844
G1 X131.776 Y102.895 E0.01704
G1 X135.986 Y107.105 E0.18844
G1 X135.448 Y107.105 E0.01704
G1 X131.238 Y102.895 E0.18844
G1 X130.700 Y102.895 E0.01704
G1 X134.910 Y107.105 E0.18844
G1 X134.372 Y107.105 E0.01704
G1 X130.161 Y102.895 E0.18844
G1 X129.623 Y102.895 E0.01704
G1 X133.833 Y107.105 E0.18844
M73 Q15 S4
G1 X133.295 Y107.105 E0.01704
M73 P15 R4
G1 X129.085 Y102.895 E0.18844
G1 X128.547 Y102.895 E0.01704
G1 X132.757 Y107.105 E0.18844
G1 X132.219 Y107.105 E0.01704
G1 X128.008 Y102.895 E0.18844
G1 X127.470 Y102.895 E0.01704
G1 X131.680 Y107.105 E0.18844
G1 X131.142 Y107.105 E0.01704
G1 X126.932 Y102.895 E0.18844
G1 X126.394 Y102.895 E0.01704
G1 X130.604 Y107.105 E0.18844
G1 X130.066 Y107.105 E0.01704
G1 X125.855 Y102.895 E0.18844
G1 X125.317 Y102.895 E0.01704
G1 X129.527 Y107.105 E0.18844
M73 Q16 S4
G1 X128.989 Y107.105 E0.01704
G1 X124.779 Y102.895 E0.18844
M73 P16 R4
G1 X124.241 Y102.895 E0.01704
G1 X128.451 Y107.105 E0.18844
G1 X127.912 Y107.105 E0.01704
G1 X123.702 Y102.895 E0.18844
G1 X123.164 Y102.895 E0.01704
G1 X127.374 Y107.105 E0.18844
G1 X126.836 Y107.105 E0.01704
G1 X122.626 Y102.895 E0.18844
G1 X122.087 Y102.895 E0.01704
G1 X126.298 Y107.105 E0.18844
G1 X125.759 Y107.105 E0.01704
G1 X121.549 Y102.895 E0.18844
G1 X121.011 Y102.895 E0.01704
G1 X125.221 Y107.105 E0.18844
G1 X124.683 Y107.105 E0.01704
G1 X120.473 Y102.895 E0.18844
M73 Q17 S4
G1 X119.934 Y102.895 E0.01704
M73 P17 R4
G1 X124.145 Y107.105 E0.18844
G1 X123.606 Y107.105 E0.01704
G1 X119.396 Y102.895 E0.18844
G1 X118.858 Y102.895 E0.01704
G1 X123.068 Y107.105 E0.18844
G1 X122.530 Y107.105 E0.01704
G1 X118.320 Y102.895 E0.18844
G1 X117.781 Y102.895 E0.01704
G1 X121.992 Y107.105 E0.18844
G1 X121.453 Y107.105 E0.01704
G1 X117.243 Y102.895 E0.18844
G1 X116.705 Y102.895 E0.01704
G1 X120.915 Y107.105 E0.18844
G1 X120.377 Y107.105 E0.01704
G1 X116.167 Y102.895 E0.18844
M73 Q18 S4
G1 X115.628 Y102.895 E0.01704
G1 X119.838 Y107.105 E0.18844
M73 P18 R4
G1 X119.300 Y107.105 E0.01704
G1 X115.090 Y102.895 E0.18844
G1 X114.552 Y102.895 E0.01704
G1 X118.762 Y107.105 E0.18844
G1 X118.224 Y107.105 E0.01704
G1 X114.013 Y102.895 E0.18844
G1 X113.475 Y102.895 E0.01704
G1 X117.685 Y107.105 E0.18844
G1 X117.147 Y107.105 E0.01704
G1 X112.937 Y102.895 E0.18844
G1 X112.399 Y102.895 E0.01704
G1 X116.609 Y107.105 E0.18844
G1 X116.071 Y107.105 E0.01704
G1 X111.860 Y102.895 E0.18844
G1 X111.322 Y102.895 E0.01704
G1 X115.532 Y107.105 E0.18844
M73 Q19 S4
G1 X114.994 Y107.105 E0.01704
M73 P19 R4
G1 X110.784 Y102.895 E0.18844
G1 X110.246 Y102.895 E0.01704
G1 X114.456 Y107.105 E0.18844
G1 X113.918 Y107.105 E0.01704
G1 X109.707 Y102.895 E0.18844
G1 X109.169 Y102.895 E0.01704
G1 X113.379 Y107.105 E0.18844
G1 X112.841 Y107.105 E0.01704
G1 X108.631 Y102.895 E0.18844
G1 X108.093 Y102.895 E0.01704
G1 X112.303 Y107.105 E0.18844
G1 X111.764 Y107.105 E0.01704
G1 X107.554 Y102.895 E0.18844
G1 X107.016 Y102.895 E0.01704
G1 X111.226 Y107.105 E0.18844
M73 Q20 S4
G1 X110.688 Y107.105 E0.01704
G1 X106.478 Y102.895 E0.18844
M73 P20 R4
G1 X105.939 Y102.895 E0.01704
G1 X110.150 Y107.105 E0.18844
G1 X109.611 Y107.105 E0.01704
G1 X105.401 Y102.895 E0.18844
G1 X104.863 Y102.895 E0.01704
G1 X109.073 Y107.105 E0.18844
G1 X108.535 Y107.105 E0.01704
G1 X104.325 Y102.895 E0.18844
G1 X103.786 Y102.895 E0.01704
G1 X107.997 Y107.105 E0.18844
G1 X107.458 Y107.105 E0.01704
G1 X103.248 Y102.895 E0.18844
G1 X102.710 Y102.895 E0.01704
G1 X106.920 Y107.105 E0.18844
G1 X106.382 Y107.105 E0.01704
G1 X102.172 Y102.896 E0.18840
M73 Q21 S4
G1 X101.911 Y102.916 E0.00831
M73 P21 R4
G1 X101.704 Y102.966 E0.00672
G1 X105.844 Y107.105 E0.18526
G1 X105.305 Y107.105 E0.01704
G1 X101.340 Y103.140 E0.17746
G1 X101.051 Y103.389 E0.01208
G1 X104.767 Y107.105 E0.16633
G1 X104.229 Y107.105 E0.01704
G1 X100.830 Y103.706 E0.15212
G1 X100.745 Y103.912 E0.00703
G1 X100.697 Y104.112 E0.00651
G1 X103.690 Y107.105 E0.13398
G1 X103.152 Y107.105 E0.01704
G1 X100.670 Y104.623 E0.11110
G1 X100.670 Y105.161 E0.01704
G1 X102.614 Y107.105 E0.08701
G1 X102.067 Y107.096 E0.01732
G1 X100.679 Y105.708 E0.06211
G1 X100.691 Y105.864 E0.00495
G1 X100.745 Y106.088 E0.00728
G1 X100.833 Y106.301 E0.00728
G1 X100.953 Y106.497 E0.00728
G1 X101.093 Y106.661 E0.00680
G1 X101.617 Y107.185 E0.02347
; stop printing object wallet_key.STL id:0 copy 0
M106 S84.15
;LAYER_CHANGE
;Z:0.35
;HEIGHT:0.15
;BEFORE_LAYER_CHANGE
G92 E0.0
;0.35


;WIPE_START
G1 F8640.000
G1 X101.093 Y106.661 E-0.17123
G1 X100.953 Y106.497 E-0.04961
G1 X100.833 Y106.301 E-0.05315
G1 X100.745 Y106.088 E-0.05315
G1 X100.691 Y105.864 E-0.05315
G1 X100.679 Y105.708 E-0.03615
G1 X101.731 Y106.761 E-0.34358
;WIPE_END
G1 E-0.04000 F2100.000
G1 Z0.600 F10800.000
;AFTER_LAYER_CHANGE
;0.35
G1 X101.506 Y110.888
G1 Z0.350
G1 E0.80000 F2100.000
;TYPE:Skirt
;WIDTH:0.42
G1 F3000.000
G1 X100.574 Y110.692 E0.02305
G1 X99.794 Y110.381 E0.02029
G1 X99.051 Y109.934 E0.02098
G1 X98.428 Y109.409 E0.01970
G1 X97.864 Y108.756 E0.02088
G1 X97.424 Y108.041 E0.02029
G1 X97.102 Y107.262 E0.02039
G1 X96.905 Y106.426 E0.02078
G1 X96.846 Y105.638 E0.01910
M73 Q22 S4
G1 X96.901 Y103.605 E0.04919
G1 X97.118 Y102.689 E0.02276
G1 X97.525 Y101.778 E0.02413
G1 X98.293 Y100.731 E0.03140
G1 X99.079 Y100.046 E0.02522
G1 X100.324 Y99.395 E0.03396
G1 X101.349 Y99.130 E0.02561
M73 P22 R4
G1 X102.137 Y99.071 E0.01910
G1 X147.864 Y99.071 E1.10591
G1 X148.746 Y99.146 E0.02140
G1 X149.689 Y99.401 E0.02364
G1 X150.823 Y99.981 E0.03081
G1 X151.572 Y100.591 E0.02334
G1 X152.163 Y101.281 E0.02197
G1 X152.646 Y102.107 E0.02315
G1 X152.952 Y102.931 E0.02127
G1 X153.148 Y104.182 E0.03061
G1 X153.153 Y105.729 E0.03743
G1 X153.063 Y106.601 E0.02120
G1 X152.665 Y107.850 E0.03170
G1 X152.201 Y108.664 E0.02265
G1 X151.582 Y109.399 E0.02325
G1 X150.808 Y110.028 E0.02413
G1 X149.646 Y110.617 E0.03150
G1 X148.651 Y110.870 E0.02483
G1 X147.860 Y110.929 E0.01918
G1 X101.566 Y110.888 E1.11961
G1 X101.566 Y110.513 F10800.000
G1 F3000.000
G1 X100.679 Y110.330 E0.02192
G1 X99.956 Y110.040 E0.01884
G1 X99.268 Y109.626 E0.01939
G1 X98.688 Y109.136 E0.01839
G1 X98.167 Y108.531 E0.01930
G1 X97.757 Y107.864 E0.01894
G1 X97.459 Y107.140 E0.01894
G1 X97.276 Y106.355 E0.01949
G1 X97.223 Y105.639 E0.01737
G1 X97.274 Y103.664 E0.04779
G1 X97.472 Y102.820 E0.02095
G1 X97.842 Y101.983 E0.02214
G1 X98.569 Y100.988 E0.02980
G1 X99.293 Y100.356 E0.02324
G1 X100.470 Y99.743 E0.03209
G1 X101.420 Y99.501 E0.02370
G1 X102.136 Y99.448 E0.01737
