; generated by PrusaSlicer 2.3.3+win64 on 2021-10-05 at 14:53:08 UTC

; 

; external perimeters extrusion width = 0.45mm
; perimeters extrusion width = 0.45mm
; infill extrusion width = 0.45mm
; solid infill extrusion width = 0.45mm
; top infill extrusion width = 0.40mm
; first layer extrusion width = 0.42mm

M73 P0 R75
M73 Q0 S75
M201 X1000 Y1000 Z200 E5000 ; sets maximum accelerations, mm/sec^2
M203 X200 Y200 Z12 E120 ; sets maximum feedrates, mm/sec
M204 P1250 R1250 T1250 ; sets acceleration (P, T) and retract acceleration (R), mm/sec^2
M205 X8.00 Y8.00 Z0.40 E4.50 ; sets the jerk limits, mm/sec
M205 S0 T0 ; sets the minimum extruding and travel feed rate, mm/sec
M107
;TYPE:Custom
M862.3 P "MK3S" ; printer model check
M862.1 P0.4 ; nozzle diameter check
M115 U3.10.0 ; tell printer latest fw version
G90 ; use absolute coordinates
M83 ; extruder relative mode
M104 S215 ; set extruder temp
M140 S60 ; set bed temp
M190 S60 ; wait for bed temp
M109 S215 ; wait for extruder temp
G28 W ; home all without mesh bed level
G80 ; mesh bed leveling
G1 Y-3.0 F1000.0 ; go outside print area
G92 E0.0
G1 X60.0 E9.0 F1000.0 ; intro line
G1 X100.0 E12.5 F1000.0 ; intro line
G92 E0.0
M221 S95

; Don't change E values below. Excessive value can damage the printer.
M907 E430 ; set extruder motor current
G21 ; set units to millimeters
G90 ; use absolute coordinates
M83 ; use relative distances for extrusion
M900 K0.05 ; Filament gcode LA 1.5
M900 K30 ; Filament gcode LA 1.0
;LAYER_CHANGE
;Z:0.2
;HEIGHT:0.2
;BEFORE_LAYER_CHANGE
G92 E0.0
;0.2


G1 E-0.80000 F2100.000
G1 Z0.400 F10800.000
;AFTER_LAYER_CHANGE
;0.2
G1 X79.465 Y76.820
G1 Z0.200
G1 E0.80000 F2100.000
M204 S1000
;TYPE:Skirt
;WIDTH:0.42
G1 F1200.000
G1 X80.226 Y76.165 E0.03147
G1 X80.785 Y75.831 E0.02043
G1 X81.479 Y75.545 E0.02354
G1 X82.172 Y75.380 E0.02233
G1 X82.896 Y75.319 E0.02280
G1 X167.073 Y75.318 E2.63929
G1 X167.862 Y75.385 E0.02484
G1 X168.707 Y75.612 E0.02745
G1 X169.740 Y76.141 E0.03637
G1 X170.412 Y76.690 E0.02721
G1 X170.928 Y77.295 E0.02495
G1 X171.365 Y78.040 E0.02708
G1 X171.729 Y79.137 E0.03625
G1 X171.824 Y79.954 E0.02577
G1 X171.825 Y130.015 E1.56964
M73 P0 R74
G1 X171.637 Y131.248 E0.03910
G1 X171.286 Y132.128 E0.02971
G1 X170.533 Y133.183 E0.04064
G1 X169.774 Y133.835 E0.03135
G1 X169.216 Y134.169 E0.02042
G1 X168.521 Y134.455 E0.02355
G1 X167.828 Y134.620 E0.02233
G1 X167.103 Y134.681 E0.02281
G1 X82.901 Y134.682 E2.64011
G1 X81.626 Y134.496 E0.04040
G1 X80.748 Y134.150 E0.02957
G1 X79.678 Y133.393 E0.04112
G1 X79.020 Y132.629 E0.03159
G1 X78.686 Y132.070 E0.02042
G1 X78.402 Y131.383 E0.02331
G1 X78.235 Y130.687 E0.02245
G1 X78.174 Y129.974 E0.02245
G1 X78.173 Y80.027 E1.56606
G1 X78.360 Y78.767 E0.03993
G1 X78.706 Y77.890 E0.02958
G1 X79.430 Y76.869 E0.03924
; printing object ridge_wallet_inner_m.STL id:0 copy 0
;WIPE_START
G1 F8640.000
G1 X80.226 Y76.165 E-0.24523
G1 X80.785 Y75.831 E-0.15043
G1 X81.479 Y75.545 E-0.17333
G1 X82.172 Y75.380 E-0.16443
G1 X82.286 Y75.370 E-0.02659
;WIPE_END
G1 E-0.04000 F2100.000
G1 Z0.600 F10800.000
G1 X162.892 Y124.432
G1 Z0.200
G1 E0.80000 F2100.000
;TYPE:External perimeter
G1 F1200.000
G1 X166.483 Y124.432 E0.11260
G1 X168.279 Y127.543 E0.11260
G1 X166.483 Y130.652 E0.11260
G1 X162.892 Y130.652 E0.11260
G1 X161.096 Y127.543 E0.11260
G1 X162.862 Y124.484 E0.11072
G1 X162.892 Y124.032 F10800.000
;WIPE_START
G1 F8640.000
G1 X166.153 Y124.437 E-0.76000
;WIPE_END
G1 E-0.04000 F2100.000
G1 Z0.600 F10800.000
G1 X162.892 Y85.567
G1 Z0.200
G1 E0.80000 F2100.000
G1 F1200.000
G1 X161.096 Y82.457 E0.11260
G1 X162.892 Y79.347 E0.11260
G1 X166.483 Y79.347 E0.11260
G1 X168.279 Y82.457 E0.11260
G1 X166.483 Y85.567 E0.11260
G1 X162.952 Y85.567 E0.11072
G1 X162.546 Y85.767 F10800.000
;WIPE_START
G1 F8640.000
G1 X161.265 Y82.741 E-0.76000
;WIPE_END
G1 E-0.04000 F2100.000
G1 Z0.600 F10800.000
G1 X138.126 Y124.055
G1 Z0.200
G1 E0.80000 F2100.000
;TYPE:Perimeter
G1 F1200.000
G1 X140.139 Y127.543 E0.12625
G1 X138.126 Y131.030 E0.12625
G1 X134.099 Y131.030 E0.12625
G1 X132.086 Y127.543 E0.12625
G1 X134.099 Y124.055 E0.12625
G1 X138.066 Y124.055 E0.12437
G1 X137.908 Y124.432 F10800.000
;TYPE:External perimeter
G1 F1200.000
G1 X139.704 Y127.543 E0.11260
G1 X137.908 Y130.652 E0.11260
G1 X134.317 Y130.652 E0.11260
G1 X132.521 Y127.543 E0.11260
G1 X134.317 Y124.432 E0.11260
G1 X137.848 Y124.432 E0.11072
G1 X138.254 Y124.232 F10800.000
;WIPE_START
G1 F8640.000
G1 X139.535 Y127.259 E-0.76000
;WIPE_END
G1 E-0.04000 F2100.000
G1 Z0.600 F10800.000
G1 X116.327 Y127.543
G1 Z0.200
G1 E0.80000 F2100.000
;TYPE:Perimeter
G1 F1200.000
G1 X114.313 Y131.030 E0.12625
G1 X110.287 Y131.030 E0.12625
G1 X108.273 Y127.543 E0.12625
G1 X110.287 Y124.055 E0.12625
G1 X114.313 Y124.055 E0.12625
G1 X116.297 Y127.491 E0.12437
G1 X115.891 Y127.543 F10800.000
;TYPE:External perimeter
G1 F1200.000
G1 X114.096 Y130.652 E0.11260
G1 X110.504 Y130.652 E0.11260
G1 X108.709 Y127.543 E0.11260
G1 X110.504 Y124.432 E0.11260
G1 X114.096 Y124.432 E0.11260
G1 X115.861 Y127.491 E0.11072
G1 X116.238 Y127.743 F10800.000
;WIPE_START
G1 F8640.000
G1 X114.256 Y130.364 E-0.76000
;WIPE_END
G1 E-0.04000 F2100.000
G1 Z0.600 F10800.000
G1 X122.987 Y85.945
G1 Z0.200
G1 E0.80000 F2100.000
;TYPE:Perimeter
G1 F1200.000
G1 X120.973 Y82.457 E0.12625
G1 X122.987 Y78.970 E0.12625
G1 X127.013 Y78.970 E0.12625
G1 X129.027 Y82.457 E0.12625
G1 X127.013 Y85.945 E0.12625
G1 X123.047 Y85.945 E0.12437
G1 X123.204 Y85.567 F10800.000
;TYPE:External perimeter
G1 F1200.000
G1 X121.409 Y82.457 E0.11260
G1 X123.204 Y79.347 E0.11260
G1 X126.796 Y79.347 E0.11260
G1 X128.591 Y82.457 E0.11260
G1 X126.796 Y85.567 E0.11260
G1 X123.264 Y85.567 E0.11072
G1 X122.858 Y85.767 F10800.000
;WIPE_START
G1 F8640.000
G1 X121.578 Y82.741 E-0.76000
;WIPE_END
G1 E-0.04000 F2100.000
G1 Z0.600 F10800.000
G1 X166.701 Y78.970
G1 Z0.200
G1 E0.80000 F2100.000
;TYPE:Perimeter
G1 F1200.000
G1 X162.674 Y78.970 E0.12625
G1 X160.661 Y82.457 E0.12625
G1 X162.674 Y85.945 E0.12625
G1 X166.701 Y85.945 E0.12625
G1 X168.663 Y82.546 E0.12304
G1 X168.663 Y127.454 E1.40806
G1 X166.701 Y124.055 E0.12304
G1 X162.674 Y124.055 E0.12625
G1 X160.661 Y127.543 E0.12625
G1 X162.674 Y131.030 E0.12625
G1 X166.701 Y131.030 E0.12625
G1 X168.663 Y127.631 E0.12304
G1 X168.663 Y129.893 E0.07092
G1 X168.641 Y130.173 E0.00880
G1 X168.583 Y130.416 E0.00783
G1 X168.487 Y130.646 E0.00783
G1 X168.356 Y130.859 E0.00783
G1 X168.194 Y131.049 E0.00783
G1 X168.004 Y131.211 E0.00783
G1 X167.791 Y131.342 E0.00783
G1 X167.561 Y131.438 E0.00783
G1 X167.318 Y131.496 E0.00783
G1 X167.038 Y131.518 E0.00880
G1 X161.543 Y131.518 E0.17227
M73 Q0 S74
G1 X161.266 Y131.476 E0.00880
G1 X161.043 Y131.363 E0.00783
G1 X160.867 Y131.187 E0.00783
G1 X160.801 Y131.080 E0.00393
G1 X160.724 Y130.841 E0.00786
G1 X160.574 Y129.020 E0.05730
G1 X160.156 Y127.368 E0.05342
G1 X159.472 Y125.808 E0.05341
G1 X158.540 Y124.382 E0.05341
G1 X157.386 Y123.129 E0.05341
G1 X156.042 Y122.082 E0.05341
G1 X154.543 Y121.272 E0.05341
G1 X152.932 Y120.718 E0.05341
G1 X151.268 Y120.441 E0.05290
G1 X150.430 Y120.406 E0.02630
G1 X149.533 Y120.441 E0.02814
G1 X147.868 Y120.718 E0.05293
G1 X146.257 Y121.272 E0.05341
G1 X144.758 Y122.082 E0.05341
G1 X143.414 Y123.129 E0.05341
G1 X142.260 Y124.382 E0.05341
G1 X141.328 Y125.808 E0.05341
G1 X140.644 Y127.368 E0.05341
G1 X140.226 Y129.020 E0.05342
G1 X140.076 Y130.841 E0.05730
G1 X140.046 Y130.964 E0.00396
G1 X139.933 Y131.187 E0.00783
G1 X139.852 Y131.282 E0.00393
G1 X139.650 Y131.429 E0.00783
G1 X139.412 Y131.506 E0.00783
G1 X82.962 Y131.518 E1.76996
M73 P1 R74
M73 Q1 S74
G1 X82.682 Y131.496 E0.00880
G1 X82.439 Y131.438 E0.00783
G1 X82.209 Y131.342 E0.00783
G1 X81.996 Y131.211 E0.00783
G1 X81.806 Y131.049 E0.00783
G1 X81.644 Y130.859 E0.00783
G1 X81.513 Y130.646 E0.00783
G1 X81.417 Y130.416 E0.00783
G1 X81.359 Y130.173 E0.00783
G1 X81.337 Y129.893 E0.00880
G1 X81.337 Y127.631 E0.07092
G1 X83.299 Y131.030 E0.12304
G1 X87.326 Y131.030 E0.12625
G1 X89.339 Y127.543 E0.12625
G1 X87.326 Y124.055 E0.12625
G1 X83.299 Y124.055 E0.12625
G1 X81.337 Y127.454 E0.12304
G1 X81.337 Y82.546 E1.40806
G1 X83.299 Y85.945 E0.12304
G1 X87.326 Y85.945 E0.12625
G1 X89.339 Y82.457 E0.12625
G1 X87.326 Y78.970 E0.12625
G1 X83.299 Y78.970 E0.12625
G1 X81.337 Y82.369 E0.12304
G1 X81.337 Y80.107 E0.07092
G1 X81.359 Y79.827 E0.00880
G1 X81.417 Y79.584 E0.00783
G1 X81.513 Y79.354 E0.00783
G1 X81.644 Y79.141 E0.00783
G1 X81.806 Y78.951 E0.00783
G1 X81.996 Y78.789 E0.00783
G1 X82.209 Y78.658 E0.00783
G1 X82.439 Y78.562 E0.00783
G1 X82.682 Y78.504 E0.00783
G1 X82.962 Y78.482 E0.00880
G1 X167.038 Y78.482 E2.63613
G1 X167.318 Y78.504 E0.00880
G1 X167.561 Y78.562 E0.00783
G1 X167.791 Y78.658 E0.00783
G1 X168.004 Y78.789 E0.00783
G1 X168.194 Y78.951 E0.00783
G1 X168.356 Y79.141 E0.00783
G1 X168.487 Y79.354 E0.00783
G1 X168.583 Y79.584 E0.00783
G1 X168.641 Y79.827 E0.00783
G1 X168.663 Y80.107 E0.00880
G1 X168.663 Y82.369 E0.07092
G1 X166.731 Y79.022 E0.12116
;WIPE_START
G1 F8640.000
G1 X163.440 Y78.980 E-0.76000
;WIPE_END
G1 E-0.04000 F2100.000
G1 Z0.600 F10800.000
G1 X88.904 Y82.457
G1 Z0.200
G1 E0.80000 F2100.000
;TYPE:External perimeter
G1 F1200.000
G1 X87.108 Y85.567 E0.11260
G1 X83.517 Y85.567 E0.11260
G1 X81.721 Y82.457 E0.11260
G1 X83.517 Y79.347 E0.11260
G1 X87.108 Y79.347 E0.11260
G1 X88.874 Y82.406 E0.11072
G1 X89.250 Y82.657 F10800.000
;WIPE_START
G1 F8640.000
G1 X87.269 Y85.279 E-0.76000
;WIPE_END
G1 E-0.04000 F2100.000
G1 Z0.600 F10800.000
G1 X87.108 Y124.432
G1 Z0.200
G1 E0.80000 F2100.000
G1 F1200.000
G1 X88.904 Y127.543 E0.11260
G1 X87.108 Y130.652 E0.11260
G1 X83.517 Y130.652 E0.11260
G1 X81.721 Y127.543 E0.11260
G1 X83.517 Y124.432 E0.11260
G1 X87.048 Y124.432 E0.11072
G1 X87.454 Y124.232 F10800.000
;WIPE_START
G1 F8640.000
G1 X88.735 Y127.259 E-0.76000
;WIPE_END
G1 E-0.04000 F2100.000
G1 Z0.600 F10800.000
G1 X160.394 Y131.081
G1 Z0.200
G1 E0.80000 F2100.000
G1 F1200.000
G1 X160.351 Y130.901 E0.00580
G1 X160.201 Y129.082 E0.05723
G1 X159.798 Y127.491 E0.05146
G1 X159.139 Y125.988 E0.05146
G1 X158.241 Y124.614 E0.05145
G1 X157.130 Y123.407 E0.05146
G1 X155.835 Y122.399 E0.05146
G1 X154.391 Y121.618 E0.05145
G1 X152.839 Y121.085 E0.05146
G1 X151.229 Y120.816 E0.05119
G1 X150.429 Y120.783 E0.02510
G1 X149.571 Y120.816 E0.02692
G1 X147.961 Y121.085 E0.05120
G1 X146.409 Y121.618 E0.05146
G1 X144.965 Y122.399 E0.05145
G1 X143.670 Y123.407 E0.05146
G1 X142.559 Y124.614 E0.05146
G1 X141.661 Y125.988 E0.05145
G1 X141.002 Y127.491 E0.05146
G1 X140.599 Y129.082 E0.05146
G1 X140.449 Y130.901 E0.05723
G1 X140.406 Y131.081 E0.00580
G1 X140.336 Y131.251 E0.00579
G1 X140.239 Y131.409 E0.00579
G1 X140.119 Y131.549 E0.00579
G1 X139.979 Y131.669 E0.00579
G1 X139.821 Y131.766 E0.00579
G1 X139.651 Y131.836 E0.00579
G1 X139.472 Y131.879 E0.00579
G1 X139.271 Y131.895 E0.00629
G1 X82.947 Y131.895 E1.76600
G1 X82.623 Y131.869 E0.01020
G1 X82.322 Y131.797 E0.00969
G1 X82.037 Y131.679 E0.00969
G1 X81.773 Y131.517 E0.00969
G1 X81.538 Y131.317 E0.00969
G1 X81.337 Y131.082 E0.00969
G1 X81.176 Y130.818 E0.00969
G1 X81.058 Y130.533 E0.00969
G1 X80.986 Y130.232 E0.00969
G1 X80.960 Y129.908 E0.01020
G1 X80.960 Y80.092 E1.56192
G1 X80.986 Y79.768 E0.01020
G1 X81.058 Y79.467 E0.00969
G1 X81.176 Y79.182 E0.00969
G1 X81.337 Y78.918 E0.00969
G1 X81.538 Y78.683 E0.00969
G1 X81.773 Y78.482 E0.00969
G1 X82.037 Y78.321 E0.00969
G1 X82.322 Y78.203 E0.00969
G1 X82.623 Y78.131 E0.00969
G1 X82.947 Y78.105 E0.01020
G1 X167.053 Y78.105 E2.63706
G1 X167.377 Y78.131 E0.01020
G1 X167.678 Y78.203 E0.00969
G1 X167.963 Y78.321 E0.00969
G1 X168.227 Y78.482 E0.00969
G1 X168.462 Y78.683 E0.00969
G1 X168.662 Y78.918 E0.00969
G1 X168.824 Y79.182 E0.00969
G1 X168.942 Y79.467 E0.00969
G1 X169.014 Y79.768 E0.00969
G1 X169.040 Y80.092 E0.01020
G1 X169.040 Y129.908 E1.56192
G1 X169.014 Y130.232 E0.01020
G1 X168.942 Y130.533 E0.00969
G1 X168.824 Y130.818 E0.00969
M73 P1 R73
G1 X168.662 Y131.082 E0.00969
G1 X168.462 Y131.317 E0.00969
G1 X168.227 Y131.517 E0.00969
G1 X167.963 Y131.679 E0.00969
G1 X167.678 Y131.797 E0.00969
G1 X167.377 Y131.869 E0.00969
G1 X167.053 Y131.895 E0.01020
G1 X161.529 Y131.895 E0.17320
G1 X161.328 Y131.879 E0.00629
G1 X161.149 Y131.836 E0.00579
G1 X160.978 Y131.766 E0.00579
G1 X160.821 Y131.669 E0.00579
G1 X160.681 Y131.549 E0.00579
G1 X160.561 Y131.409 E0.00579
G1 X160.417 Y131.136 E0.00966
G1 X160.514 Y130.940 F10800.000
;WIPE_START
G1 F8640.000
G1 X160.351 Y130.901 E-0.05643
G1 X160.201 Y129.082 E-0.42145
G1 X159.901 Y127.898 E-0.28212
;WIPE_END
G1 E-0.04000 F2100.000
G1 Z0.600 F10800.000
G1 X162.187 Y130.412
G1 Z0.200
G1 E0.80000 F2100.000
;TYPE:Solid infill
;WIDTH:0.439226
G1 F1200.000
G1 X160.864 Y129.088 E0.06167
G1 X160.914 Y129.699 E0.02019
G1 X162.315 Y131.100 E0.06529
G1 X162.315 Y131.235 E0.00445
G1 X161.889 Y131.235 E0.01402
G1 X160.964 Y130.310 E0.04312
G1 X161.003 Y130.785 E0.01572
G1 X161.060 Y130.961 E0.00607
G1 X161.489 Y131.395 E0.02013
;WIPE_START
G1 F8640.000
G1 X161.060 Y130.961 E-0.14108
G1 X161.003 Y130.785 E-0.04255
G1 X160.964 Y130.310 E-0.11017
G1 X161.889 Y131.235 E-0.30216
G1 X162.315 Y131.235 E-0.09821
G1 X162.315 Y131.100 E-0.03121
G1 X162.209 Y130.994 E-0.03463
;WIPE_END
G1 E-0.04000 F2100.000
G1 Z0.600 F10800.000
G1 X162.598 Y131.274
G1 Z0.200
G1 E0.80000 F2100.000
;TYPE:Gap fill
;WIDTH:0.154184
G1 F1200.000
G1 X166.777 Y131.274 E0.03867
;WIPE_START
G1 F8640.000
G1 X163.486 Y131.274 E-0.76000
;WIPE_END
G1 E-0.04000 F2100.000
G1 Z0.600 F10800.000
G1 X168.550 Y129.100
G1 Z0.200
G1 E0.80000 F2100.000
;TYPE:Solid infill
;WIDTH:0.420231
G1 F1200.000
G1 X168.291 Y128.841 E0.01149
G1 X168.096 Y129.179 E0.01226
G1 X168.380 Y129.464 E0.01262
G1 X168.372 Y129.989 E0.01648
G1 X167.900 Y129.517 E0.02092
G1 X167.705 Y129.856 E0.01226
G1 X168.273 Y130.424 E0.02521
G1 X168.234 Y130.518 E0.00318
G1 X168.072 Y130.757 E0.00906
G1 X167.510 Y130.194 E0.02496
G1 X167.314 Y130.532 E0.01226
G1 X167.792 Y131.010 E0.02119
G1 X167.663 Y131.089 E0.00476
G1 X167.427 Y131.179 E0.00790
G1 X166.995 Y130.746 E0.01918
;WIPE_START
G1 F8640.000
G1 X167.427 Y131.179 E-0.14118
G1 X167.663 Y131.089 E-0.05816
G1 X167.792 Y131.010 E-0.03503
G1 X167.314 Y130.532 E-0.15596
G1 X167.510 Y130.194 E-0.09020
G1 X168.072 Y130.757 E-0.18372
G1 X168.234 Y130.518 E-0.06668
G1 X168.273 Y130.424 E-0.02342
G1 X168.256 Y130.407 E-0.00565
;WIPE_END
G1 E-0.04000 F2100.000
G1 Z0.600 F10800.000
G1 X160.802 Y128.489
G1 Z0.200
G1 E0.80000 F2100.000
;TYPE:Gap fill
;WIDTH:0.328918
G1 F1200.000
G1 X160.730 Y128.311 E0.00457
;WIDTH:0.283978
G1 X160.657 Y128.133 E0.00385
;WIDTH:0.239037
G1 X160.585 Y127.955 E0.00313
;WIDTH:0.194096
G1 X160.513 Y127.777 E0.00242
;WIDTH:0.149156
G1 X160.440 Y127.599 E0.00170
;WIPE_START
G1 F8640.000
G1 X160.513 Y127.777 E-0.04438
;WIPE_END
G1 E-0.75562 F2100.000
G1 Z0.600 F10800.000
G1 X140.360 Y127.599
G1 Z0.200
G1 E0.80000 F2100.000
;WIDTH:0.149157
G1 F1200.000
G1 X140.143 Y128.133 E0.00509
;WIDTH:0.283978
G1 X139.998 Y128.489 E0.00770
G1 X140.080 Y129.416 F10800.000
;TYPE:Solid infill
;WIDTH:0.454006
G1 F1200.000
G1 X139.639 Y128.975 E0.02132
G1 X139.426 Y129.343 E0.01455
G1 X139.878 Y129.796 E0.02187
G1 X139.834 Y130.333 E0.01842
G1 X139.213 Y129.712 E0.03002
G1 X139.000 Y130.080 E0.01455
G1 X139.780 Y130.861 E0.03771
G1 X139.658 Y131.073 E0.00836
G1 X139.514 Y131.175 E0.00606
G1 X138.787 Y130.449 E0.03511
G1 X138.575 Y130.818 E0.01455
G1 X139.150 Y131.393 E0.02780
G1 X138.202 Y131.274 F10800.000
;TYPE:Gap fill
;WIDTH:0.154184
G1 F1200.000
G1 X134.023 Y131.274 E0.03867
;WIPE_START
G1 F8640.000
G1 X137.314 Y131.274 E-0.76000
;WIPE_END
G1 E-0.04000 F2100.000
G1 Z0.600 F10800.000
G1 X114.390 Y131.274
G1 Z0.200
G1 E0.80000 F2100.000
G1 F1200.000
G1 X110.210 Y131.274 E0.03867
;WIPE_START
G1 F8640.000
G1 X113.501 Y131.274 E-0.76000
;WIPE_END
G1 E-0.04000 F2100.000
G1 Z0.600 F10800.000
G1 X87.402 Y131.274
G1 Z0.200
G1 E0.80000 F2100.000
G1 F1200.000
G1 X83.223 Y131.274 E0.03867
G1 X82.795 Y130.383 F10800.000
;TYPE:Solid infill
;WIDTH:0.473482
G1 F1200.000
G1 X81.620 Y129.208 E0.05951
G1 X81.620 Y129.816 E0.02180
