; generated by PrusaSlicer 2.3.3+win64 on 2021-10-04 at 09:16:57 UTC

; 

; external perimeters extrusion width = 0.45mm
; perimeters extrusion width = 0.45mm
; infill extrusion width = 0.45mm
; solid infill extrusion width = 0.45mm
; top infill extrusion width = 0.40mm
; first layer extrusion width = 0.42mm

M73 P0 R61
M73 Q0 S62
M201 X1000 Y1000 Z200 E5000 ; sets maximum accelerations, mm/sec^2
M203 X200 Y200 Z12 E120 ; sets maximum feedrates, mm/sec
M204 P1250 R1250 T1250 ; sets acceleration (P, T) and retract acceleration (R), mm/sec^2
M205 X8.00 Y8.00 Z0.40 E4.50 ; sets the jerk limits, mm/sec
M205 S0 T0 ; sets the minimum extruding and travel feed rate, mm/sec
M107
;TYPE:Custom
M862.3 P "MK3S" ; printer model check
M862.1 P0.4 ; nozzle diameter check
M115 U3.10.0 ; tell printer latest fw version
G90 ; use absolute coordinates
M83 ; extruder relative mode
M104 S215 ; set extruder temp
M140 S60 ; set bed temp
M190 S60 ; wait for bed temp
M109 S215 ; wait for extruder temp
G28 W ; home all without mesh bed level
G80 ; mesh bed leveling
G1 Y-3.0 F1000.0 ; go outside print area
G92 E0.0
G1 X60.0 E9.0 F1000.0 ; intro line
G1 X100.0 E12.5 F1000.0 ; intro line
G92 E0.0
M221 S95

; Don't change E values below. Excessive value can damage the printer.
M907 E430 ; set extruder motor current
G21 ; set units to millimeters
G90 ; use absolute coordinates
M83 ; use relative distances for extrusion
M900 K0.05 ; Filament gcode LA 1.5
M900 K30 ; Filament gcode LA 1.0
;LAYER_CHANGE
;Z:0.2
;HEIGHT:0.2
;BEFORE_LAYER_CHANGE
G92 E0.0
;0.2


G1 E-0.80000 F2100.000
G1 Z0.400 F10800.000
;AFTER_LAYER_CHANGE
;0.2
G1 X79.467 Y76.817
G1 Z0.200
G1 E0.80000 F2100.000
M204 S1000
;TYPE:Skirt
;WIDTH:0.42
G1 F1200.000
G1 X80.235 Y76.158 E0.03172
G1 X80.802 Y75.821 E0.02067
G1 X81.483 Y75.544 E0.02306
G1 X82.187 Y75.377 E0.02270
G1 X82.908 Y75.318 E0.02270
G1 X167.073 Y75.318 E2.63891
M73 Q0 S61
G1 X167.866 Y75.385 E0.02496
G1 X168.711 Y75.614 E0.02745
G1 X169.740 Y76.141 E0.03625
G1 X170.414 Y76.693 E0.02733
G1 X170.938 Y77.307 E0.02531
G1 X171.373 Y78.054 E0.02711
G1 X171.734 Y79.156 E0.03635
G1 X171.825 Y79.966 E0.02554
G1 X171.825 Y130.015 E1.56926
G1 X171.637 Y131.248 E0.03910
G1 X171.284 Y132.131 E0.02983
G1 X170.530 Y133.186 E0.04064
G1 X169.765 Y133.842 E0.03160
G1 X169.198 Y134.179 E0.02067
G1 X168.517 Y134.456 E0.02305
G1 X167.813 Y134.623 E0.02270
G1 X167.092 Y134.682 E0.02270
G1 X82.901 Y134.682 E2.63974
G1 X81.622 Y134.495 E0.04052
G1 X80.737 Y134.146 E0.02982
G1 X79.672 Y133.388 E0.04100
G1 X79.013 Y132.620 E0.03172
G1 X78.678 Y132.057 E0.02055
G1 X78.400 Y131.376 E0.02305
G1 X78.232 Y130.672 E0.02270
G1 X78.173 Y129.962 E0.02234
G1 X78.173 Y80.027 E1.56568
G1 X78.361 Y78.763 E0.04005
G1 X78.711 Y77.879 E0.02983
G1 X79.433 Y76.866 E0.03900
; printing object ridge_wallet_inner.STL id:0 copy 0
;WIPE_START
G1 F8640.000
G1 X80.235 Y76.158 E-0.24708
G1 X80.802 Y75.821 E-0.15221
G1 X81.483 Y75.544 E-0.16979
G1 X82.187 Y75.377 E-0.16714
G1 X82.290 Y75.368 E-0.02379
;WIPE_END
G1 E-0.04000 F2100.000
G1 Z0.600 F10800.000
G1 X122.711 Y125.348
G1 Z0.200
G1 E0.80000 F2100.000
;TYPE:Perimeter
G1 F1200.000
G1 X123.114 Y124.993 E0.01686
G1 X123.572 Y124.711 E0.01686
G1 X124.071 Y124.510 E0.01686
G1 X124.597 Y124.397 E0.01686
G1 X125.097 Y124.376 E0.01569
G1 X125.665 Y124.441 E0.01792
G1 X126.182 Y124.600 E0.01698
G1 X126.663 Y124.842 E0.01686
G1 X127.095 Y125.162 E0.01686
G1 X127.467 Y125.550 E0.01686
G1 X127.747 Y125.965 E0.01569
G1 X127.989 Y126.483 E0.01792
G1 X128.126 Y127.007 E0.01698
G1 X128.171 Y127.543 E0.01686
G1 X128.126 Y128.078 E0.01686
G1 X127.990 Y128.599 E0.01686
G1 X127.768 Y129.089 E0.01686
G1 X127.467 Y129.535 E0.01686
G1 X127.095 Y129.923 E0.01686
G1 X126.663 Y130.243 E0.01686
G1 X126.182 Y130.485 E0.01686
G1 X125.668 Y130.642 E0.01686
G1 X125.135 Y130.711 E0.01686
G1 X124.597 Y130.688 E0.01686
G1 X124.071 Y130.575 E0.01686
G1 X123.572 Y130.374 E0.01686
G1 X123.114 Y130.092 E0.01686
G1 X122.711 Y129.737 E0.01686
G1 X122.373 Y129.318 E0.01686
G1 X122.110 Y128.849 E0.01686
G1 X121.931 Y128.342 E0.01686
G1 X121.843 Y127.828 E0.01634
G1 X121.843 Y127.257 E0.01790
G1 X121.931 Y126.743 E0.01634
G1 X122.110 Y126.236 E0.01686
G1 X122.373 Y125.767 E0.01686
G1 X122.673 Y125.395 E0.01498
G1 X122.966 Y125.632 F10800.000
;TYPE:External perimeter
G1 F1200.000
G1 X123.339 Y125.297 E0.01571
G1 X123.743 Y125.049 E0.01485
G1 X124.182 Y124.872 E0.01485
G1 X124.645 Y124.772 E0.01485
G1 X125.083 Y124.754 E0.01375
G1 X125.587 Y124.812 E0.01590
G1 X126.041 Y124.951 E0.01489
G1 X126.464 Y125.164 E0.01485
G1 X126.845 Y125.446 E0.01485
G1 X127.173 Y125.788 E0.01485
G1 X127.418 Y126.151 E0.01375
G1 X127.633 Y126.611 E0.01590
G1 X127.753 Y127.071 E0.01489
G1 X127.793 Y127.543 E0.01485
G1 X127.753 Y128.014 E0.01485
G1 X127.633 Y128.473 E0.01485
G1 X127.438 Y128.905 E0.01485
G1 X127.173 Y129.297 E0.01485
G1 X126.845 Y129.639 E0.01485
G1 X126.464 Y129.921 E0.01485
G1 X126.041 Y130.134 E0.01485
G1 X125.588 Y130.273 E0.01485
G1 X125.119 Y130.333 E0.01485
G1 X124.645 Y130.313 E0.01485
G1 X124.182 Y130.213 E0.01485
G1 X123.743 Y130.036 E0.01485
G1 X123.339 Y129.788 E0.01485
G1 X122.984 Y129.475 E0.01485
G1 X122.686 Y129.106 E0.01485
G1 X122.455 Y128.693 E0.01485
G1 X122.297 Y128.246 E0.01485
G1 X122.219 Y127.788 E0.01458
G1 X122.219 Y127.297 E0.01539
G1 X122.297 Y126.839 E0.01458
G1 X122.455 Y126.392 E0.01485
G1 X122.686 Y125.979 E0.01485
G1 X122.929 Y125.678 E0.01210
G1 X122.852 Y125.249 F10800.000
;WIPE_START
G1 F8640.000
G1 X123.339 Y125.297 E-0.12942
G1 X123.743 Y125.049 E-0.10937
G1 X124.182 Y124.872 E-0.10938
G1 X124.645 Y124.772 E-0.10937
G1 X125.083 Y124.754 E-0.10123
G1 X125.587 Y124.812 E-0.11712
G1 X125.935 Y124.919 E-0.08411
;WIPE_END
G1 E-0.04000 F2100.000
G1 Z0.600 F10800.000
G1 X88.484 Y127.543
G1 Z0.200
G1 E0.80000 F2100.000
;TYPE:Perimeter
G1 F1200.000
G1 X88.438 Y128.078 E0.01686
G1 X88.303 Y128.599 E0.01686
G1 X88.081 Y129.089 E0.01686
G1 X87.780 Y129.535 E0.01686
G1 X87.434 Y129.896 E0.01569
G1 X86.978 Y130.241 E0.01792
G1 X86.495 Y130.485 E0.01698
G1 X85.981 Y130.642 E0.01686
G1 X85.447 Y130.711 E0.01686
G1 X84.910 Y130.688 E0.01686
G1 X84.384 Y130.575 E0.01686
G1 X83.885 Y130.374 E0.01686
G1 X83.427 Y130.092 E0.01686
G1 X83.023 Y129.737 E0.01686
G1 X82.685 Y129.318 E0.01686
G1 X82.423 Y128.849 E0.01686
G1 X82.244 Y128.342 E0.01686
G1 X82.156 Y127.828 E0.01634
G1 X82.143 Y127.543 E0.00896
G1 X82.156 Y127.257 E0.00896
G1 X82.244 Y126.743 E0.01634
G1 X82.423 Y126.236 E0.01686
G1 X82.685 Y125.767 E0.01686
G1 X83.023 Y125.348 E0.01686
G1 X83.427 Y124.993 E0.01686
G1 X83.885 Y124.711 E0.01686
G1 X84.384 Y124.510 E0.01686
G1 X84.910 Y124.397 E0.01686
G1 X85.410 Y124.376 E0.01569
G1 X85.977 Y124.441 E0.01792
G1 X86.495 Y124.600 E0.01698
G1 X86.975 Y124.842 E0.01686
G1 X87.408 Y125.162 E0.01686
G1 X87.780 Y125.550 E0.01686
G1 X88.081 Y125.996 E0.01686
G1 X88.303 Y126.486 E0.01686
G1 X88.438 Y127.007 E0.01686
G1 X88.479 Y127.483 E0.01498
G1 X88.103 Y127.515 F10800.000
;TYPE:External perimeter
G1 F1200.000
G1 X88.065 Y128.014 E0.01572
G1 X87.946 Y128.473 E0.01485
G1 X87.751 Y128.905 E0.01485
G1 X87.485 Y129.297 E0.01485
G1 X87.182 Y129.613 E0.01375
G1 X86.778 Y129.920 E0.01590
G1 X86.354 Y130.134 E0.01489
G1 X85.901 Y130.273 E0.01485
G1 X85.431 Y130.333 E0.01485
G1 X84.958 Y130.313 E0.01485
G1 X84.495 Y130.213 E0.01485
G1 X84.055 Y130.036 E0.01485
G1 X83.652 Y129.788 E0.01485
G1 X83.296 Y129.475 E0.01485
G1 X82.999 Y129.106 E0.01485
G1 X82.768 Y128.693 E0.01485
G1 X82.610 Y128.246 E0.01485
G1 X82.531 Y127.788 E0.01458
G1 X82.521 Y127.543 E0.00770
G1 X82.531 Y127.297 E0.00770
G1 X82.610 Y126.839 E0.01458
G1 X82.768 Y126.392 E0.01485
G1 X82.999 Y125.979 E0.01485
G1 X83.296 Y125.610 E0.01485
G1 X83.652 Y125.297 E0.01485
G1 X84.055 Y125.049 E0.01485
G1 X84.495 Y124.872 E0.01485
G1 X84.958 Y124.772 E0.01485
G1 X85.396 Y124.754 E0.01375
G1 X85.900 Y124.812 E0.01590
G1 X86.354 Y124.951 E0.01489
G1 X86.777 Y125.164 E0.01485
G1 X87.158 Y125.446 E0.01485
G1 X87.485 Y125.788 E0.01485
G1 X87.751 Y126.181 E0.01485
G1 X87.946 Y126.612 E0.01485
G1 X88.065 Y127.071 E0.01485
G1 X88.098 Y127.455 E0.01210
G1 X88.451 Y127.712 F10800.000
;WIPE_START
G1 F8640.000
G1 X88.065 Y128.014 E-0.12943
G1 X87.946 Y128.473 E-0.10937
G1 X87.751 Y128.905 E-0.10937
G1 X87.485 Y129.297 E-0.10937
G1 X87.182 Y129.613 E-0.10123
G1 X86.778 Y129.920 E-0.11712
G1 X86.453 Y130.084 E-0.08411
;WIPE_END
G1 E-0.04000 F2100.000
G1 Z0.600 F10800.000
G1 X85.447 Y85.626
G1 Z0.200
G1 E0.80000 F2100.000
;TYPE:Perimeter
G1 F1200.000
G1 X84.910 Y85.603 E0.01686
G1 X84.384 Y85.490 E0.01686
G1 X83.885 Y85.289 E0.01686
G1 X83.427 Y85.007 E0.01686
G1 X83.023 Y84.652 E0.01686
G1 X82.685 Y84.233 E0.01686
G1 X82.423 Y83.764 E0.01686
G1 X82.244 Y83.257 E0.01686
G1 X82.156 Y82.743 E0.01634
G1 X82.156 Y82.172 E0.01790
G1 X82.244 Y81.658 E0.01634
G1 X82.423 Y81.151 E0.01686
G1 X82.685 Y80.682 E0.01686
G1 X83.023 Y80.263 E0.01686
G1 X83.427 Y79.908 E0.01686
G1 X83.885 Y79.626 E0.01686
G1 X84.384 Y79.425 E0.01686
G1 X84.910 Y79.312 E0.01686
G1 X85.410 Y79.291 E0.01569
G1 X85.977 Y79.356 E0.01792
G1 X86.495 Y79.515 E0.01698
G1 X86.975 Y79.757 E0.01686
G1 X87.408 Y80.077 E0.01686
G1 X87.780 Y80.465 E0.01686
G1 X88.081 Y80.911 E0.01686
G1 X88.303 Y81.401 E0.01686
G1 X88.438 Y81.922 E0.01686
G1 X88.484 Y82.457 E0.01686
G1 X88.438 Y82.993 E0.01686
G1 X88.303 Y83.514 E0.01686
G1 X88.081 Y84.004 E0.01686
G1 X87.780 Y84.450 E0.01686
G1 X87.408 Y84.838 E0.01686
G1 X86.975 Y85.158 E0.01686
G1 X86.495 Y85.400 E0.01686
G1 X85.981 Y85.557 E0.01686
G1 X85.507 Y85.618 E0.01498
G1 X85.459 Y85.244 F10800.000
;TYPE:External perimeter
G1 F1200.000
G1 X84.958 Y85.228 E0.01572
G1 X84.495 Y85.128 E0.01485
G1 X84.055 Y84.951 E0.01485
G1 X83.652 Y84.703 E0.01485
G1 X83.296 Y84.390 E0.01485
G1 X82.999 Y84.021 E0.01485
G1 X82.768 Y83.608 E0.01485
G1 X82.610 Y83.161 E0.01485
G1 X82.531 Y82.703 E0.01458
G1 X82.531 Y82.212 E0.01539
G1 X82.610 Y81.754 E0.01458
G1 X82.768 Y81.307 E0.01485
G1 X82.999 Y80.894 E0.01485
G1 X83.296 Y80.525 E0.01485
G1 X83.652 Y80.212 E0.01485
G1 X84.055 Y79.964 E0.01485
G1 X84.495 Y79.787 E0.01485
G1 X84.958 Y79.687 E0.01485
G1 X85.396 Y79.669 E0.01375
G1 X85.900 Y79.727 E0.01590
G1 X86.354 Y79.866 E0.01489
G1 X86.777 Y80.079 E0.01485
G1 X87.158 Y80.361 E0.01485
G1 X87.485 Y80.703 E0.01485
G1 X87.751 Y81.095 E0.01485
G1 X87.946 Y81.527 E0.01485
G1 X88.065 Y81.986 E0.01485
G1 X88.105 Y82.457 E0.01485
G1 X88.065 Y82.929 E0.01485
G1 X87.946 Y83.388 E0.01485
G1 X87.751 Y83.820 E0.01485
G1 X87.485 Y84.212 E0.01485
G1 X87.158 Y84.554 E0.01485
G1 X86.777 Y84.836 E0.01485
G1 X86.354 Y85.049 E0.01485
G1 X85.901 Y85.188 E0.01485
G1 X85.518 Y85.237 E0.01210
G1 X85.276 Y85.600 F10800.000
;WIPE_START
G1 F8640.000
G1 X84.958 Y85.228 E-0.12943
G1 X84.495 Y85.128 E-0.10937
G1 X84.055 Y84.951 E-0.10937
G1 X83.652 Y84.703 E-0.10937
G1 X83.296 Y84.390 E-0.10938
G1 X82.999 Y84.021 E-0.10937
G1 X82.822 Y83.705 E-0.08370
;WIPE_END
G1 E-0.04000 F2100.000
G1 Z0.600 F10800.000
G1 X109.231 Y83.257
G1 Z0.200
G1 E0.80000 F2100.000
;TYPE:Perimeter
G1 F1200.000
G1 X109.143 Y82.743 E0.01634
G1 X109.131 Y82.457 E0.00896
G1 X109.143 Y82.172 E0.00896
G1 X109.231 Y81.658 E0.01634
G1 X109.410 Y81.151 E0.01686
G1 X109.673 Y80.682 E0.01686
G1 X110.011 Y80.263 E0.01686
G1 X110.414 Y79.908 E0.01686
G1 X110.872 Y79.626 E0.01686
G1 X111.371 Y79.425 E0.01686
G1 X111.897 Y79.312 E0.01686
G1 X112.397 Y79.291 E0.01569
G1 X112.965 Y79.356 E0.01792
G1 X113.482 Y79.515 E0.01698
G1 X113.963 Y79.757 E0.01686
G1 X114.395 Y80.077 E0.01686
G1 X114.767 Y80.465 E0.01686
G1 X115.068 Y80.911 E0.01686
G1 X115.290 Y81.401 E0.01686
G1 X115.426 Y81.922 E0.01686
G1 X115.471 Y82.457 E0.01686
G1 X115.426 Y82.993 E0.01686
G1 X115.290 Y83.514 E0.01686
G1 X115.068 Y84.004 E0.01686
G1 X114.767 Y84.450 E0.01686
G1 X114.395 Y84.838 E0.01686
G1 X113.963 Y85.158 E0.01686
G1 X113.482 Y85.400 E0.01686
G1 X112.968 Y85.557 E0.01686
G1 X112.435 Y85.626 E0.01686
G1 X111.897 Y85.603 E0.01686
G1 X111.371 Y85.490 E0.01686
G1 X110.872 Y85.289 E0.01686
G1 X110.414 Y85.007 E0.01686
G1 X110.011 Y84.652 E0.01686
G1 X109.673 Y84.233 E0.01686
G1 X109.410 Y83.764 E0.01686
G1 X109.251 Y83.313 E0.01498
G1 X109.607 Y83.188 F10800.000
;TYPE:External perimeter
G1 F1200.000
G1 X109.519 Y82.703 E0.01544
G1 X109.519 Y82.212 E0.01539
G1 X109.597 Y81.754 E0.01458
G1 X109.755 Y81.307 E0.01485
G1 X109.986 Y80.894 E0.01485
G1 X110.284 Y80.525 E0.01485
G1 X110.639 Y80.212 E0.01485
G1 X111.043 Y79.964 E0.01485
G1 X111.482 Y79.787 E0.01485
G1 X111.945 Y79.687 E0.01485
G1 X112.383 Y79.669 E0.01375
G1 X112.887 Y79.727 E0.01590
G1 X113.341 Y79.866 E0.01489
G1 X113.764 Y80.079 E0.01485
G1 X114.145 Y80.361 E0.01485
G1 X114.473 Y80.703 E0.01485
G1 X114.738 Y81.095 E0.01485
G1 X114.933 Y81.527 E0.01485
G1 X115.053 Y81.986 E0.01485
G1 X115.093 Y82.457 E0.01485
G1 X115.053 Y82.929 E0.01485
G1 X114.933 Y83.388 E0.01485
G1 X114.738 Y83.820 E0.01485
G1 X114.473 Y84.212 E0.01485
G1 X114.145 Y84.554 E0.01485
G1 X113.764 Y84.836 E0.01485
G1 X113.341 Y85.049 E0.01485
G1 X112.888 Y85.188 E0.01485
G1 X112.419 Y85.248 E0.01485
G1 X111.945 Y85.228 E0.01485
G1 X111.482 Y85.128 E0.01485
G1 X111.043 Y84.951 E0.01485
G1 X110.639 Y84.703 E0.01485
G1 X110.284 Y84.390 E0.01485
G1 X109.986 Y84.021 E0.01485
G1 X109.755 Y83.608 E0.01485
G1 X109.627 Y83.244 E0.01210
G1 X109.220 Y83.084 F10800.000
;WIPE_START
G1 F8640.000
G1 X109.519 Y82.703 E-0.12741
G1 X109.519 Y82.212 E-0.11336
G1 X109.597 Y81.754 E-0.10735
G1 X109.755 Y81.307 E-0.10937
G1 X109.986 Y80.894 E-0.10937
G1 X110.284 Y80.525 E-0.10937
G1 X110.556 Y80.285 E-0.08376
;WIPE_END
G1 E-0.04000 F2100.000
G1 Z0.600 F10800.000
G1 X133.044 Y81.658
G1 Z0.200
G1 E0.80000 F2100.000
;TYPE:Perimeter
G1 F1200.000
G1 X133.223 Y81.151 E0.01686
G1 X133.485 Y80.682 E0.01686
G1 X133.823 Y80.263 E0.01686
G1 X134.227 Y79.908 E0.01686
G1 X134.685 Y79.626 E0.01686
G1 X135.184 Y79.425 E0.01686
G1 X135.710 Y79.312 E0.01686
G1 X136.210 Y79.291 E0.01569
G1 X136.777 Y79.356 E0.01792
G1 X137.295 Y79.515 E0.01698
G1 X137.775 Y79.757 E0.01686
G1 X138.208 Y80.077 E0.01686
G1 X138.580 Y80.465 E0.01686
G1 X138.881 Y80.911 E0.01686
G1 X139.087 Y81.367 E0.01569
G1 X139.238 Y81.918 E0.01792
G1 X139.284 Y82.457 E0.01698
G1 X139.238 Y82.993 E0.01686
G1 X139.103 Y83.514 E0.01686
G1 X138.881 Y84.004 E0.01686
G1 X138.580 Y84.450 E0.01686
G1 X138.234 Y84.811 E0.01569
G1 X137.778 Y85.156 E0.01792
G1 X137.295 Y85.400 E0.01698
G1 X136.781 Y85.557 E0.01686
G1 X136.247 Y85.626 E0.01686
G1 X135.710 Y85.603 E0.01686
G1 X135.184 Y85.490 E0.01686
G1 X134.685 Y85.289 E0.01686
G1 X134.227 Y85.007 E0.01686
G1 X133.823 Y84.652 E0.01686
G1 X133.485 Y84.233 E0.01686
G1 X133.223 Y83.764 E0.01686
G1 X133.044 Y83.257 E0.01686
G1 X132.956 Y82.743 E0.01634
G1 X132.943 Y82.457 E0.00896
G1 X132.956 Y82.172 E0.00896
G1 X133.034 Y81.718 E0.01446
G1 X133.405 Y81.781 F10800.000
;TYPE:External perimeter
G1 F1200.000
G1 X133.568 Y81.307 E0.01572
G1 X133.799 Y80.894 E0.01485
G1 X134.096 Y80.525 E0.01485
G1 X134.452 Y80.212 E0.01485
G1 X134.855 Y79.964 E0.01485
G1 X135.295 Y79.787 E0.01485
G1 X135.758 Y79.687 E0.01485
G1 X136.196 Y79.669 E0.01375
G1 X136.700 Y79.727 E0.01590
G1 X137.154 Y79.866 E0.01489
G1 X137.577 Y80.079 E0.01485
G1 X137.958 Y80.361 E0.01485
G1 X138.285 Y80.703 E0.01485
G1 X138.551 Y81.095 E0.01485
G1 X138.731 Y81.495 E0.01375
G1 X138.865 Y81.984 E0.01590
G1 X138.905 Y82.457 E0.01489
G1 X138.865 Y82.929 E0.01485
G1 X138.746 Y83.388 E0.01485
G1 X138.551 Y83.820 E0.01485
G1 X138.285 Y84.212 E0.01485
G1 X137.982 Y84.528 E0.01375
G1 X137.578 Y84.835 E0.01590
G1 X137.154 Y85.049 E0.01489
G1 X136.701 Y85.188 E0.01485
G1 X136.231 Y85.248 E0.01485
G1 X135.758 Y85.228 E0.01485
G1 X135.295 Y85.128 E0.01485
G1 X134.855 Y84.951 E0.01485
G1 X134.452 Y84.703 E0.01485
G1 X134.096 Y84.390 E0.01485
G1 X133.799 Y84.021 E0.01485
G1 X133.568 Y83.608 E0.01485
G1 X133.410 Y83.161 E0.01485
G1 X133.331 Y82.703 E0.01458
G1 X133.321 Y82.457 E0.00770
G1 X133.331 Y82.212 E0.00770
G1 X133.395 Y81.840 E0.01182
G1 X133.122 Y81.499 F10800.000
;WIPE_START
