; generated by PrusaSlicer 2.3.3+win64 on 2021-10-06 at 09:07:57 UTC

; 

; external perimeters extrusion width = 0.45mm
; perimeters extrusion width = 0.45mm
; infill extrusion width = 0.45mm
; solid infill extrusion width = 0.45mm
; top infill extrusion width = 0.40mm
; first layer extrusion width = 0.42mm

M73 P0 R77
M73 Q0 S78
M201 X1000 Y1000 Z200 E5000 ; sets maximum accelerations, mm/sec^2
M203 X200 Y200 Z12 E120 ; sets maximum feedrates, mm/sec
M204 P1250 R1250 T1250 ; sets acceleration (P, T) and retract acceleration (R), mm/sec^2
M205 X8.00 Y8.00 Z0.40 E4.50 ; sets the jerk limits, mm/sec
M205 S0 T0 ; sets the minimum extruding and travel feed rate, mm/sec
M107
;TYPE:Custom
M862.3 P "MK3S" ; printer model check
M862.1 P0.4 ; nozzle diameter check
M115 U3.10.0 ; tell printer latest fw version
G90 ; use absolute coordinates
M83 ; extruder relative mode
M104 S215 ; set extruder temp
M140 S60 ; set bed temp
M190 S60 ; wait for bed temp
M109 S215 ; wait for extruder temp
G28 W ; home all without mesh bed level
G80 ; mesh bed leveling
G1 Y-3.0 F1000.0 ; go outside print area
G92 E0.0
G1 X60.0 E9.0 F1000.0 ; intro line
G1 X100.0 E12.5 F1000.0 ; intro line
G92 E0.0
M221 S95

; Don't change E values below. Excessive value can damage the printer.
M907 E430 ; set extruder motor current
G21 ; set units to millimeters
G90 ; use absolute coordinates
M83 ; use relative distances for extrusion
M900 K0.05 ; Filament gcode LA 1.5
M900 K30 ; Filament gcode LA 1.0
;LAYER_CHANGE
;Z:0.2
;HEIGHT:0.2
;BEFORE_LAYER_CHANGE
G92 E0.0
;0.2


G1 E-0.80000 F2100.000
G1 Z0.400 F10800.000
;AFTER_LAYER_CHANGE
;0.2
G1 X81.138 Y39.684
G1 Z0.200
G1 E0.80000 F2100.000
M204 S1000
;TYPE:Skirt
;WIDTH:0.42
G1 F1200.000
G1 X82.288 Y39.501 E0.03650
G1 X166.313 Y39.501 E2.63455
G1 X167.039 Y39.571 E0.02288
G1 X167.873 Y39.834 E0.02741
G1 X168.516 Y40.191 E0.02307
G1 X169.026 Y40.613 E0.02073
G1 X169.463 Y41.124 E0.02110
G1 X169.827 Y41.752 E0.02276
G1 X170.106 Y42.603 E0.02808
G1 X170.185 Y43.290 E0.02168
G1 X170.185 Y95.060 E1.62321
G1 X170.040 Y96.036 E0.03093
G1 X169.739 Y96.795 E0.02561
G1 X169.145 Y97.630 E0.03212
G1 X168.504 Y98.183 E0.02656
G1 X149.822 Y109.550 E0.68564
G1 X149.030 Y109.899 E0.02716
G1 X148.285 Y110.086 E0.02407
G1 X147.467 Y110.155 E0.02574
G1 X102.510 Y110.155 E1.40959
M73 Q0 S77
G1 X101.171 Y109.959 E0.04243
G1 X100.231 Y109.580 E0.03179
G1 X80.429 Y98.374 E0.71337
G1 X79.661 Y97.813 E0.02982
G1 X79.124 Y97.188 E0.02585
G1 X78.621 Y96.168 E0.03567
G1 X78.437 Y95.018 E0.03650
G1 X78.437 Y43.336 E1.62046
G1 X78.581 Y42.341 E0.03152
G1 X78.881 Y41.577 E0.02573
G1 X79.476 Y40.739 E0.03223
G1 X80.120 Y40.183 E0.02668
G1 X81.084 Y39.710 E0.03367
; printing object wallet_key.STL id:1 copy 0
;WIPE_START
G1 F8640.000
G1 X82.288 Y39.501 E-0.28210
G1 X84.357 Y39.501 E-0.47790
;WIPE_END
G1 E-0.04000 F2100.000
G1 Z0.600 F10800.000
G1 X101.996 Y103.097
G1 Z0.200
G1 E0.80000 F2100.000
;TYPE:Perimeter
G1 F1200.000
G1 X102.263 Y103.033 E0.00861
G1 X102.568 Y103.009 E0.00959
G1 X147.432 Y103.009 E1.40669
G1 X147.729 Y103.032 E0.00933
G1 X148.005 Y103.098 E0.00890
G1 X148.258 Y103.202 E0.00858
G1 X148.492 Y103.346 E0.00861
G1 X148.701 Y103.524 E0.00861
G1 X148.879 Y103.733 E0.00861
G1 X149.023 Y103.967 E0.00861
G1 X149.128 Y104.221 E0.00861
G1 X149.192 Y104.488 E0.00861
G1 X149.216 Y104.793 E0.00959
G1 X149.216 Y105.207 E0.01299
G1 X149.192 Y105.512 E0.00959
G1 X149.128 Y105.779 E0.00861
G1 X149.023 Y106.033 E0.00861
G1 X148.879 Y106.267 E0.00861
G1 X148.701 Y106.476 E0.00861
G1 X148.492 Y106.654 E0.00861
G1 X148.258 Y106.798 E0.00861
G1 X148.004 Y106.903 E0.00861
G1 X147.737 Y106.967 E0.00861
G1 X147.432 Y106.991 E0.00959
G1 X102.568 Y106.991 E1.40669
G1 X102.263 Y106.967 E0.00959
G1 X101.996 Y106.903 E0.00861
G1 X101.742 Y106.798 E0.00861
G1 X101.508 Y106.654 E0.00861
G1 X101.299 Y106.476 E0.00861
G1 X101.121 Y106.267 E0.00861
G1 X100.977 Y106.033 E0.00861
G1 X100.872 Y105.779 E0.00861
G1 X100.808 Y105.512 E0.00861
G1 X100.784 Y105.207 E0.00959
G1 X100.784 Y104.793 E0.01299
G1 X100.808 Y104.488 E0.00959
G1 X100.872 Y104.221 E0.00861
G1 X100.977 Y103.967 E0.00861
G1 X101.121 Y103.733 E0.00861
G1 X101.299 Y103.524 E0.00861
G1 X101.502 Y103.351 E0.00835
G1 X101.743 Y103.202 E0.00890
G1 X101.941 Y103.120 E0.00670
G1 X101.571 Y102.865 F10800.000
;TYPE:External perimeter
G1 F1200.000
G1 X101.879 Y102.737 E0.01046
G1 X102.204 Y102.659 E0.01047
G1 X102.553 Y102.632 E0.01098
G1 X147.447 Y102.632 E1.40762
G1 X147.787 Y102.659 E0.01070
G1 X148.121 Y102.737 E0.01076
G1 X148.430 Y102.865 E0.01046
G1 X148.714 Y103.040 E0.01047
G1 X148.968 Y103.257 E0.01047
G1 X149.185 Y103.511 E0.01047
G1 X149.360 Y103.795 E0.01047
G1 X149.488 Y104.104 E0.01047
G1 X149.566 Y104.429 E0.01047
G1 X149.593 Y104.778 E0.01098
G1 X149.593 Y105.222 E0.01392
G1 X149.566 Y105.571 E0.01098
G1 X149.488 Y105.896 E0.01047
G1 X149.360 Y106.205 E0.01047
G1 X149.185 Y106.489 E0.01047
G1 X148.968 Y106.743 E0.01047
G1 X148.714 Y106.960 E0.01047
G1 X148.430 Y107.135 E0.01047
G1 X148.121 Y107.263 E0.01047
G1 X147.796 Y107.341 E0.01047
G1 X147.447 Y107.368 E0.01098
G1 X102.553 Y107.368 E1.40762
G1 X102.204 Y107.341 E0.01098
G1 X101.879 Y107.263 E0.01047
G1 X101.570 Y107.135 E0.01047
G1 X101.286 Y106.960 E0.01047
G1 X101.032 Y106.743 E0.01047
G1 X100.815 Y106.489 E0.01047
G1 X100.640 Y106.205 E0.01047
G1 X100.512 Y105.896 E0.01047
G1 X100.434 Y105.571 E0.01047
G1 X100.407 Y105.222 E0.01098
G1 X100.407 Y104.778 E0.01392
G1 X100.434 Y104.429 E0.01098
G1 X100.512 Y104.104 E0.01047
G1 X100.640 Y103.795 E0.01047
G1 X100.815 Y103.511 E0.01047
G1 X101.032 Y103.257 E0.01047
G1 X101.279 Y103.046 E0.01019
G1 X101.520 Y102.897 E0.00888
G1 X101.851 Y103.047 F10800.000
;WIPE_START
G1 F8640.000
G1 X101.879 Y102.737 E-0.09074
G1 X102.204 Y102.659 E-0.07713
G1 X102.553 Y102.632 E-0.08086
G1 X104.767 Y102.632 E-0.51127
;WIPE_END
G1 E-0.04000 F2100.000
G1 Z0.600 F10800.000
G1 X147.986 Y103.212
G1 Z0.200
G1 E0.80000 F2100.000
;TYPE:Solid infill
;WIDTH:0.42374
G1 F1200.000
G1 X148.511 Y103.738 E0.02355
G1 X148.650 Y103.900 E0.00675
G1 X148.770 Y104.096 E0.00729
G1 X148.858 Y104.309 E0.00729
G1 X148.912 Y104.532 E0.00729
G1 X148.924 Y104.689 E0.00497
G1 X147.536 Y103.301 E0.06217
G1 X146.988 Y103.292 E0.01734
G1 X148.930 Y105.234 E0.08696
G1 X148.912 Y105.468 E0.00743
G1 X148.856 Y105.698 E0.00750
G1 X146.450 Y103.292 E0.10773
G1 X145.911 Y103.292 E0.01705
G1 X148.676 Y106.057 E0.12383
G1 X148.500 Y106.275 E0.00888
G1 X148.423 Y106.342 E0.00324
G1 X145.373 Y103.292 E0.13658
G1 X144.834 Y103.292 E0.01705
G1 X148.100 Y106.557 E0.14623
G1 X147.916 Y106.633 E0.00628
G1 X147.691 Y106.687 E0.00734
G1 X144.296 Y103.292 E0.15205
G1 X143.757 Y103.292 E0.01705
G1 X147.174 Y106.708 E0.15300
G1 X146.635 Y106.708 E0.01705
G1 X143.218 Y103.292 E0.15300
G1 X142.680 Y103.292 E0.01705
G1 X146.096 Y106.708 E0.15300
G1 X145.558 Y106.708 E0.01705
G1 X142.141 Y103.292 E0.15300
G1 X141.603 Y103.292 E0.01705
G1 X145.019 Y106.708 E0.15300
G1 X144.481 Y106.708 E0.01705
G1 X141.064 Y103.292 E0.15300
G1 X140.526 Y103.292 E0.01705
G1 X143.942 Y106.708 E0.15300
G1 X143.404 Y106.708 E0.01705
G1 X139.987 Y103.292 E0.15300
G1 X139.449 Y103.292 E0.01705
G1 X142.865 Y106.708 E0.15300
G1 X142.326 Y106.708 E0.01705
G1 X138.910 Y103.292 E0.15300
G1 X138.371 Y103.292 E0.01705
G1 X141.788 Y106.708 E0.15300
G1 X141.249 Y106.708 E0.01705
G1 X137.833 Y103.292 E0.15300
G1 X137.294 Y103.292 E0.01705
G1 X140.711 Y106.708 E0.15300
G1 X140.172 Y106.708 E0.01705
G1 X136.756 Y103.292 E0.15300
G1 X136.217 Y103.292 E0.01705
G1 X139.634 Y106.708 E0.15300
G1 X139.095 Y106.708 E0.01705
G1 X135.679 Y103.292 E0.15300
G1 X135.140 Y103.292 E0.01705
G1 X138.557 Y106.708 E0.15300
G1 X138.018 Y106.708 E0.01705
G1 X134.601 Y103.292 E0.15300
G1 X134.063 Y103.292 E0.01705
G1 X137.479 Y106.708 E0.15300
G1 X136.941 Y106.708 E0.01705
G1 X133.524 Y103.292 E0.15300
G1 X132.986 Y103.292 E0.01705
G1 X136.402 Y106.708 E0.15300
G1 X135.864 Y106.708 E0.01705
G1 X132.447 Y103.292 E0.15300
G1 X131.909 Y103.292 E0.01705
G1 X135.325 Y106.708 E0.15300
G1 X134.787 Y106.708 E0.01705
G1 X131.370 Y103.292 E0.15300
G1 X130.832 Y103.292 E0.01705
G1 X134.248 Y106.708 E0.15300
G1 X133.709 Y106.708 E0.01705
G1 X130.293 Y103.292 E0.15300
G1 X129.754 Y103.292 E0.01705
G1 X133.171 Y106.708 E0.15300
G1 X132.632 Y106.708 E0.01705
G1 X129.216 Y103.292 E0.15300
G1 X128.677 Y103.292 E0.01705
G1 X132.094 Y106.708 E0.15300
G1 X131.555 Y106.708 E0.01705
G1 X128.139 Y103.292 E0.15300
G1 X127.600 Y103.292 E0.01705
G1 X131.017 Y106.708 E0.15300
G1 X130.478 Y106.708 E0.01705
G1 X127.062 Y103.292 E0.15300
G1 X126.523 Y103.292 E0.01705
G1 X129.940 Y106.708 E0.15300
G1 X129.401 Y106.708 E0.01705
G1 X125.985 Y103.292 E0.15300
G1 X125.446 Y103.292 E0.01705
G1 X128.862 Y106.708 E0.15300
G1 X128.324 Y106.708 E0.01705
G1 X124.907 Y103.292 E0.15300
G1 X124.369 Y103.292 E0.01705
G1 X127.785 Y106.708 E0.15300
G1 X127.247 Y106.708 E0.01705
G1 X123.830 Y103.292 E0.15300
G1 X123.292 Y103.292 E0.01705
G1 X126.708 Y106.708 E0.15300
M73 Q1 S77
G1 X126.170 Y106.708 E0.01705
G1 X122.753 Y103.292 E0.15300
M73 P1 R77
G1 X122.215 Y103.292 E0.01705
G1 X125.631 Y106.708 E0.15300
G1 X125.093 Y106.708 E0.01705
G1 X121.676 Y103.292 E0.15300
M73 P1 R76
G1 X121.137 Y103.292 E0.01705
G1 X124.554 Y106.708 E0.15300
G1 X124.015 Y106.708 E0.01705
G1 X120.599 Y103.292 E0.15300
G1 X120.060 Y103.292 E0.01705
G1 X123.477 Y106.708 E0.15300
G1 X122.938 Y106.708 E0.01705
G1 X119.522 Y103.292 E0.15300
G1 X118.983 Y103.292 E0.01705
G1 X122.400 Y106.708 E0.15300
G1 X121.861 Y106.708 E0.01705
G1 X118.445 Y103.292 E0.15300
G1 X117.906 Y103.292 E0.01705
G1 X121.323 Y106.708 E0.15300
G1 X120.784 Y106.708 E0.01705
G1 X117.368 Y103.292 E0.15300
G1 X116.829 Y103.292 E0.01705
G1 X120.245 Y106.708 E0.15300
G1 X119.707 Y106.708 E0.01705
G1 X116.290 Y103.292 E0.15300
G1 X115.752 Y103.292 E0.01705
G1 X119.168 Y106.708 E0.15300
G1 X118.630 Y106.708 E0.01705
G1 X115.213 Y103.292 E0.15300
G1 X114.675 Y103.292 E0.01705
G1 X118.091 Y106.708 E0.15300
G1 X117.553 Y106.708 E0.01705
G1 X114.136 Y103.292 E0.15300
G1 X113.598 Y103.292 E0.01705
G1 X117.014 Y106.708 E0.15300
G1 X116.476 Y106.708 E0.01705
G1 X113.059 Y103.292 E0.15300
G1 X112.520 Y103.292 E0.01705
G1 X115.937 Y106.708 E0.15300
G1 X115.398 Y106.708 E0.01705
G1 X111.982 Y103.292 E0.15300
G1 X111.443 Y103.292 E0.01705
G1 X114.860 Y106.708 E0.15300
G1 X114.321 Y106.708 E0.01705
G1 X110.905 Y103.292 E0.15300
G1 X110.366 Y103.292 E0.01705
G1 X113.783 Y106.708 E0.15300
G1 X113.244 Y106.708 E0.01705
G1 X109.828 Y103.292 E0.15300
G1 X109.289 Y103.292 E0.01705
G1 X112.706 Y106.708 E0.15300
G1 X112.167 Y106.708 E0.01705
G1 X108.751 Y103.292 E0.15300
G1 X108.212 Y103.292 E0.01705
G1 X111.628 Y106.708 E0.15300
G1 X111.090 Y106.708 E0.01705
G1 X107.673 Y103.292 E0.15300
G1 X107.135 Y103.292 E0.01705
G1 X110.551 Y106.708 E0.15300
G1 X110.013 Y106.708 E0.01705
G1 X106.596 Y103.292 E0.15300
G1 X106.058 Y103.292 E0.01705
G1 X109.474 Y106.708 E0.15300
G1 X108.936 Y106.708 E0.01705
G1 X105.519 Y103.292 E0.15300
G1 X104.981 Y103.292 E0.01705
G1 X108.397 Y106.708 E0.15300
G1 X107.859 Y106.708 E0.01705
G1 X104.442 Y103.292 E0.15300
G1 X103.904 Y103.292 E0.01705
G1 X107.320 Y106.708 E0.15300
G1 X106.781 Y106.708 E0.01705
G1 X103.365 Y103.292 E0.15300
G1 X102.826 Y103.292 E0.01705
G1 X106.243 Y106.708 E0.15300
G1 X105.704 Y106.708 E0.01705
G1 X102.309 Y103.313 E0.15204
G1 X102.084 Y103.367 E0.00734
G1 X101.900 Y103.443 E0.00628
G1 X105.166 Y106.708 E0.14623
G1 X104.627 Y106.708 E0.01705
G1 X101.577 Y103.658 E0.13658
G1 X101.500 Y103.725 E0.00323
G1 X101.324 Y103.943 E0.00889
G1 X104.089 Y106.708 E0.12382
G1 X103.550 Y106.708 E0.01705
G1 X101.144 Y104.303 E0.10773
G1 X101.088 Y104.532 E0.00749
G1 X101.070 Y104.766 E0.00743
G1 X103.012 Y106.708 E0.08696
G1 X102.464 Y106.699 E0.01734
G1 X101.076 Y105.311 E0.06216
G1 X101.088 Y105.468 E0.00497
G1 X101.142 Y105.691 E0.00729
G1 X101.230 Y105.904 E0.00729
G1 X101.350 Y106.100 E0.00729
G1 X101.489 Y106.263 E0.00678
G1 X102.014 Y106.788 E0.02351
; stop printing object wallet_key.STL id:1 copy 0
; printing object ridge_wallet_inner_m.STL id:0 copy 0
;WIPE_START
G1 F8640.000
G1 X101.489 Y106.263 E-0.17144
G1 X101.350 Y106.100 E-0.04943
G1 X101.230 Y105.904 E-0.05315
G1 X101.142 Y105.691 E-0.05315
G1 X101.088 Y105.468 E-0.05315
G1 X101.076 Y105.311 E-0.03625
G1 X102.128 Y106.363 E-0.34345
;WIPE_END
G1 E-0.04000 F2100.000
G1 Z0.600 F10800.000
G1 X159.340 Y91.725
G1 Z0.200
G1 E0.80000 F2100.000
;TYPE:External perimeter
;WIDTH:0.42
G1 F1200.000
G1 X161.193 Y88.515 E0.11622
G1 X164.900 Y88.515 E0.11622
G1 X166.753 Y91.725 E0.11622
G1 X164.900 Y94.935 E0.11622
G1 X161.193 Y94.935 E0.11622
G1 X159.370 Y91.777 E0.11434
G1 X158.994 Y91.525 F10800.000
;WIPE_START
G1 F8640.000
G1 X160.976 Y88.904 E-0.76000
;WIPE_END
G1 E-0.04000 F2100.000
G1 Z0.600 F10800.000
G1 X161.193 Y49.850
G1 Z0.200
G1 E0.80000 F2100.000
G1 F1200.000
G1 X159.340 Y46.640 E0.11622
G1 X160.855 Y44.017 E0.09497
G1 X161.194 Y43.430 E0.02125
G1 X164.900 Y43.431 E0.11622
G1 X166.753 Y46.641 E0.11622
G1 X164.900 Y49.851 E0.11622
G1 X161.253 Y49.850 E0.11434
G1 X160.847 Y50.050 F10800.000
;WIPE_START
G1 F8640.000
G1 X159.568 Y47.023 E-0.76000
;WIPE_END
G1 E-0.04000 F2100.000
G1 Z0.600 F10800.000
G1 X114.627 Y88.134
G1 Z0.200
G1 E0.80000 F2100.000
;TYPE:Perimeter
G1 F1200.000
G1 X116.706 Y91.716 E0.12987
G1 X114.644 Y95.308 E0.12987
G1 X110.502 Y95.317 E0.12987
G1 X108.422 Y91.735 E0.12987
G1 X110.485 Y88.143 E0.12987
G1 X114.567 Y88.134 E0.12799
G1 X114.410 Y88.511 F10800.000
;TYPE:External perimeter
G1 F1200.000
G1 X116.271 Y91.717 E0.11622
G1 X114.425 Y94.931 E0.11622
G1 X110.718 Y94.940 E0.11622
G1 X108.858 Y91.734 E0.11622
G1 X110.703 Y88.520 E0.11622
G1 X114.350 Y88.511 E0.11434
G1 X114.756 Y88.310 F10800.000
;WIPE_START
G1 F8640.000
G1 X116.042 Y91.335 E-0.76000
;WIPE_END
G1 E-0.04000 F2100.000
G1 Z0.600 F10800.000
G1 X130.331 Y91.838
G1 Z0.200
G1 E0.80000 F2100.000
;TYPE:Perimeter
G1 F1200.000
G1 X132.304 Y88.196 E0.12987
G1 X136.445 Y88.083 E0.12987
G1 X138.612 Y91.613 E0.12987
G1 X136.639 Y95.255 E0.12987
G1 X132.499 Y95.367 E0.12987
G1 X130.363 Y91.889 E0.12799
G1 X130.766 Y91.826 F10800.000
;TYPE:External perimeter
G1 F1200.000
G1 X132.532 Y88.567 E0.11622
G1 X136.237 Y88.466 E0.11622
G1 X138.177 Y91.625 E0.11622
G1 X136.411 Y94.884 E0.11622
G1 X132.706 Y94.984 E0.11622
G1 X130.798 Y91.877 E0.11434
G1 X130.415 Y91.635 F10800.000
;WIPE_START
G1 F8640.000
G1 X132.325 Y88.961 E-0.76000
;WIPE_END
G1 E-0.04000 F2100.000
G1 Z0.600 F10800.000
G1 X126.399 Y50.218
G1 Z0.200
G1 E0.80000 F2100.000
;TYPE:Perimeter
G1 F1200.000
G1 X122.257 Y50.237 E0.12987
G1 X120.170 Y46.659 E0.12987
G1 X122.225 Y43.063 E0.12987
G1 X126.367 Y43.044 E0.12987
G1 X128.454 Y46.622 E0.12987
G1 X126.429 Y50.166 E0.12799
G1 X126.179 Y49.842 F10800.000
;TYPE:External perimeter
G1 F1200.000
G1 X122.473 Y49.859 E0.11622
G1 X120.605 Y46.657 E0.11622
G1 X122.444 Y43.439 E0.11622
G1 X126.151 Y43.422 E0.11622
G1 X128.018 Y46.624 E0.11622
G1 X126.209 Y49.790 E0.11434
G1 X126.181 Y50.242 F10800.000
;WIPE_START
G1 F8640.000
G1 X122.918 Y49.851 E-0.76000
;WIPE_END
G1 E-0.04000 F2100.000
G1 Z0.600 F10800.000
G1 X165.118 Y43.053
G1 Z0.200
G1 E0.80000 F2100.000
;TYPE:Perimeter
G1 F1200.000
G1 X160.976 Y43.053 E0.12987
G1 X158.905 Y46.640 E0.12987
G1 X160.975 Y50.227 E0.12987
G1 X165.117 Y50.228 E0.12987
G1 X167.022 Y46.929 E0.11942
G1 X167.022 Y91.437 E1.39551
G1 X165.118 Y88.138 E0.11942
G1 X160.976 Y88.138 E0.12987
G1 X158.905 Y91.725 E0.12987
M73 Q1 S76
G1 X160.976 Y95.312 E0.12987
G1 X165.118 Y95.312 E0.12987
G1 X167.022 Y92.014 E0.11942
G1 X167.011 Y95.099 E0.09673
G1 X166.942 Y95.310 E0.00697
G1 X166.812 Y95.490 E0.00697
G1 X166.727 Y95.563 E0.00350
G1 X166.529 Y95.664 E0.00697
G1 X166.278 Y95.701 E0.00794
G1 X159.903 Y95.701 E0.19990
G1 X159.625 Y95.659 E0.00880
G1 X159.403 Y95.546 E0.00783
G1 X159.307 Y95.465 E0.00393
G1 X159.161 Y95.263 E0.00783
G1 X159.083 Y95.024 E0.00786
G1 X158.933 Y93.203 E0.05730
G1 X158.515 Y91.551 E0.05342
