; generated by PrusaSlicer 2.3.3+win64 on 2021-10-06 at 03:21:38 UTC

; 

; external perimeters extrusion width = 0.45mm
; perimeters extrusion width = 0.45mm
; infill extrusion width = 0.45mm
; solid infill extrusion width = 0.45mm
; top infill extrusion width = 0.40mm
; support material extrusion width = 0.35mm
; first layer extrusion width = 0.42mm

M73 P0 R78
M73 Q0 S78
M201 X1000 Y1000 Z200 E5000 ; sets maximum accelerations, mm/sec^2
M203 X200 Y200 Z12 E120 ; sets maximum feedrates, mm/sec
M204 P1250 R1250 T1250 ; sets acceleration (P, T) and retract acceleration (R), mm/sec^2
M205 X8.00 Y8.00 Z0.40 E4.50 ; sets the jerk limits, mm/sec
M205 S0 T0 ; sets the minimum extruding and travel feed rate, mm/sec
M107
;TYPE:Custom
M862.3 P "MK3S" ; printer model check
M862.1 P0.4 ; nozzle diameter check
M115 U3.10.0 ; tell printer latest fw version
G90 ; use absolute coordinates
M83 ; extruder relative mode
M104 S215 ; set extruder temp
M140 S60 ; set bed temp
M190 S60 ; wait for bed temp
M109 S215 ; wait for extruder temp
G28 W ; home all without mesh bed level
G80 ; mesh bed leveling
G1 Y-3.0 F1000.0 ; go outside print area
G92 E0.0
G1 X60.0 E9.0 F1000.0 ; intro line
G1 X100.0 E12.5 F1000.0 ; intro line
G92 E0.0
M221 S95

; Don't change E values below. Excessive value can damage the printer.
M907 E430 ; set extruder motor current
G21 ; set units to millimeters
G90 ; use absolute coordinates
M83 ; use relative distances for extrusion
M900 K0.05 ; Filament gcode LA 1.5
M900 K30 ; Filament gcode LA 1.0
;LAYER_CHANGE
;Z:0.2
;HEIGHT:0.2
;BEFORE_LAYER_CHANGE
G92 E0.0
;0.2


G1 E-0.80000 F2100.000
G1 Z0.400 F10800.000
;AFTER_LAYER_CHANGE
;0.2
G1 X23.219 Y126.231
G1 Z0.200
G1 E0.80000 F2100.000
M204 S1000
;TYPE:Skirt
;WIDTH:0.42
G1 F1200.000
G1 X24.373 Y126.049 E0.03662
G1 X108.391 Y126.049 E2.63432
G1 X109.596 Y126.243 E0.03827
G1 X185.445 Y151.786 E2.50945
M73 P0 R77
G1 X186.511 Y152.329 E0.03749
G1 X187.163 Y152.851 E0.02620
G1 X187.751 Y153.523 E0.02799
G1 X188.211 Y154.306 E0.02847
G1 X188.589 Y155.463 E0.03816
G1 X188.681 Y156.309 E0.02668
G1 X188.632 Y157.589 E0.04017
G1 X188.384 Y158.561 E0.03144
G1 X187.824 Y159.654 E0.03852
G1 X187.219 Y160.381 E0.02966
G1 X186.161 Y161.170 E0.04136
G1 X185.311 Y161.549 E0.02918
G1 X108.974 Y185.368 E2.50730
G1 X24.346 Y185.413 E2.65347
G1 X23.355 Y185.269 E0.03141
G1 X22.591 Y184.969 E0.02572
G1 X21.759 Y184.379 E0.03199
G1 X21.201 Y183.736 E0.02668
G1 X20.699 Y182.716 E0.03567
G1 X20.515 Y181.566 E0.03650
G1 X20.515 Y129.884 E1.62046
G1 X20.658 Y128.889 E0.03152
G1 X20.958 Y128.125 E0.02573
G1 X21.554 Y127.287 E0.03223
G1 X22.197 Y126.731 E0.02668
G1 X23.165 Y126.257 E0.03379
; printing object wallet_key.STL id:1 copy 0
;WIPE_START
G1 F8640.000
G1 X24.373 Y126.049 E-0.28293
G1 X26.439 Y126.049 E-0.47707
;WIPE_END
G1 E-0.04000 F2100.000
G1 Z0.600 F10800.000
G1 X137.175 Y155.863
G1 Z0.200
G1 E0.80000 F2100.000
;TYPE:Perimeter
G1 F1200.000
G1 X137.280 Y155.610 E0.00861
G1 X137.424 Y155.375 E0.00861
G1 X137.602 Y155.166 E0.00861
G1 X137.805 Y154.993 E0.00835
G1 X138.046 Y154.844 E0.00890
G1 X138.299 Y154.739 E0.00858
G1 X138.566 Y154.675 E0.00861
G1 X138.871 Y154.651 E0.00959
G1 X183.735 Y154.651 E1.40669
G1 X184.032 Y154.675 E0.00933
G1 X184.308 Y154.740 E0.00890
G1 X184.561 Y154.845 E0.00858
G1 X184.795 Y154.988 E0.00861
G1 X185.004 Y155.166 E0.00861
G1 X185.182 Y155.375 E0.00861
G1 X185.326 Y155.610 E0.00861
G1 X185.431 Y155.863 E0.00861
G1 X185.495 Y156.130 E0.00861
G1 X185.519 Y156.435 E0.00959
G1 X185.519 Y156.850 E0.01299
G1 X185.495 Y157.154 E0.00959
G1 X185.431 Y157.421 E0.00861
G1 X185.326 Y157.675 E0.00861
G1 X185.182 Y157.909 E0.00861
G1 X185.004 Y158.118 E0.00861
G1 X184.795 Y158.297 E0.00861
G1 X184.561 Y158.440 E0.00861
G1 X184.307 Y158.545 E0.00861
G1 X184.040 Y158.609 E0.00861
G1 X183.735 Y158.633 E0.00959
G1 X138.871 Y158.633 E1.40669
G1 X138.566 Y158.609 E0.00959
G1 X138.299 Y158.545 E0.00861
G1 X138.045 Y158.440 E0.00861
G1 X137.811 Y158.297 E0.00861
G1 X137.602 Y158.118 E0.00861
G1 X137.424 Y157.909 E0.00861
G1 X137.280 Y157.675 E0.00861
G1 X137.175 Y157.421 E0.00861
G1 X137.111 Y157.154 E0.00861
G1 X137.087 Y156.850 E0.00959
G1 X137.087 Y156.435 E0.01299
G1 X137.111 Y156.130 E0.00959
G1 X137.161 Y155.922 E0.00673
G1 X136.815 Y155.746 F10800.000
;TYPE:External perimeter
G1 F1200.000
G1 X136.943 Y155.438 E0.01047
G1 X137.118 Y155.153 E0.01047
G1 X137.335 Y154.899 E0.01047
G1 X137.582 Y154.688 E0.01019
G1 X137.874 Y154.507 E0.01076
G1 X138.182 Y154.380 E0.01046
G1 X138.507 Y154.302 E0.01047
G1 X138.856 Y154.274 E0.01098
G1 X183.750 Y154.274 E1.40762
G1 X184.090 Y154.301 E0.01070
G1 X184.424 Y154.380 E0.01076
G1 X184.733 Y154.508 E0.01046
G1 X185.018 Y154.682 E0.01047
G1 X185.272 Y154.899 E0.01047
G1 X185.488 Y155.153 E0.01047
G1 X185.663 Y155.438 E0.01047
G1 X185.791 Y155.746 E0.01047
G1 X185.869 Y156.071 E0.01047
G1 X185.896 Y156.420 E0.01098
G1 X185.896 Y156.864 E0.01392
G1 X185.869 Y157.214 E0.01098
G1 X185.791 Y157.538 E0.01047
G1 X185.663 Y157.847 E0.01047
G1 X185.488 Y158.132 E0.01047
G1 X185.272 Y158.386 E0.01047
G1 X185.018 Y158.603 E0.01047
G1 X184.733 Y158.777 E0.01047
G1 X184.424 Y158.905 E0.01047
G1 X184.099 Y158.983 E0.01047
G1 X183.750 Y159.011 E0.01098
G1 X138.856 Y159.011 E1.40762
G1 X138.507 Y158.983 E0.01098
G1 X138.182 Y158.905 E0.01047
G1 X137.874 Y158.777 E0.01047
G1 X137.589 Y158.603 E0.01047
G1 X137.335 Y158.386 E0.01047
G1 X137.118 Y158.132 E0.01047
G1 X136.943 Y157.847 E0.01047
G1 X136.815 Y157.538 E0.01047
G1 X136.738 Y157.214 E0.01047
G1 X136.710 Y156.864 E0.01098
G1 X136.710 Y156.420 E0.01392
G1 X136.738 Y156.071 E0.01098
G1 X136.801 Y155.805 E0.00859
G1 X137.142 Y155.677 F10800.000
;WIPE_START
G1 F8640.000
G1 X136.943 Y155.438 E-0.09084
G1 X137.118 Y155.153 E-0.07713
G1 X137.335 Y154.899 E-0.07713
G1 X137.582 Y154.688 E-0.07506
G1 X137.874 Y154.507 E-0.07927
G1 X138.182 Y154.380 E-0.07704
G1 X138.507 Y154.302 E-0.07713
G1 X138.856 Y154.274 E-0.08086
G1 X139.400 Y154.274 E-0.12555
;WIPE_END
G1 E-0.04000 F2100.000
G1 Z0.600 F10800.000
G1 X184.289 Y154.854
G1 Z0.200
G1 E0.80000 F2100.000
;TYPE:Solid infill
;WIDTH:0.42374
G1 F1200.000
G1 X184.815 Y155.380 E0.02355
G1 X184.953 Y155.542 E0.00675
G1 X185.073 Y155.738 E0.00729
G1 X185.161 Y155.951 E0.00729
G1 X185.215 Y156.175 E0.00729
G1 X185.227 Y156.331 E0.00497
G1 X183.839 Y154.943 E0.06217
G1 X183.292 Y154.934 E0.01734
G1 X185.233 Y156.876 E0.08696
G1 X185.215 Y157.110 E0.00743
G1 X185.159 Y157.340 E0.00750
G1 X182.753 Y154.934 E0.10773
G1 X182.214 Y154.934 E0.01705
G1 X184.980 Y157.699 E0.12383
G1 X184.803 Y157.918 E0.00888
G1 X184.726 Y157.984 E0.00324
G1 X181.676 Y154.934 E0.13658
G1 X181.137 Y154.934 E0.01705
G1 X184.403 Y158.200 E0.14623
G1 X184.220 Y158.276 E0.00628
G1 X183.994 Y158.329 E0.00734
G1 X180.599 Y154.934 E0.15205
G1 X180.060 Y154.934 E0.01705
G1 X183.477 Y158.351 E0.15300
G1 X182.938 Y158.351 E0.01705
G1 X179.522 Y154.934 E0.15300
G1 X178.983 Y154.934 E0.01705
G1 X182.400 Y158.351 E0.15300
G1 X181.861 Y158.351 E0.01705
G1 X178.444 Y154.934 E0.15300
G1 X177.906 Y154.934 E0.01705
G1 X181.322 Y158.351 E0.15300
G1 X180.784 Y158.351 E0.01705
G1 X177.367 Y154.934 E0.15300
G1 X176.829 Y154.934 E0.01705
G1 X180.245 Y158.351 E0.15300
G1 X179.707 Y158.351 E0.01705
G1 X176.290 Y154.934 E0.15300
G1 X175.752 Y154.934 E0.01705
G1 X179.168 Y158.351 E0.15300
G1 X178.630 Y158.351 E0.01705
G1 X175.213 Y154.934 E0.15300
G1 X174.675 Y154.934 E0.01705
G1 X178.091 Y158.351 E0.15300
G1 X177.552 Y158.351 E0.01705
G1 X174.136 Y154.934 E0.15300
G1 X173.597 Y154.934 E0.01705
G1 X177.014 Y158.351 E0.15300
G1 X176.475 Y158.351 E0.01705
G1 X173.059 Y154.934 E0.15300
G1 X172.520 Y154.934 E0.01705
G1 X175.937 Y158.351 E0.15300
G1 X175.398 Y158.351 E0.01705
G1 X171.982 Y154.934 E0.15300
M73 Q0 S77
G1 X171.443 Y154.934 E0.01705
G1 X174.860 Y158.351 E0.15300
M73 Q1 S77
G1 X174.321 Y158.351 E0.01705
G1 X170.905 Y154.934 E0.15300
G1 X170.366 Y154.934 E0.01705
G1 X173.783 Y158.351 E0.15300
M73 P1 R77
G1 X173.244 Y158.351 E0.01705
G1 X169.828 Y154.934 E0.15300
G1 X169.289 Y154.934 E0.01705
G1 X172.705 Y158.351 E0.15300
G1 X172.167 Y158.351 E0.01705
G1 X168.750 Y154.934 E0.15300
G1 X168.212 Y154.934 E0.01705
G1 X171.628 Y158.351 E0.15300
G1 X171.090 Y158.351 E0.01705
G1 X167.673 Y154.934 E0.15300
G1 X167.135 Y154.934 E0.01705
G1 X170.551 Y158.351 E0.15300
G1 X170.013 Y158.351 E0.01705
G1 X166.596 Y154.934 E0.15300
G1 X166.058 Y154.934 E0.01705
G1 X169.474 Y158.351 E0.15300
G1 X168.936 Y158.351 E0.01705
G1 X165.519 Y154.934 E0.15300
G1 X164.980 Y154.934 E0.01705
G1 X168.397 Y158.351 E0.15300
G1 X167.858 Y158.351 E0.01705
G1 X164.442 Y154.934 E0.15300
G1 X163.903 Y154.934 E0.01705
G1 X167.320 Y158.351 E0.15300
G1 X166.781 Y158.351 E0.01705
G1 X163.365 Y154.934 E0.15300
G1 X162.826 Y154.934 E0.01705
G1 X166.243 Y158.351 E0.15300
G1 X165.704 Y158.351 E0.01705
G1 X162.288 Y154.934 E0.15300
G1 X161.749 Y154.934 E0.01705
G1 X165.166 Y158.351 E0.15300
G1 X164.627 Y158.351 E0.01705
G1 X161.211 Y154.934 E0.15300
G1 X160.672 Y154.934 E0.01705
G1 X164.088 Y158.351 E0.15300
G1 X163.550 Y158.351 E0.01705
G1 X160.133 Y154.934 E0.15300
G1 X159.595 Y154.934 E0.01705
G1 X163.011 Y158.351 E0.15300
G1 X162.473 Y158.351 E0.01705
G1 X159.056 Y154.934 E0.15300
G1 X158.518 Y154.934 E0.01705
G1 X161.934 Y158.351 E0.15300
G1 X161.396 Y158.351 E0.01705
G1 X157.979 Y154.934 E0.15300
G1 X157.441 Y154.934 E0.01705
G1 X160.857 Y158.351 E0.15300
G1 X160.319 Y158.351 E0.01705
G1 X156.902 Y154.934 E0.15300
G1 X156.363 Y154.934 E0.01705
G1 X159.780 Y158.351 E0.15300
G1 X159.241 Y158.351 E0.01705
G1 X155.825 Y154.934 E0.15300
G1 X155.286 Y154.934 E0.01705
G1 X158.703 Y158.351 E0.15300
G1 X158.164 Y158.351 E0.01705
G1 X154.748 Y154.934 E0.15300
G1 X154.209 Y154.934 E0.01705
G1 X157.626 Y158.351 E0.15300
G1 X157.087 Y158.351 E0.01705
G1 X153.671 Y154.934 E0.15300
G1 X153.132 Y154.934 E0.01705
G1 X156.549 Y158.351 E0.15300
G1 X156.010 Y158.351 E0.01705
G1 X152.594 Y154.934 E0.15300
G1 X152.055 Y154.934 E0.01705
G1 X155.472 Y158.351 E0.15300
G1 X154.933 Y158.351 E0.01705
G1 X151.516 Y154.934 E0.15300
G1 X150.978 Y154.934 E0.01705
G1 X154.394 Y158.351 E0.15300
G1 X153.856 Y158.351 E0.01705
G1 X150.439 Y154.934 E0.15300
G1 X149.901 Y154.934 E0.01705
G1 X153.317 Y158.351 E0.15300
G1 X152.779 Y158.351 E0.01705
G1 X149.362 Y154.934 E0.15300
G1 X148.824 Y154.934 E0.01705
G1 X152.240 Y158.351 E0.15300
G1 X151.702 Y158.351 E0.01705
G1 X148.285 Y154.934 E0.15300
G1 X147.747 Y154.934 E0.01705
G1 X151.163 Y158.351 E0.15300
G1 X150.624 Y158.351 E0.01705
G1 X147.208 Y154.934 E0.15300
G1 X146.669 Y154.934 E0.01705
G1 X150.086 Y158.351 E0.15300
G1 X149.547 Y158.351 E0.01705
G1 X146.131 Y154.934 E0.15300
G1 X145.592 Y154.934 E0.01705
G1 X149.009 Y158.351 E0.15300
G1 X148.470 Y158.351 E0.01705
G1 X145.054 Y154.934 E0.15300
G1 X144.515 Y154.934 E0.01705
G1 X147.932 Y158.351 E0.15300
G1 X147.393 Y158.351 E0.01705
G1 X143.977 Y154.934 E0.15300
G1 X143.438 Y154.934 E0.01705
G1 X146.855 Y158.351 E0.15300
G1 X146.316 Y158.351 E0.01705
G1 X142.899 Y154.934 E0.15300
G1 X142.361 Y154.934 E0.01705
G1 X145.777 Y158.351 E0.15300
G1 X145.239 Y158.351 E0.01705
G1 X141.822 Y154.934 E0.15300
G1 X141.284 Y154.934 E0.01705
G1 X144.700 Y158.351 E0.15300
G1 X144.162 Y158.351 E0.01705
G1 X140.745 Y154.934 E0.15300
G1 X140.207 Y154.934 E0.01705
G1 X143.623 Y158.351 E0.15300
G1 X143.085 Y158.351 E0.01705
G1 X139.668 Y154.934 E0.15300
G1 X139.130 Y154.934 E0.01705
G1 X142.546 Y158.351 E0.15300
G1 X142.007 Y158.351 E0.01705
G1 X138.612 Y154.955 E0.15204
G1 X138.387 Y155.009 E0.00734
G1 X138.203 Y155.085 E0.00628
G1 X141.469 Y158.351 E0.14623
G1 X140.930 Y158.351 E0.01705
G1 X137.880 Y155.301 E0.13658
G1 X137.803 Y155.367 E0.00323
G1 X137.627 Y155.586 E0.00889
G1 X140.392 Y158.351 E0.12382
G1 X139.853 Y158.351 E0.01705
G1 X137.448 Y155.945 E0.10773
G1 X137.391 Y156.175 E0.00749
G1 X137.373 Y156.409 E0.00743
G1 X139.315 Y158.351 E0.08696
G1 X138.767 Y158.342 E0.01734
G1 X137.379 Y156.953 E0.06216
G1 X137.391 Y157.110 E0.00497
G1 X137.445 Y157.334 E0.00729
G1 X137.533 Y157.546 E0.00729
G1 X137.653 Y157.743 E0.00729
G1 X137.792 Y157.905 E0.00678
G1 X138.317 Y158.430 E0.02351
; stop printing object wallet_key.STL id:1 copy 0
; printing object ridge_wallet_inner.STL id:0 copy 0
;WIPE_START
G1 F8640.000
G1 X137.792 Y157.905 E-0.17144
G1 X137.653 Y157.743 E-0.04943
G1 X137.533 Y157.546 E-0.05315
G1 X137.445 Y157.334 E-0.05315
G1 X137.391 Y157.110 E-0.05315
G1 X137.379 Y156.953 E-0.03625
G1 X138.431 Y158.005 E-0.34345
;WIPE_END
G1 E-0.04000 F2100.000
G1 Z0.600 F10800.000
G1 X70.531 Y178.292
G1 Z0.200
G1 E0.80000 F2100.000
;TYPE:Perimeter
;WIDTH:0.42
G1 F1200.000
G1 X68.444 Y181.870 E0.12987
G1 X64.302 Y181.851 E0.12987
G1 X62.247 Y178.255 E0.12987
G1 X64.334 Y174.677 E0.12987
G1 X68.476 Y174.696 E0.12987
G1 X70.501 Y178.240 E0.12799
G1 X70.096 Y178.290 F10800.000
;TYPE:External perimeter
G1 F1200.000
G1 X68.228 Y181.492 E0.11622
G1 X64.521 Y181.475 E0.11622
G1 X62.683 Y178.257 E0.11622
G1 X64.550 Y175.055 E0.11622
G1 X68.257 Y175.072 E0.11622
G1 X70.066 Y178.238 E0.11434
G1 X70.441 Y178.492 F10800.000
;WIPE_START
G1 F8640.000
G1 X68.447 Y181.104 E-0.76000
;WIPE_END
G1 E-0.04000 F2100.000
G1 Z0.600 F10800.000
G1 X74.382 Y136.718
G1 Z0.200
G1 E0.80000 F2100.000
;TYPE:Perimeter
G1 F1200.000
G1 X72.409 Y133.076 E0.12987
G1 X74.108 Y130.310 E0.10180
G1 X74.576 Y129.547 E0.02807
G1 X78.717 Y129.659 E0.12987
G1 X80.690 Y133.301 E0.12987
G1 X78.522 Y136.830 E0.12987
G1 X74.442 Y136.720 E0.12799
G1 X74.610 Y136.347 F10800.000
;TYPE:External perimeter
G1 F1200.000
G1 X72.844 Y133.088 E0.11622
G1 X74.784 Y129.929 E0.11622
G1 X78.489 Y130.030 E0.11622
G1 X80.254 Y133.289 E0.11622
G1 X78.315 Y136.448 E0.11622
G1 X74.670 Y136.349 E0.11434
G1 X74.258 Y136.538 F10800.000
;WIPE_START
G1 F8640.000
G1 X73.062 Y133.477 E-0.76000
;WIPE_END
G1 E-0.04000 F2100.000
G1 Z0.600 F10800.000
G1 X58.784 Y133.198
G1 Z0.200
G1 E0.80000 F2100.000
;TYPE:Perimeter
G1 F1200.000
G1 X56.704 Y136.780 E0.12987
G1 X52.562 Y136.771 E0.12987
G1 X50.500 Y133.179 E0.12987
G1 X52.579 Y129.597 E0.12987
G1 X56.721 Y129.606 E0.12987
G1 X58.754 Y133.146 E0.12799
G1 X58.348 Y133.197 F10800.000
;TYPE:External perimeter
G1 F1200.000
G1 X56.488 Y136.403 E0.11622
G1 X52.781 Y136.394 E0.11622
G1 X50.935 Y133.180 E0.11622
G1 X52.796 Y129.974 E0.11622
G1 X56.502 Y129.983 E0.11622
G1 X58.318 Y133.145 E0.11434
M73 P1 R76
G1 X58.694 Y133.398 F10800.000
;WIPE_START
G1 F8640.000
G1 X56.706 Y136.014 E-0.76000
;WIPE_END
G1 E-0.04000 F2100.000
G1 Z0.600 F10800.000
G1 X107.195 Y129.601
G1 Z0.200
G1 E0.80000 F2100.000
;TYPE:Perimeter
G1 F1200.000
G1 X103.053 Y129.601 E0.12987
G1 X100.982 Y133.189 E0.12987
G1 X103.053 Y136.776 E0.12987
G1 X107.195 Y136.776 E0.12987
G1 X109.100 Y133.477 E0.11942
G1 X109.100 Y177.985 E1.39551
G1 X107.195 Y174.686 E0.11942
G1 X103.053 Y174.687 E0.12987
G1 X100.982 Y178.274 E0.12987
G1 X103.053 Y181.861 E0.12987
G1 X107.195 Y181.860 E0.12987
G1 X109.100 Y178.562 E0.11942
G1 X109.088 Y181.647 E0.09674
G1 X109.020 Y181.859 E0.00697
G1 X108.889 Y182.038 E0.00697
G1 X108.804 Y182.111 E0.00350
G1 X108.606 Y182.212 E0.00697
G1 X108.356 Y182.249 E0.00794
G1 X24.423 Y182.249 E2.63167
G1 X24.281 Y182.238 E0.00447
G1 X24.069 Y182.169 E0.00697
G1 X23.889 Y182.038 E0.00697
G1 X23.817 Y181.954 E0.00350
G1 X23.716 Y181.756 E0.00697
G1 X23.679 Y181.505 E0.00794
G1 X23.679 Y178.538 E0.09304
G1 X25.558 Y181.846 E0.11930
G1 X29.700 Y181.875 E0.12987
G1 X31.796 Y178.302 E0.12987
G1 X29.750 Y174.701 E0.12987
G1 X25.608 Y174.672 E0.12987
G1 X23.679 Y177.961 E0.11955
G1 X23.679 Y133.463 E1.39521
G1 X25.568 Y136.767 E0.11935
G1 X29.710 Y136.784 E0.12987
G1 X31.796 Y133.206 E0.12987
G1 X29.740 Y129.610 E0.12987
G1 X25.598 Y129.593 E0.12987
G1 X23.679 Y132.886 E0.11950
G1 X23.690 Y129.815 E0.09628
G1 X23.759 Y129.603 E0.00697
G1 X23.889 Y129.424 E0.00697
G1 X23.974 Y129.351 E0.00350
G1 X24.172 Y129.250 E0.00697
G1 X24.423 Y129.213 E0.00794
G1 X79.849 Y129.225 E1.73786
G1 X79.971 Y129.255 E0.00393
G1 X80.193 Y129.368 E0.00783
