; generated by PrusaSlicer 2.3.3+win64 on 2021-10-07 at 13:08:38 UTC

; 

; external perimeters extrusion width = 0.45mm
; perimeters extrusion width = 0.45mm
; infill extrusion width = 0.45mm
; solid infill extrusion width = 0.45mm
; top infill extrusion width = 0.40mm
; support material extrusion width = 0.35mm
; first layer extrusion width = 0.42mm

M73 P0 R210
M73 Q0 S212
M201 X1000 Y1000 Z200 E5000 ; sets maximum accelerations, mm/sec^2
M203 X200 Y200 Z12 E120 ; sets maximum feedrates, mm/sec
M204 P1250 R1250 T1250 ; sets acceleration (P, T) and retract acceleration (R), mm/sec^2
M205 X8.00 Y8.00 Z0.40 E4.50 ; sets the jerk limits, mm/sec
M205 S0 T0 ; sets the minimum extruding and travel feed rate, mm/sec
M107
;TYPE:Custom
M862.3 P "MK3S" ; printer model check
M862.1 P0.4 ; nozzle diameter check
M115 U3.10.0 ; tell printer latest fw version
G90 ; use absolute coordinates
M83 ; extruder relative mode
M104 S215 ; set extruder temp
M140 S60 ; set bed temp
M190 S60 ; wait for bed temp
M109 S215 ; wait for extruder temp
G28 W ; home all without mesh bed level
G80 ; mesh bed leveling
G1 Y-3.0 F1000.0 ; go outside print area
G92 E0.0
G1 X60.0 E9.0 F1000.0 ; intro line
G1 X100.0 E12.5 F1000.0 ; intro line
G92 E0.0
M221 S95

; Don't change E values below. Excessive value can damage the printer.
M907 E430 ; set extruder motor current
G21 ; set units to millimeters
G90 ; use absolute coordinates
M83 ; use relative distances for extrusion
M900 K0.05 ; Filament gcode LA 1.5
M900 K30 ; Filament gcode LA 1.0
;LAYER_CHANGE
;Z:0.2
;HEIGHT:0.2
;BEFORE_LAYER_CHANGE
G92 E0.0
;0.2


G1 E-0.80000 F2100.000
G1 Z0.400 F10800.000
;AFTER_LAYER_CHANGE
;0.2
G1 X77.615 Y46.443
G1 Z0.200
G1 E0.80000 F2100.000
M204 S1000
;TYPE:Skirt
;WIDTH:0.42
G1 F1200.000
G1 X116.408 Y46.245 E1.21634
G1 X161.184 Y46.419 E1.40392
G1 X161.695 Y46.539 E0.01645
G1 X162.170 Y46.770 E0.01657
G1 X163.728 Y47.789 E0.05839
G1 X164.436 Y48.474 E0.03086
G1 X164.916 Y49.235 E0.02822
G1 X166.171 Y52.283 E0.10335
G1 X166.292 Y53.024 E0.02355
G1 X166.292 Y100.411 E1.48580
G1 X164.786 Y171.522 E2.23013
G1 X164.618 Y172.293 E0.02473
G1 X163.427 Y175.171 E0.09768
G1 X163.072 Y175.783 E0.02216
G1 X162.266 Y176.617 E0.03638
G1 X160.748 Y177.783 E0.06000
G1 X160.144 Y178.084 E0.02119
G1 X159.399 Y178.205 E0.02367
G1 X76.280 Y178.181 E2.60612
G1 X75.680 Y178.063 E0.01917
G1 X75.134 Y177.797 E0.01906
G1 X73.527 Y176.584 E0.06312
G1 X72.895 Y175.958 E0.02790
G1 X72.416 Y175.196 E0.02822
G1 X71.164 Y172.127 E0.10390
G1 X71.044 Y171.386 E0.02355
G1 X71.044 Y124.006 E1.48556
G1 X72.548 Y53.002 E2.22679
G1 X72.687 Y52.253 E0.02390
G1 X73.934 Y49.210 E0.10309
G1 X74.531 Y48.324 E0.03351
G1 X75.156 Y47.757 E0.02646
G1 X76.703 Y46.768 E0.05759
G1 X77.559 Y46.463 E0.02848
; printing object ridge_wallet_inner_m.STL id:1 copy 0
;WIPE_START
G1 F8640.000
G1 X80.850 Y46.444 E-0.76000
;WIPE_END
G1 E-0.04000 F2100.000
G1 Z0.600 F10800.000
G1 X77.941 Y49.158
G1 Z0.200
G1 E0.80000 F2100.000
;TYPE:Support material
G1 F1200.000
G1 X77.941 Y48.797 E0.01132
G1 X78.695 Y48.792 E0.02365
G1 X78.695 Y48.989 E0.00616
G1 X79.449 Y48.989 E0.02365
G1 X79.449 Y48.787 E0.00633
G1 X80.203 Y48.782 E0.02365
G1 X80.203 Y48.989 E0.00649
G1 X80.957 Y48.989 E0.02365
G1 X80.957 Y48.776 E0.00666
G1 X81.712 Y48.771 E0.02365
G1 X81.712 Y48.989 E0.00682
G1 X82.466 Y48.989 E0.02365
G1 X82.466 Y48.766 E0.00699
G1 X83.220 Y48.760 E0.02365
G1 X83.220 Y49.158 E0.01247
;WIPE_START
G1 F8640.000
G1 X83.220 Y48.760 E-0.09186
G1 X82.466 Y48.766 E-0.17414
G1 X82.466 Y48.989 E-0.05147
G1 X81.712 Y48.989 E-0.17414
G1 X81.712 Y48.771 E-0.05025
G1 X80.957 Y48.776 E-0.17414
G1 X80.957 Y48.967 E-0.04400
;WIPE_END
G1 E-0.04000 F2100.000
G1 Z0.600 F10800.000
G1 X83.220 Y54.877
G1 Z0.200
G1 E0.80000 F2100.000
G1 F1200.000
G1 X83.220 Y53.770 E0.03469
G1 X82.466 Y52.485 E0.04673
G1 X82.466 Y55.861 E0.10585
G1 X82.079 Y56.541 E0.02455
G1 X81.712 Y56.544 E0.01152
G1 X81.712 Y51.771 E0.14966
G1 X80.957 Y51.776 E0.02365
G1 X80.957 Y56.549 E0.14966
G1 X80.203 Y56.555 E0.02365
G1 X80.203 Y51.782 E0.14966
G1 X79.449 Y51.787 E0.02365
G1 X79.449 Y56.560 E0.14966
G1 X79.323 Y56.561 E0.00394
G1 X78.695 Y55.490 E0.03894
G1 X78.695 Y52.836 E0.08321
G1 X77.941 Y54.163 E0.04787
G1 X77.941 Y54.539 E0.01180
;WIPE_START
G1 F8640.000
G1 X77.941 Y54.163 E-0.08690
G1 X78.695 Y52.836 E-0.35255
G1 X78.695 Y54.224 E-0.32055
;WIPE_END
G1 E-0.04000 F2100.000
G1 Z0.600 F10800.000
G1 X74.924 Y55.326
G1 Z0.200
G1 E0.80000 F2100.000
G1 F1200.000
G1 X74.924 Y53.056 E0.07116
;WIPE_START
G1 F8640.000
G1 X74.924 Y55.326 E-0.52405
;WIPE_END
G1 E-0.27595 F2100.000
G1 Z0.600 F10800.000
G1 X74.924 Y98.131
G1 Z0.200
G1 E0.80000 F2100.000
G1 F1200.000
G1 X74.924 Y100.400 E0.07116
;WIPE_START
G1 F8640.000
G1 X74.924 Y98.131 E-0.52406
;WIPE_END
G1 E-0.27594 F2100.000
G1 Z0.600 F10800.000
G1 X77.941 Y99.618
G1 Z0.200
G1 E0.80000 F2100.000
G1 F1200.000
G1 X77.941 Y99.240 E0.01186
G1 X78.695 Y97.922 E0.04763
G1 X78.695 Y100.575 E0.08321
G1 X79.317 Y101.642 E0.03871
G1 X79.449 Y101.641 E0.00415
G1 X79.449 Y96.868 E0.14965
G1 X80.203 Y96.865 E0.02365
G1 X80.203 Y101.638 E0.14965
G1 X80.957 Y101.635 E0.02365
G1 X80.957 Y96.862 E0.14965
G1 X81.712 Y96.859 E0.02365
G1 X81.712 Y101.632 E0.14965
G1 X82.072 Y101.630 E0.01131
G1 X82.466 Y100.942 E0.02486
G1 X82.466 Y97.567 E0.10584
G1 X83.220 Y98.860 E0.04696
G1 X83.220 Y99.965 E0.03464
;WIPE_START
G1 F8640.000
G1 X83.220 Y98.860 E-0.25512
G1 X82.466 Y97.567 E-0.34580
G1 X82.466 Y98.256 E-0.15908
;WIPE_END
G1 E-0.04000 F2100.000
G1 Z0.600 F10800.000
G1 X83.220 Y104.795
G1 Z0.200
G1 E0.80000 F2100.000
G1 F1200.000
G1 X83.220 Y104.426 E0.01159
G1 X82.466 Y104.426 E0.02365
G1 X82.466 Y104.629 E0.00636
G1 X81.712 Y104.632 E0.02365
G1 X81.712 Y104.426 E0.00646
G1 X80.957 Y104.426 E0.02365
G1 X80.957 Y104.635 E0.00656
G1 X80.203 Y104.638 E0.02365
G1 X80.203 Y104.426 E0.00666
G1 X79.449 Y104.426 E0.02365
G1 X79.449 Y104.641 E0.00676
G1 X78.695 Y104.644 E0.02365
G1 X78.695 Y104.426 E0.00685
G1 X77.941 Y104.426 E0.02365
G1 X77.941 Y104.817 E0.01227
;WIPE_START
G1 F8640.000
G1 X77.941 Y104.426 E-0.09038
G1 X78.695 Y104.426 E-0.17414
G1 X78.695 Y104.644 E-0.05048
G1 X79.449 Y104.641 E-0.17414
G1 X79.449 Y104.426 E-0.04976
G1 X80.203 Y104.426 E-0.17414
G1 X80.203 Y104.629 E-0.04698
;WIPE_END
G1 E-0.04000 F2100.000
G1 Z0.600 F10800.000
G1 X110.370 Y99.685
G1 Z0.200
G1 E0.80000 F2100.000
G1 F1200.000
G1 X110.370 Y99.143 E0.01699
G1 X109.615 Y97.844 E0.04710
G1 X109.615 Y100.658 E0.08822
G1 X109.055 Y101.633 E0.03526
G1 X108.861 Y101.633 E0.00609
G1 X108.861 Y96.860 E0.14965
G1 X108.107 Y96.862 E0.02365
G1 X108.107 Y101.635 E0.14965
G1 X107.353 Y101.637 E0.02365
G1 X107.353 Y96.864 E0.14965
G1 X106.599 Y96.866 E0.02365
G1 X106.599 Y101.639 E0.14965
G1 X106.300 Y101.639 E0.00938
G1 X105.845 Y100.855 E0.02842
G1 X105.845 Y97.640 E0.10083
G1 X105.091 Y98.953 E0.04748
G1 X105.091 Y99.894 E0.02951
;WIPE_START
G1 F8640.000
G1 X105.091 Y98.953 E-0.21732
G1 X105.845 Y97.640 E-0.34969
G1 X105.845 Y98.475 E-0.19299
;WIPE_END
G1 E-0.04000 F2100.000
G1 Z0.600 F10800.000
G1 X105.091 Y104.812
G1 Z0.200
G1 E0.80000 F2100.000
G1 F1200.000
G1 X105.091 Y104.426 E0.01210
G1 X105.845 Y104.426 E0.02365
G1 X105.845 Y104.640 E0.00673
G1 X106.599 Y104.639 E0.02365
G1 X106.599 Y104.426 E0.00667
G1 X107.353 Y104.426 E0.02365
G1 X107.353 Y104.637 E0.00662
G1 X108.107 Y104.635 E0.02365
G1 X108.107 Y104.426 E0.00656
G1 X108.861 Y104.426 E0.02365
M73 Q0 S211
G1 X108.861 Y104.633 E0.00651
G1 X109.615 Y104.632 E0.02365
G1 X109.615 Y104.426 E0.00645
G1 X110.370 Y104.426 E0.02365
G1 X110.370 Y104.799 E0.01172
;WIPE_START
G1 F8640.000
G1 X110.370 Y104.426 E-0.08630
G1 X109.615 Y104.426 E-0.17414
G1 X109.615 Y104.632 E-0.04752
G1 X108.861 Y104.633 E-0.17414
G1 X108.861 Y104.426 E-0.04793
G1 X108.107 Y104.426 E-0.17414
G1 X108.107 Y104.635 E-0.04833
G1 X108.075 Y104.635 E-0.00750
;WIPE_END
G1 E-0.04000 F2100.000
G1 Z0.600 F10800.000
G1 X132.240 Y104.736
G1 Z0.200
G1 E0.80000 F2100.000
G1 F1200.000
G1 X132.240 Y104.426 E0.00972
G1 X131.486 Y104.426 E0.02365
G1 X131.486 Y104.586 E0.00503
G1 X130.732 Y104.607 E0.02365
G1 X130.732 Y104.426 E0.00568
G1 X129.978 Y104.426 E0.02365
G1 X129.978 Y104.627 E0.00632
G1 X129.224 Y104.648 E0.02365
G1 X129.224 Y104.426 E0.00696
G1 X128.469 Y104.426 E0.02365
G1 X128.469 Y104.668 E0.00760
G1 X127.715 Y104.689 E0.02365
G1 X127.715 Y104.426 E0.00824
G1 X126.961 Y104.426 E0.02365
G1 X126.961 Y104.879 E0.01421
;WIPE_START
G1 F8640.000
G1 X126.961 Y104.426 E-0.10462
G1 X127.715 Y104.426 E-0.17414
G1 X127.715 Y104.689 E-0.06070
G1 X128.469 Y104.668 E-0.17420
G1 X128.469 Y104.426 E-0.05598
G1 X129.224 Y104.426 E-0.17414
G1 X129.224 Y104.496 E-0.01623
;WIPE_END
G1 E-0.04000 F2100.000
G1 Z0.600 F10800.000
G1 X126.961 Y99.871
G1 Z0.200
G1 E0.80000 F2100.000
G1 F1200.000
G1 X126.961 Y99.073 E0.02501
G1 X127.715 Y97.681 E0.04964
G1 X127.715 Y100.774 E0.09699
G1 X128.267 Y101.673 E0.03305
G1 X128.469 Y101.667 E0.00635
G1 X128.469 Y96.892 E0.14971
G1 X129.224 Y96.872 E0.02365
G1 X129.224 Y101.647 E0.14971
G1 X129.978 Y101.626 E0.02365
G1 X129.978 Y96.852 E0.14971
G1 X130.732 Y96.831 E0.02365
G1 X130.732 Y101.606 E0.14971
G1 X131.022 Y101.598 E0.00909
G1 X131.486 Y100.740 E0.03058
G1 X131.486 Y97.794 E0.09239
G1 X132.240 Y99.022 E0.04519
G1 X132.240 Y99.705 E0.02140
;WIPE_START
G1 F8640.000
G1 X132.240 Y99.022 E-0.15761
G1 X131.486 Y97.794 E-0.33277
G1 X131.486 Y98.962 E-0.26962
;WIPE_END
G1 E-0.04000 F2100.000
G1 Z0.600 F10800.000
G1 X135.257 Y99.030
G1 Z0.200
G1 E0.80000 F2100.000
G1 F1200.000
G1 X135.257 Y100.434 E0.04403
;WIPE_START
G1 F8640.000
G1 X135.257 Y99.030 E-0.32422
;WIPE_END
G1 E-0.47578 F2100.000
G1 Z0.600 F10800.000
G1 X160.898 Y104.806
G1 Z0.200
G1 E0.80000 F2100.000
G1 F1200.000
G1 X160.898 Y104.426 E0.01191
G1 X160.144 Y104.426 E0.02365
G1 X160.144 Y104.636 E0.00659
G1 X159.390 Y104.636 E0.02365
G1 X159.390 Y104.426 E0.00659
G1 X158.636 Y104.426 E0.02365
G1 X158.636 Y104.636 E0.00659
G1 X157.882 Y104.636 E0.02365
G1 X157.882 Y104.426 E0.00659
G1 X157.128 Y104.426 E0.02365
G1 X157.128 Y104.636 E0.00659
G1 X156.373 Y104.636 E0.02365
G1 X156.373 Y104.426 E0.00659
G1 X155.619 Y104.426 E0.02365
G1 X155.619 Y104.806 E0.01191
;WIPE_START
G1 F8640.000
G1 X155.619 Y104.426 E-0.08774
G1 X156.373 Y104.426 E-0.17414
G1 X156.373 Y104.636 E-0.04856
G1 X157.128 Y104.636 E-0.17414
G1 X157.128 Y104.426 E-0.04856
G1 X157.882 Y104.426 E-0.17414
G1 X157.882 Y104.636 E-0.04856
G1 X157.900 Y104.636 E-0.00415
;WIPE_END
G1 E-0.04000 F2100.000
G1 Z0.600 F10800.000
G1 X152.603 Y100.745
G1 Z0.200
G1 E0.80000 F2100.000
G1 F1200.000
G1 X152.603 Y99.316 E0.04483
;WIPE_START
G1 F8640.000
G1 X152.603 Y100.745 E-0.33014
;WIPE_END
G1 E-0.46986 F2100.000
G1 Z0.600 F10800.000
G1 X155.619 Y99.971
G1 Z0.200
G1 E0.80000 F2100.000
G1 F1200.000
G1 X155.619 Y98.868 E0.03457
G1 X156.373 Y97.562 E0.04729
G1 X156.373 Y100.937 E0.10584
G1 X156.777 Y101.636 E0.02530
G1 X157.128 Y101.636 E0.01100
G1 X157.128 Y96.863 E0.14965
G1 X157.882 Y96.863 E0.02365
G1 X157.882 Y101.636 E0.14965
G1 X158.636 Y101.636 E0.02365
G1 X158.636 Y96.863 E0.14965
G1 X159.390 Y96.863 E0.02365
G1 X159.390 Y101.636 E0.14965
G1 X159.532 Y101.636 E0.00446
G1 X160.144 Y100.577 E0.03836
G1 X160.144 Y97.923 E0.08321
G1 X160.898 Y99.229 E0.04729
G1 X160.898 Y99.610 E0.01193
;WIPE_START
G1 F8640.000
G1 X160.898 Y99.229 E-0.08789
G1 X160.144 Y97.923 E-0.34827
G1 X160.144 Y99.325 E-0.32384
;WIPE_END
G1 E-0.04000 F2100.000
G1 Z0.600 F10800.000
G1 X163.915 Y100.385
G1 Z0.200
G1 E0.80000 F2100.000
G1 F1200.000
G1 X163.915 Y98.115 E0.07116
;WIPE_START
G1 F8640.000
G1 X163.915 Y100.385 E-0.52407
;WIPE_END
G1 E-0.27593 F2100.000
G1 Z0.600 F10800.000
G1 X155.619 Y54.886
G1 Z0.200
G1 E0.80000 F2100.000
G1 F1200.000
G1 X155.619 Y53.783 E0.03457
G1 X156.373 Y52.477 E0.04729
G1 X156.373 Y55.853 E0.10584
G1 X156.777 Y56.551 E0.02529
G1 X157.128 Y56.551 E0.01100
G1 X157.128 Y51.778 E0.14965
G1 X157.882 Y51.778 E0.02365
G1 X157.882 Y56.551 E0.14965
G1 X158.636 Y56.551 E0.02365
G1 X158.636 Y51.778 E0.14965
G1 X159.390 Y51.778 E0.02365
G1 X159.390 Y56.551 E0.14965
G1 X159.532 Y56.551 E0.00446
G1 X160.144 Y55.492 E0.03837
G1 X160.144 Y52.838 E0.08321
G1 X160.898 Y54.144 E0.04730
G1 X160.898 Y54.525 E0.01193
;WIPE_START
G1 F8640.000
G1 X160.898 Y54.144 E-0.08788
G1 X160.144 Y52.838 E-0.34831
G1 X160.144 Y54.240 E-0.32381
;WIPE_END
G1 E-0.04000 F2100.000
G1 Z0.600 F10800.000
G1 X163.915 Y55.300
G1 Z0.200
G1 E0.80000 F2100.000
G1 F1200.000
G1 X163.915 Y53.030 E0.07116
;WIPE_START
G1 F8640.000
G1 X163.915 Y55.300 E-0.52407
;WIPE_END
G1 E-0.27593 F2100.000
G1 Z0.600 F10800.000
G1 X160.898 Y49.158
G1 Z0.200
G1 E0.80000 F2100.000
G1 F1200.000
G1 X160.898 Y48.779 E0.01191
G1 X160.144 Y48.778 E0.02365
G1 X160.144 Y48.989 E0.00659
G1 X159.390 Y48.989 E0.02365
G1 X159.390 Y48.778 E0.00659
G1 X158.636 Y48.778 E0.02365
G1 X158.636 Y48.989 E0.00659
G1 X157.882 Y48.989 E0.02365
G1 X157.882 Y48.778 E0.00660
G1 X157.128 Y48.778 E0.02365
G1 X157.128 Y48.989 E0.00660
G1 X156.373 Y48.989 E0.02365
G1 X156.373 Y48.778 E0.00660
G1 X155.619 Y48.778 E0.02365
G1 X155.619 Y49.158 E0.01192
;WIPE_START
G1 F8640.000
G1 X155.619 Y48.778 E-0.08778
G1 X156.373 Y48.778 E-0.17414
G1 X156.373 Y48.989 E-0.04859
G1 X157.128 Y48.989 E-0.17414
G1 X157.128 Y48.778 E-0.04858
G1 X157.882 Y48.778 E-0.17414
G1 X157.882 Y48.989 E-0.04857
G1 X157.899 Y48.989 E-0.00406
;WIPE_END
G1 E-0.04000 F2100.000
G1 Z0.600 F10800.000
G1 X122.436 Y49.158
G1 Z0.200
G1 E0.80000 F2100.000
G1 F1200.000
G1 X122.436 Y48.765 E0.01234
G1 X121.682 Y48.768 E0.02365
G1 X121.682 Y48.989 E0.00692
G1 X120.928 Y48.989 E0.02365
G1 X120.928 Y48.771 E0.00681
G1 X120.174 Y48.775 E0.02365
G1 X120.174 Y48.989 E0.00670
G1 X119.420 Y48.989 E0.02365
G1 X119.420 Y48.778 E0.00660
G1 X118.665 Y48.782 E0.02365
G1 X118.665 Y48.989 E0.00649
G1 X117.911 Y48.989 E0.02365
G1 X117.911 Y48.785 E0.00638
G1 X117.157 Y48.788 E0.02365
G1 X117.157 Y48.989 E0.00628
G1 X116.403 Y48.989 E0.02365
G1 X116.403 Y48.622 E0.01149
;WIPE_START
G1 F8640.000
G1 X116.403 Y48.989 E-0.08462
G1 X117.157 Y48.989 E-0.17414
G1 X117.157 Y48.788 E-0.04622
G1 X117.911 Y48.785 E-0.17414
G1 X117.911 Y48.989 E-0.04701
G1 X118.665 Y48.989 E-0.17414
G1 X118.665 Y48.782 E-0.04779
G1 X118.717 Y48.781 E-0.01194
;WIPE_END
G1 E-0.04000 F2100.000
G1 Z0.600 F10800.000
G1 X117.157 Y52.972
G1 Z0.200
G1 E0.80000 F2100.000
G1 F1200.000
G1 X117.157 Y55.022 E0.06429
G1 X117.911 Y56.315 E0.04693
G1 X117.911 Y51.994 E0.13549
G1 X118.031 Y51.784 E0.00757
G1 X118.665 Y51.782 E0.01989
G1 X118.665 Y56.555 E0.14965
G1 X119.420 Y56.551 E0.02365
G1 X119.420 Y51.778 E0.14965
G1 X120.174 Y51.775 E0.02365
G1 X120.174 Y56.548 E0.14965
G1 X120.808 Y56.545 E0.01989
G1 X120.928 Y56.335 E0.00757
G1 X120.928 Y52.014 E0.13549
G1 X121.682 Y53.307 E0.04693
G1 X121.682 Y55.357 E0.06429
;WIPE_START
G1 F8640.000
G1 X121.682 Y53.307 E-0.47346
G1 X121.057 Y52.235 E-0.28654
;WIPE_END
G1 E-0.04000 F2100.000
G1 Z0.600 F10800.000
G1 X156.301 Y96.040
G1 Z0.200
G1 E0.80000 F2100.000
;TYPE:External perimeter
G1 F1200.000
G1 X160.008 Y96.040 E0.11622
G1 X161.861 Y99.250 E0.11622
G1 X160.008 Y102.460 E0.11622
G1 X156.301 Y102.460 E0.11622
G1 X154.448 Y99.250 E0.11622
G1 X156.271 Y96.092 E0.11434
G1 X156.301 Y95.640 F10800.000
;WIPE_START
G1 F8640.000
G1 X159.562 Y96.046 E-0.76000
;WIPE_END
M73 P0 R209
G1 E-0.04000 F2100.000
G1 Z0.600 F10800.000
G1 X156.301 Y57.375
G1 Z0.200
G1 E0.80000 F2100.000
G1 F1200.000
G1 X154.448 Y54.164 E0.11622
G1 X156.301 Y50.955 E0.11622
G1 X160.008 Y50.955 E0.11622
G1 X161.861 Y54.165 E0.11622
G1 X160.008 Y57.375 E0.11622
G1 X156.361 Y57.375 E0.11434
G1 X155.955 Y57.575 F10800.000
;WIPE_START
G1 F8640.000
G1 X154.676 Y54.547 E-0.76000
;WIPE_END
G1 E-0.04000 F2100.000
G1 Z0.600 F10800.000
G1 X109.735 Y95.658
G1 Z0.200
G1 E0.80000 F2100.000
;TYPE:Perimeter
G1 F1200.000
G1 X111.814 Y99.240 E0.12987
G1 X109.751 Y102.832 E0.12987
G1 X105.609 Y102.842 E0.12987
G1 X103.530 Y99.259 E0.12987
G1 X105.593 Y95.667 E0.12987
G1 X109.675 Y95.658 E0.12799
G1 X109.518 Y96.035 F10800.000
